RuntimeTerror1001/Real-Steel/robot_motion_20250501-005410.csv
timestamp,left_shoulder_pitch_joint,left_shoulder_roll_joint,left_shoulder_yaw_joint,left_elbow_joint,left_wrist_roll_joint,left_wrist_pitch_joint,left_wrist_yaw_joint,right_shoulder_pitch_joint,right_shoulder_roll_joint,right_shoulder_yaw_joint,right_elbow_joint,right_wrist_roll_joint,right_wrist_pitch_joint,right_wrist_yaw_joint
0.0,0.3584,0.0713,-0.4977,1.2311,0.0000,0.0000,0.0000,0.2087,-0.2520,-0.4173,1.2142,0.0000,0.0000,0.0000
0.1,0.4234,0.0603,-0.4331,1.2514,0.0000,0.0000,0.0000,0.1912,-0.2479,-0.4279,1.2112,0.0000,0.0000,0.0000
0.2,0.4979,0.0620,-0.3442,1.2753,0.0000,0.0000,0.0000,0.1849,-0.2506,-0.4336,1.2245,0.0000,0.0000,0.0000
0.3,0.5714,0.0814,-0.2011,1.3086,0.0000,0.0000,0.0000,0.1778,-0.2524,-0.4367,1.2376,0.0000,0.0000,0.0000
0.4,0.3304,0.2625,2.0237,1.2544,0.0000,0.0000,0.0000,0.2563,-0.2672,1.3548,1.2949,0.0000,0.0000,0.0000
0.5,0.1521,0.3692,3.0703,1.2270,0.0000,0.0000,0.0000,0.2844,-0.2831,2.2135,1.3203,0.0000,0.0000,0.0000
0.6,0.0666,0.4178,3.5495,1.2574,0.0000,0.0000,0.0000,0.3040,-0.2945,2.7339,1.3130,0.0000,0.0000,0.0000
0.7,0.0327,0.4381,3.8888,1.2873,0.0000,0.0000,0.0000,0.3193,-0.3089,3.0368,1.3141,0.0000,0.0000,0.0000
0.8,0.0151,0.4474,4.1217,1.2861,0.0000,0.0000,0.0000,0.3280,-0.3250,3.1010,1.3146,0.0000,0.0000,0.0000
0.9,0.0005,0.4472,4.2777,1.2887,0.0000,0.0000,0.0000,0.3298,-0.3396,3.1081,1.3253,0.0000,0.0000,0.0000
1.0,-0.0087,0.4428,4.3216,1.3027,0.0000,0.0000,0.0000,0.3332,-0.3514,3.0818,1.3366,0.0000,0.0000,0.0000
1.1,-0.0045,0.4355,4.3770,1.3145,0.0000,0.0000,0.0000,0.3357,-0.3612,3.0458,1.3519,0.0000,0.0000,0.0000
1.2,0.0092,0.4290,4.2850,1.3468,0.0000,0.0000,0.0000,0.3383,-0.3662,3.0374,1.3731,0.0000,0.0000,0.0000
1.3,0.0233,0.4207,4.1575,1.3777,0.0000,0.0000,0.0000,0.3384,-0.3682,3.0321,1.3895,0.0000,0.0000,0.0000
1.4,0.0375,0.4122,3.9743,1.4037,0.0000,0.0000,0.0000,0.3392,-0.3670,3.0187,1.3970,0.0000,0.0000,0.0000
1.5,0.0484,0.4051,3.7590,1.4211,0.0000,0.0000,0.0000,0.3418,-0.3651,2.9963,1.4000,0.0000,0.0000,0.0000
1.6,0.0447,0.3995,3.7260,1.4321,0.0000,0.0000,0.0000,0.3412,-0.3623,3.0006,1.4041,0.0000,0.0000,0.0000
1.7,0.0310,0.3973,3.7621,1.4321,0.0000,0.0000,0.0000,0.3392,-0.3600,3.0233,1.4078,0.0000,0.0000,0.0000
1.8,0.0194,0.3952,3.8673,1.4258,0.0000,0.0000,0.0000,0.3444,-0.3583,2.9602,1.3981,0.0000,0.0000,0.0000
1.9,0.0148,0.3942,3.9467,1.4194,0.0000,0.0000,0.0000,0.3468,-0.3559,2.9371,1.3908,0.0000,0.0000,0.0000
2.0,0.0133,0.3926,4.0007,1.4176,0.0000,0.0000,0.0000,0.3489,-0.3544,2.9132,1.3849,0.0000,0.0000,0.0000
2.1,0.0175,0.3892,4.0435,1.4184,0.0000,0.0000,0.0000,0.3494,-0.3528,2.8778,1.3759,0.0000,0.0000,0.0000
2.2,0.0216,0.3871,4.1193,1.4132,0.0000,0.0000,0.0000,0.3498,-0.3513,2.8643,1.3693,0.0000,0.0000,0.0000
2.3,0.0357,0.3866,4.1169,1.4148,0.0000,0.0000,0.0000,0.3490,-0.3497,2.8644,1.3665,0.0000,0.0000,0.0000
2.4,0.0446,0.3859,4.1091,1.4162,0.0000,0.0000,0.0000,0.3502,-0.3459,2.8609,1.3585,0.0000,0.0000,0.0000
2.5,0.0449,0.3838,4.1156,1.4152,0.0000,0.0000,0.0000,0.3481,-0.3424,2.8600,1.3557,0.0000,0.0000,0.0000
2.6,0.0417,0.3816,4.1668,1.4093,0.0000,0.0000,0.0000,0.3519,-0.3402,2.8574,1.3529,0.0000,0.0000,0.0000
2.7,0.0513,0.3789,4.1857,1.4102,0.0000,0.0000,0.0000,0.3563,-0.3383,2.8876,1.3559,0.0000,0.0000,0.0000
2.8,0.0555,0.3775,4.1890,1.4109,0.0000,0.0000,0.0000,0.3595,-0.3348,2.9301,1.3560,0.0000,0.0000,0.0000
2.9,0.0562,0.3770,4.2201,1.4076,0.0000,0.0000,0.0000,0.3636,-0.3288,2.9742,1.3495,0.0000,0.0000,0.0000
3.0,0.0604,0.3772,4.2460,1.4043,0.0000,0.0000,0.0000,0.3667,-0.3244,3.0049,1.3438,0.0000,0.0000,0.0000
3.1,0.0623,0.3776,4.2570,1.4023,0.0000,0.0000,0.0000,0.3689,-0.3201,3.0317,1.3371,0.0000,0.0000,0.0000
3.2,0.0814,0.3790,4.2477,1.4030,0.0000,0.0000,0.0000,0.3784,-0.3171,3.0354,1.3299,0.0000,0.0000,0.0000
3.3,0.0884,0.3799,4.2728,1.3995,0.0000,0.0000,0.0000,0.3792,-0.3157,3.0928,1.3249,0.0000,0.0000,0.0000
3.4,0.0878,0.3802,4.3498,1.3832,0.0000,0.0000,0.0000,0.3785,-0.3170,3.1516,1.3168,0.0000,0.0000,0.0000
3.5,0.0909,0.3797,4.4236,1.3632,0.0000,0.0000,0.0000,0.3864,-0.3208,3.2004,1.3031,0.0000,0.0000,0.0000
3.6,0.0927,0.3787,4.4430,1.3605,0.0000,0.0000,0.0000,0.3877,-0.3352,3.1777,1.2920,0.0000,0.0000,0.0000
3.7,0.0894,0.3774,4.4416,1.3621,0.0000,0.0000,0.0000,0.3882,-0.3558,3.1429,1.2771,0.0000,0.0000,0.0000
3.8,0.0509,0.3873,4.4274,1.3480,0.0000,0.0000,0.0000,0.5409,-0.5242,3.7021,1.1772,0.0000,0.0000,0.0000
3.9,0.0363,0.3816,4.4704,1.3378,0.0000,0.0000,0.0000,0.2327,-0.5855,3.3665,1.0115,0.0000,0.0000,0.0000
4.0,0.0497,0.3774,4.3620,1.3824,0.0000,0.0000,0.0000,-0.0594,-0.6111,3.1417,0.9215,0.0000,0.0000,0.0000
4.1,0.0607,0.3750,4.3169,1.4174,0.0000,0.0000,0.0000,-0.3264,-0.7453,2.7278,0.8111,0.0000,0.0000,0.0000
4.2,0.0666,0.3708,4.3730,1.4406,0.0000,0.0000,0.0000,-0.5955,-1.0795,2.4814,0.7328,0.0000,0.0000,0.0000
4.3,0.0695,0.3666,4.4384,1.4634,0.0000,0.0000,0.0000,-0.8870,-1.5815,3.1763,0.7444,0.0000,0.0000,0.0000
4.4,0.0777,0.3655,4.4779,1.4786,0.0000,0.0000,0.0000,-1.1630,-1.9238,3.6945,0.8084,0.0000,0.0000,0.0000
4.5,0.0889,0.3665,4.4811,1.4912,0.0000,0.0000,0.0000,-1.3520,-2.1236,4.0126,0.8788,0.0000,0.0000,0.0000
4.6,0.1033,0.3746,4.5036,1.4877,0.0000,0.0000,0.0000,-1.5084,-2.2405,4.3350,0.9290,0.0000,0.0000,0.0000
4.7,0.1332,0.3828,4.5172,1.4706,0.0000,0.0000,0.0000,-1.6279,-2.3088,4.5221,0.9295,0.0000,0.0000,0.0000
4.8,0.1747,0.3945,4.4658,1.4714,0.0000,0.0000,0.0000,-1.7118,-2.3499,4.6334,0.9267,0.0000,0.0000,0.0000
4.9,0.2085,0.4070,4.4668,1.4647,0.0000,0.0000,0.0000,-1.7510,-2.3742,4.6984,0.9017,0.0000,0.0000,0.0000
5.0,0.2143,0.4182,4.3943,1.4547,0.0000,0.0000,0.0000,-1.8161,-2.3889,4.7373,0.8908,0.0000,0.0000,0.0000
5.1,0.2160,0.4274,4.3459,1.4412,0.0000,0.0000,0.0000,-1.8598,-2.3977,4.7532,0.8872,0.0000,0.0000,0.0000
5.2,0.2134,0.4357,4.2963,1.4293,0.0000,0.0000,0.0000,-1.8944,-2.4035,4.7586,0.8908,0.0000,0.0000,0.0000
5.3,0.2169,0.4417,4.2751,1.4194,0.0000,0.0000,0.0000,-1.9079,-2.4065,4.7593,0.8964,0.0000,0.0000,0.0000
5.4,0.2166,0.4467,4.2598,1.4124,0.0000,0.0000,0.0000,-1.9239,-2.4083,4.7660,0.8963,0.0000,0.0000,0.0000
5.5,0.2237,0.4495,4.2770,1.4050,0.0000,0.0000,0.0000,-1.9217,-2.4093,4.7658,0.8991,0.0000,0.0000,0.0000
5.6,0.2437,0.4497,4.2744,1.4079,0.0000,0.0000,0.0000,-1.9100,-2.4100,4.7772,0.9067,0.0000,0.0000,0.0000
5.7,0.2600,0.4473,4.2900,1.4142,0.0000,0.0000,0.0000,-1.8877,-2.4104,4.7843,0.9218,0.0000,0.0000,0.0000
5.8,0.2610,0.4416,4.3008,1.4205,0.0000,0.0000,0.0000,-1.8639,-2.4106,4.7886,0.9298,0.0000,0.0000,0.0000
5.9,0.3031,0.4340,4.3804,1.4225,0.0000,0.0000,0.0000,-1.8398,-2.4108,4.7913,0.9265,0.0000,0.0000,0.0000
6.0,0.3087,0.4278,4.4144,1.4280,0.0000,0.0000,0.0000,-1.7811,-2.4109,4.7929,0.8875,0.0000,0.0000,0.0000
6.1,0.3045,0.4198,4.4628,1.4248,0.0000,0.0000,0.0000,-1.7125,-2.4109,4.7938,0.8328,0.0000,0.0000,0.0000
6.2,0.2988,0.4083,4.4925,1.4265,0.0000,0.0000,0.0000,-1.4026,-1.9704,3.6726,0.7323,0.0000,0.0000,0.0000
6.3,0.2382,0.3927,4.5104,1.4578,0.0000,0.0000,0.0000,-1.1195,-1.4807,3.0071,0.6418,0.0000,0.0000,0.0000
6.4,0.1702,0.3850,3.7874,1.4731,0.0000,0.0000,0.0000,-0.8457,-1.0852,2.8412,0.5947,0.0000,0.0000,0.0000
6.5,0.1182,0.3803,4.0686,1.4586,0.0000,0.0000,0.0000,-0.4086,-0.9266,2.9567,0.5613,0.0000,0.0000,0.0000
6.6,0.0948,0.3764,4.2529,1.4292,0.0000,0.0000,0.0000,-0.0775,-0.7592,1.5119,0.9305,0.0000,0.0000,0.0000
6.7,0.0950,0.3726,4.3483,1.4171,0.0000,0.0000,0.0000,0.1229,-0.6295,1.7877,1.1389,0.0000,0.0000,0.0000
6.8,0.1071,0.3620,4.4104,1.4156,0.0000,0.0000,0.0000,0.2483,-0.5365,2.0665,1.2518,0.0000,0.0000,0.0000
6.9,0.1275,0.3536,4.4518,1.4160,0.0000,0.0000,0.0000,0.3130,-0.4728,2.3188,1.3273,0.0000,0.0000,0.0000
7.0,0.1412,0.3453,4.4860,1.4201,0.0000,0.0000,0.0000,0.3530,-0.4272,2.5262,1.3769,0.0000,0.0000,0.0000
7.1,0.1484,0.3427,4.5066,1.4151,0.0000,0.0000,0.0000,0.3759,-0.3945,2.6906,1.4048,0.0000,0.0000,0.0000
7.2,0.1244,0.3422,4.5180,1.4211,0.0000,0.0000,0.0000,0.3925,-0.3773,2.7840,1.4315,0.0000,0.0000,0.0000
7.3,0.1207,0.3429,4.5061,1.4301,0.0000,0.0000,0.0000,0.4081,-0.3626,2.9072,1.4304,0.0000,0.0000,0.0000
7.4,0.1228,0.3509,4.4270,1.4323,0.0000,0.0000,0.0000,0.4161,-0.3513,2.9891,1.4225,0.0000,0.0000,0.0000
7.5,0.1149,0.3561,4.3796,1.4331,0.0000,0.0000,0.0000,0.4258,-0.3457,2.9899,1.4116,0.0000,0.0000,0.0000
7.6,0.1101,0.3632,4.3287,1.4305,0.0000,0.0000,0.0000,0.4314,-0.3411,2.9834,1.4055,0.0000,0.0000,0.0000
7.7,0.1037,0.3815,4.2382,1.4237,0.0000,0.0000,0.0000,0.4328,-0.3383,2.9679,1.3997,0.0000,0.0000,0.0000
7.8,0.0871,0.4086,4.1143,1.4283,0.0000,0.0000,0.0000,0.4400,-0.3330,2.9721,1.3912,0.0000,0.0000,0.0000
7.9,0.1889,0.5045,4.2698,1.3943,0.0000,0.0000,0.0000,0.4458,-0.3312,3.0996,1.3934,0.0000,0.0000,0.0000
8.0,0.2339,0.6111,3.5145,1.3200,0.0000,0.0000,0.0000,0.4591,-0.3307,3.0992,1.3777,0.0000,0.0000,0.0000
8.1,0.1753,0.7287,2.4934,1.1219,0.0000,0.0000,0.0000,0.4632,-0.3308,3.0964,1.3658,0.0000,0.0000,0.0000
8.2,-0.2354,0.8878,1.8862,0.8811,0.0000,0.0000,0.0000,0.4561,-0.3294,3.0990,1.3538,0.0000,0.0000,0.0000
8.3,-0.7365,1.1535,1.3395,0.7584,0.0000,0.0000,0.0000,0.4468,-0.3280,3.1363,1.3449,0.0000,0.0000,0.0000
8.4,-1.2596,1.5516,0.8563,0.7332,0.0000,0.0000,0.0000,0.4402,-0.3255,3.1752,1.3381,0.0000,0.0000,0.0000
8.5,-1.6991,1.8476,0.6184,0.7896,0.0000,0.0000,0.0000,0.4340,-0.3240,3.2974,1.3356,0.0000,0.0000,0.0000
8.6,-2.0422,2.0266,0.4542,0.8537,0.0000,0.0000,0.0000,0.4283,-0.3224,3.3873,1.3276,0.0000,0.0000,0.0000
8.7,-2.2795,2.1301,0.3232,0.9179,0.0000,0.0000,0.0000,0.4031,-0.3190,3.4792,1.3173,0.0000,0.0000,0.0000
8.8,-2.4809,2.1924,0.0404,0.9307,0.0000,0.0000,0.0000,0.3846,-0.3167,3.5162,1.3003,0.0000,0.0000,0.0000
8.9,-2.5987,2.2298,-0.1482,0.9389,0.0000,0.0000,0.0000,0.3607,-0.3134,3.5976,1.2872,0.0000,0.0000,0.0000
9.0,-2.6781,2.2520,-0.2904,0.9348,0.0000,0.0000,0.0000,0.3467,-0.3117,3.6710,1.2715,0.0000,0.0000,0.0000
9.1,-2.7167,2.2652,-0.3304,0.9232,0.0000,0.0000,0.0000,0.3354,-0.3107,3.7227,1.2628,0.0000,0.0000,0.0000
9.2,-2.7514,2.2733,-0.3512,0.9112,0.0000,0.0000,0.0000,0.3257,-0.3104,3.7610,1.2573,0.0000,0.0000,0.0000
9.3,-2.7701,2.2782,-0.3562,0.9088,0.0000,0.0000,0.0000,0.3227,-0.3089,3.7745,1.2502,0.0000,0.0000,0.0000
9.4,-2.7839,2.2812,-0.3601,0.9206,0.0000,0.0000,0.0000,0.3216,-0.3076,3.7727,1.2433,0.0000,0.0000,0.0000
9.5,-2.7860,2.2831,-0.3748,0.9222,0.0000,0.0000,0.0000,0.3208,-0.3064,3.7667,1.2371,0.0000,0.0000,0.0000
9.6,-2.7890,2.2843,-0.3927,0.9216,0.0000,0.0000,0.0000,0.3210,-0.3055,3.7663,1.2334,0.0000,0.0000,0.0000
9.7,-2.7796,2.2849,-0.3998,0.9215,0.0000,0.0000,0.0000,0.3208,-0.3050,3.7646,1.2322,0.0000,0.0000,0.0000
9.8,-2.7752,2.2853,-0.4064,0.9277,0.0000,0.0000,0.0000,0.3226,-0.3048,3.7674,1.2319,0.0000,0.0000,0.0000
9.9,-2.7744,2.2856,-0.4189,0.9376,0.0000,0.0000,0.0000,0.3216,-0.3046,3.7633,1.2331,0.0000,0.0000,0.0000
10.0,-2.7617,2.2858,-0.4593,0.9790,0.0000,0.0000,0.0000,0.3329,-0.3080,3.7189,1.2381,0.0000,0.0000,0.0000
10.1,-2.7359,2.2858,-0.4502,1.0069,0.0000,0.0000,0.0000,0.3558,-0.3128,3.6788,1.2458,0.0000,0.0000,0.0000
10.2,-2.5417,2.2859,-0.2866,0.9921,0.0000,0.0000,0.0000,0.3666,-0.3161,3.6445,1.2636,0.0000,0.0000,0.0000
10.3,-2.2076,2.1428,0.0028,0.9731,0.0000,0.0000,0.0000,0.3730,-0.3120,3.5853,1.2814,0.0000,0.0000,0.0000
10.4,-1.8340,1.7988,0.4068,0.9418,0.0000,0.0000,0.0000,0.3855,-0.3090,3.4808,1.2911,0.0000,0.0000,0.0000
10.5,-1.3950,1.4770,1.0319,0.8677,0.0000,0.0000,0.0000,0.4181,-0.3081,3.3186,1.2889,0.0000,0.0000,0.0000
10.6,-0.9640,1.1924,1.4631,0.9338,0.0000,0.0000,0.0000,0.4329,-0.3053,3.1999,1.2892,0.0000,0.0000,0.0000
10.7,-0.6269,0.9872,2.2521,1.0606,0.0000,0.0000,0.0000,0.4371,-0.3035,3.1581,1.3040,0.0000,0.0000,0.0000
10.8,-0.4131,0.8360,3.0168,1.1307,0.0000,0.0000,0.0000,0.4423,-0.3014,3.1249,1.3173,0.0000,0.0000,0.0000
10.9,-0.1523,0.7070,2.9520,1.1770,0.0000,0.0000,0.0000,0.4301,-0.2998,3.1287,1.3326,0.0000,0.0000,0.0000
11.0,-0.0034,0.6247,2.9134,1.2119,0.0000,0.0000,0.0000,0.4154,-0.2990,3.1067,1.3419,0.0000,0.0000,0.0000
11.1,0.0765,0.5677,3.0058,1.2571,0.0000,0.0000,0.0000,0.4098,-0.2986,3.1007,1.3499,0.0000,0.0000,0.0000
11.2,0.1089,0.5336,3.2579,1.2911,0.0000,0.0000,0.0000,0.4090,-0.2988,3.0890,1.3549,0.0000,0.0000,0.0000
11.3,0.1497,0.5112,3.3387,1.3136,0.0000,0.0000,0.0000,0.4071,-0.2988,3.0523,1.3620,0.0000,0.0000,0.0000
11.4,0.1669,0.4935,3.4663,1.3285,0.0000,0.0000,0.0000,0.4027,-0.2986,2.9897,1.3746,0.0000,0.0000,0.0000
11.5,0.1724,0.4832,3.5823,1.3358,0.0000,0.0000,0.0000,0.3959,-0.2980,2.9749,1.3971,0.0000,0.0000,0.0000
11.6,0.1856,0.4750,3.6755,1.3420,0.0000,0.0000,0.0000,0.3939,-0.2977,2.9443,1.4085,0.0000,0.0000,0.0000
11.7,0.1882,0.4680,3.6990,1.3539,0.0000,0.0000,0.0000,0.3929,-0.2986,2.9204,1.4170,0.0000,0.0000,0.0000
11.8,0.1824,0.4631,3.7592,1.3618,0.0000,0.0000,0.0000,0.3928,-0.3007,2.9509,1.4161,0.0000,0.0000,0.0000
11.9,0.1800,0.4595,3.8636,1.3647,0.0000,0.0000,0.0000,0.3977,-0.3067,3.0899,1.3853,0.0000,0.0000,0.0000
12.0,0.1701,0.4520,3.9592,1.3738,0.0000,0.0000,0.0000,0.3974,-0.3372,3.1757,1.3553,0.0000,0.0000,0.0000
12.1,0.1456,0.4454,4.0406,1.3819,0.0000,0.0000,0.0000,0.3847,-0.3922,3.3189,1.2867,0.0000,0.0000,0.0000
12.2,0.1205,0.4380,4.0927,1.3932,0.0000,0.0000,0.0000,0.3665,-0.4653,3.3835,1.2418,0.0000,0.0000,0.0000
12.3,0.1058,0.4329,4.1062,1.4033,0.0000,0.0000,0.0000,0.3527,-0.5465,3.4373,1.1820,0.0000,0.0000,0.0000
12.4,0.0857,0.4261,4.1143,1.4169,0.0000,0.0000,0.0000,0.3158,-0.6170,3.4879,1.1423,0.0000,0.0000,0.0000
12.5,0.0674,0.4219,4.0199,1.4308,0.0000,0.0000,0.0000,0.2798,-0.7027,3.5208,1.0922,0.0000,0.0000,0.0000
12.6,0.0673,0.4191,3.9408,1.4400,0.0000,0.0000,0.0000,0.2483,-0.8033,3.5415,1.0689,0.0000,0.0000,0.0000
12.7,0.0639,0.4158,3.8730,1.4490,0.0000,0.0000,0.0000,0.2119,-0.8939,3.5545,1.0565,0.0000,0.0000,0.0000
12.8,0.0490,0.4142,3.6409,1.4546,0.0000,0.0000,0.0000,0.1309,-1.0090,3.5853,1.0670,0.0000,0.0000,0.0000
12.9,0.0415,0.4142,3.5283,1.4591,0.0000,0.0000,0.0000,0.0575,-1.1118,3.6199,1.0832,0.0000,0.0000,0.0000
13.0,0.0448,0.4146,3.3834,1.4599,0.0000,0.0000,0.0000,-0.0124,-1.1955,3.6465,1.0973,0.0000,0.0000,0.0000
13.1,0.0518,0.4141,3.3472,1.4635,0.0000,0.0000,0.0000,-0.0705,-1.2578,3.6661,1.0983,0.0000,0.0000,0.0000
13.2,0.0584,0.4133,3.3832,1.4673,0.0000,0.0000,0.0000,-0.1250,-1.2978,3.6876,1.0960,0.0000,0.0000,0.0000
13.3,0.0755,0.4128,3.5433,1.4693,0.0000,0.0000,0.0000,-0.1528,-1.3196,3.7141,1.0967,0.0000,0.0000,0.0000
13.4,0.1037,0.4132,3.6546,1.4698,0.0000,0.0000,0.0000,-0.1645,-1.3293,3.7339,1.0979,0.0000,0.0000,0.0000
13.5,0.1201,0.4139,3.6989,1.4707,0.0000,0.0000,0.0000,-0.1668,-1.3278,3.7538,1.0983,0.0000,0.0000,0.0000
13.6,0.1191,0.4149,3.5624,1.4716,0.0000,0.0000,0.0000,-0.1474,-1.3152,3.7538,1.1000,0.0000,0.0000,0.0000
13.7,0.1238,0.4156,3.5403,1.4723,0.0000,0.0000,0.0000,-0.1256,-1.2950,3.7494,1.0919,0.0000,0.0000,0.0000
13.8,0.1228,0.4154,3.3624,1.4700,0.0000,0.0000,0.0000,-0.0559,-1.2398,3.7079,1.0900,0.0000,0.0000,0.0000
13.9,0.1186,0.4135,3.4110,1.4718,0.0000,0.0000,0.0000,0.0484,-1.1366,3.6612,1.0787,0.0000,0.0000,0.0000
14.0,0.0974,0.4114,3.5272,1.4719,0.0000,0.0000,0.0000,0.1302,-1.0238,3.6277,1.0774,0.0000,0.0000,0.0000
14.1,0.0923,0.4108,3.8056,1.4594,0.0000,0.0000,0.0000,0.2010,-0.9185,3.6078,1.0985,0.0000,0.0000,0.0000
14.2,0.0778,0.4120,3.9878,1.4469,0.0000,0.0000,0.0000,0.2426,-0.8237,3.5862,1.1481,0.0000,0.0000,0.0000
14.3,0.0717,0.4166,4.0571,1.4378,0.0000,0.0000,0.0000,0.2767,-0.7153,3.5427,1.1999,0.0000,0.0000,0.0000
14.4,0.0728,0.4236,4.0675,1.4274,0.0000,0.0000,0.0000,0.3065,-0.6066,3.4649,1.2509,0.0000,0.0000,0.0000
14.5,0.0783,0.4299,4.0631,1.4193,0.0000,0.0000,0.0000,0.3344,-0.5191,3.3104,1.2903,0.0000,0.0000,0.0000
14.6,0.0814,0.4297,4.0890,1.4163,0.0000,0.0000,0.0000,0.3497,-0.4544,3.1747,1.3262,0.0000,0.0000,0.0000
14.7,0.0866,0.4261,4.1289,1.4135,0.0000,0.0000,0.0000,0.3623,-0.4073,3.0594,1.3671,0.0000,0.0000,0.0000
14.8,0.0939,0.4217,4.1507,1.4085,0.0000,0.0000,0.0000,0.3735,-0.3687,3.1541,1.3902,0.0000,0.0000,0.0000
14.9,0.1032,0.4163,4.1631,1.4085,0.0000,0.0000,0.0000,0.3782,-0.3455,3.1866,1.4088,0.0000,0.0000,0.0000
15.0,0.1111,0.4108,4.1765,1.4109,0.0000,0.0000,0.0000,0.3799,-0.3337,3.2179,1.4213,0.0000,0.0000,0.0000
15.1,0.1198,0.4088,4.1613,1.4159,0.0000,0.0000,0.0000,0.3858,-0.3287,3.1519,1.4288,0.0000,0.0000,0.0000
15.2,0.1259,0.4136,4.1258,1.4206,0.0000,0.0000,0.0000,0.3950,-0.3259,3.0822,1.4282,0.0000,0.0000,0.0000
15.3,0.1722,0.4463,2.0112,1.4521,0.0000,0.0000,0.0000,0.4144,-0.3210,3.1352,1.4211,0.0000,0.0000,0.0000
15.4,0.1748,0.5122,0.8188,1.4635,0.0000,0.0000,0.0000,0.4257,-0.3151,3.1525,1.4041,0.0000,0.0000,0.0000
15.5,0.1795,0.6386,2.0840,1.4775,0.0000,0.0000,0.0000,0.4291,-0.3084,3.1880,1.3837,0.0000,0.0000,0.0000
15.6,0.1944,0.7821,3.0499,1.4721,0.0000,0.0000,0.0000,0.4288,-0.3052,3.2333,1.3706,0.0000,0.0000,0.0000
15.7,0.3114,0.9038,3.6682,1.4241,0.0000,0.0000,0.0000,0.4334,-0.3057,3.3120,1.3731,0.0000,0.0000,0.0000
15.8,0.5062,1.0276,4.0278,1.4038,0.0000,0.0000,0.0000,0.4359,-0.3121,3.3468,1.3846,0.0000,0.0000,0.0000
15.9,0.6131,1.1432,4.2400,1.4057,0.0000,0.0000,0.0000,0.4359,-0.3204,3.3473,1.3892,0.0000,0.0000,0.0000
16.0,0.7828,1.2602,4.3630,1.3810,0.0000,0.0000,0.0000,0.4379,-0.3266,3.3267,1.3816,0.0000,0.0000,0.0000
16.1,1.0569,1.3879,4.4416,1.3614,0.0000,0.0000,0.0000,0.4386,-0.3354,3.3132,1.3755,0.0000,0.0000,0.0000
16.2,1.3343,1.4865,4.4807,1.3516,0.0000,0.0000,0.0000,0.4398,-0.3441,3.2883,1.3754,0.0000,0.0000,0.0000
16.3,1.5235,1.5500,4.5035,1.3439,0.0000,0.0000,0.0000,0.4525,-0.3488,3.2266,1.3657,0.0000,0.0000,0.0000
16.4,1.7217,1.5970,4.5172,1.3154,0.0000,0.0000,0.0000,0.4693,-0.3522,3.1810,1.3537,0.0000,0.0000,0.0000
16.5,1.9175,1.6231,2.2494,1.3204,0.0000,0.0000,0.0000,0.4765,-0.3543,3.1536,1.3425,0.0000,0.0000,0.0000
16.6,2.0765,1.6413,0.9566,1.3284,0.0000,0.0000,0.0000,0.4790,-0.3555,3.1331,1.3334,0.0000,0.0000,0.0000
16.7,2.2088,1.6569,0.2383,1.3298,0.0000,0.0000,0.0000,0.4902,-0.3571,3.1124,1.3256,0.0000,0.0000,0.0000
16.8,2.3963,1.6598,-0.1674,1.3463,0.0000,0.0000,0.0000,0.4935,-0.3576,3.0829,1.3168,0.0000,0.0000,0.0000
16.9,2.5301,1.6567,-0.3912,1.3601,0.0000,0.0000,0.0000,0.4933,-0.3553,3.0888,1.3097,0.0000,0.0000,0.0000
17.0,0.2489,1.6466,1.6625,1.3712,0.0000,0.0000,0.0000,0.4914,-0.3491,3.1080,1.3031,0.0000,0.0000,0.0000
17.1,1.2279,1.6356,2.9044,1.3684,0.0000,0.0000,0.0000,0.4900,-0.3425,3.1047,1.2959,0.0000,0.0000,0.0000
17.2,0.9633,1.5988,3.6093,1.3806,0.0000,0.0000,0.0000,0.4570,-0.3413,3.1075,1.3028,0.0000,0.0000,0.0000
17.3,0.6601,1.5342,4.0046,1.3927,0.0000,0.0000,0.0000,0.4292,-0.3414,3.1275,1.3150,0.0000,0.0000,0.0000
17.4,0.5268,1.4058,4.2254,1.3723,0.0000,0.0000,0.0000,0.4227,-0.3449,3.1185,1.3306,0.0000,0.0000,0.0000
17.5,0.3993,1.2265,4.2426,1.4054,0.0000,0.0000,0.0000,0.4202,-0.3463,3.1105,1.3461,0.0000,0.0000,0.0000
17.6,0.3040,1.0484,4.1683,1.4438,0.0000,0.0000,0.0000,0.4183,-0.3429,3.0931,1.3573,0.0000,0.0000,0.0000
17.7,0.2317,0.8571,2.1071,1.4603,0.0000,0.0000,0.0000,0.4164,-0.3350,3.1008,1.3611,0.0000,0.0000,0.0000
17.8,0.2075,0.7086,0.9451,1.4625,0.0000,0.0000,0.0000,0.4130,-0.3278,3.1387,1.3656,0.0000,0.0000,0.0000
17.9,0.1710,0.6116,2.3609,1.4607,0.0000,0.0000,0.0000,0.4040,-0.3184,3.2047,1.3642,0.0000,0.0000,0.0000
18.0,0.1371,0.5534,3.1976,1.4514,0.0000,0.0000,0.0000,0.3943,-0.3129,3.2445,1.3658,0.0000,0.0000,0.0000
18.1,0.1165,0.5144,3.7059,1.4391,0.0000,0.0000,0.0000,0.3895,-0.3099,3.2576,1.3668,0.0000,0.0000,0.0000
18.2,0.1042,0.4883,4.0000,1.4318,0.0000,0.0000,0.0000,0.3841,-0.3109,3.2773,1.3732,0.0000,0.0000,0.0000
18.3,0.0975,0.4713,4.1900,1.4246,0.0000,0.0000,0.0000,0.3803,-0.3118,3.2868,1.3750,0.0000,0.0000,0.0000
18.4,0.0937,0.4635,4.3147,1.4199,0.0000,0.0000,0.0000,0.3735,-0.3138,3.3081,1.3774,0.0000,0.0000,0.0000
18.5,0.0985,0.4579,4.3755,1.4144,0.0000,0.0000,0.0000,0.3755,-0.3154,3.3044,1.3762,0.0000,0.0000,0.0000
18.6,0.0996,0.4516,4.4182,1.4089,0.0000,0.0000,0.0000,0.3786,-0.3168,3.3047,1.3764,0.0000,0.0000,0.0000
18.7,0.1010,0.4450,4.4657,1.4090,0.0000,0.0000,0.0000,0.3864,-0.3177,3.2905,1.3743,0.0000,0.0000,0.0000
18.8,0.1082,0.4392,4.4942,1.4142,0.0000,0.0000,0.0000,0.3955,-0.3182,3.2730,1.3694,0.0000,0.0000,0.0000
18.9,0.1115,0.4325,4.5115,1.4215,0.0000,0.0000,0.0000,0.4008,-0.3193,3.2925,1.3614,0.0000,0.0000,0.0000
19.0,0.1134,0.4274,4.5218,1.4261,0.0000,0.0000,0.0000,0.4047,-0.3212,3.3302,1.3460,0.0000,0.0000,0.0000
19.1,0.1126,0.4225,4.5283,1.4271,0.0000,0.0000,0.0000,0.4069,-0.3246,3.3756,1.3211,0.0000,0.0000,0.0000
19.2,0.1124,0.4143,4.5321,1.4337,0.0000,0.0000,0.0000,0.3995,-0.3349,3.4052,1.3003,0.0000,0.0000,0.0000
19.3,0.1115,0.4097,4.5345,1.4403,0.0000,0.0000,0.0000,0.3865,-0.3466,3.3780,1.2848,0.0000,0.0000,0.0000
19.4,0.1062,0.4078,4.5358,1.4431,0.0000,0.0000,0.0000,0.3723,-0.3553,3.3942,1.2732,0.0000,0.0000,0.0000
19.5,0.0999,0.4083,4.5367,1.4431,0.0000,0.0000,0.0000,0.3612,-0.3622,3.3995,1.2616,0.0000,0.0000,0.0000
19.6,0.0951,0.4092,4.5372,1.4433,0.0000,0.0000,0.0000,0.3541,-0.3674,3.4094,1.2501,0.0000,0.0000,0.0000
19.7,0.0944,0.4099,4.5375,1.4407,0.0000,0.0000,0.0000,0.3464,-0.3719,3.4234,1.2353,0.0000,0.0000,0.0000
19.8,0.0943,0.4109,4.5377,1.4389,0.0000,0.0000,0.0000,0.3427,-0.3757,3.4282,1.2223,0.0000,0.0000,0.0000
19.9,0.0915,0.4116,4.5378,1.4365,0.0000,0.0000,0.0000,0.3393,-0.3795,3.4398,1.2136,0.0000,0.0000,0.0000
20.0,0.0897,0.4127,4.5379,1.4347,0.0000,0.0000,0.0000,0.3366,-0.3832,3.4517,1.2067,0.0000,0.0000,0.0000
20.1,0.0880,0.4134,4.5380,1.4343,0.0000,0.0000,0.0000,0.3351,-0.3862,3.4610,1.2031,0.0000,0.0000,0.0000
20.2,0.0903,0.4122,4.5380,1.4358,0.0000,0.0000,0.0000,0.3338,-0.3889,3.4692,1.2022,0.0000,0.0000,0.0000
20.3,0.0915,0.4117,4.5380,1.4384,0.0000,0.0000,0.0000,0.3337,-0.3911,3.4792,1.2004,0.0000,0.0000,0.0000
20.4,0.0915,0.4119,4.5380,1.4388,0.0000,0.0000,0.0000,0.3332,-0.3936,3.4855,1.2009,0.0000,0.0000,0.0000
20.5,0.0903,0.4121,4.5380,1.4403,0.0000,0.0000,0.0000,0.3318,-0.3967,3.4930,1.2034,0.0000,0.0000,0.0000
20.6,0.0897,0.4122,4.5380,1.4408,0.0000,0.0000,0.0000,0.3295,-0.3988,3.4970,1.2060,0.0000,0.0000,0.0000
20.7,0.0925,0.4121,4.5380,1.4378,0.0000,0.0000,0.0000,0.3286,-0.4009,3.4994,1.2080,0.0000,0.0000,0.0000
20.8,0.0924,0.4118,4.5380,1.4330,0.0000,0.0000,0.0000,0.3281,-0.4021,3.5000,1.2090,0.0000,0.0000,0.0000
20.9,0.0918,0.4111,4.5380,1.4318,0.0000,0.0000,0.0000,0.3288,-0.4031,3.4909,1.2086,0.0000,0.0000,0.0000
21.0,0.0911,0.4100,4.5380,1.4320,0.0000,0.0000,0.0000,0.3303,-0.4045,3.4897,1.2095,0.0000,0.0000,0.0000
21.1,0.0906,0.4089,4.5380,1.4337,0.0000,0.0000,0.0000,0.3312,-0.4058,3.4935,1.2175,0.0000,0.0000,0.0000
21.2,0.0911,0.4076,4.5380,1.4326,0.0000,0.0000,0.0000,0.3394,-0.4089,3.5027,1.2298,0.0000,0.0000,0.0000
21.3,0.0890,0.4042,4.5380,1.4337,0.0000,0.0000,0.0000,0.3476,-0.4112,3.5120,1.2445,0.0000,0.0000,0.0000
21.4,0.0928,0.4010,4.5380,1.4368,0.0000,0.0000,0.0000,0.3558,-0.4124,3.5257,1.2583,0.0000,0.0000,0.0000
21.5,0.0956,0.3985,4.5380,1.4383,0.0000,0.0000,0.0000,0.3694,-0.4126,3.5342,1.2708,0.0000,0.0000,0.0000
21.6,0.1004,0.3964,4.5380,1.4407,0.0000,0.0000,0.0000,0.3790,-0.4124,3.5159,1.2820,0.0000,0.0000,0.0000
21.7,0.1089,0.3952,4.5380,1.4444,0.0000,0.0000,0.0000,0.3876,-0.4119,3.4854,1.2883,0.0000,0.0000,0.0000
21.8,0.1133,0.3950,4.5380,1.4466,0.0000,0.0000,0.0000,0.3951,-0.4114,3.4699,1.2924,0.0000,0.0000,0.0000
21.9,0.1153,0.3954,4.5380,1.4480,0.0000,0.0000,0.0000,0.4022,-0.4111,3.4533,1.2950,0.0000,0.0000,0.0000
22.0,0.1165,0.3962,4.5380,1.4489,0.0000,0.0000,0.0000,0.4058,-0.4108,3.4395,1.2970,0.0000,0.0000,0.0000
22.1,0.1176,0.3977,4.5380,1.4475,0.0000,0.0000,0.0000,0.4081,-0.4101,3.4239,1.2974,0.0000,0.0000,0.0000
22.2,0.1145,0.4014,4.5380,1.4483,0.0000,0.0000,0.0000,0.4099,-0.4093,3.4107,1.2977,0.0000,0.0000,0.0000
22.3,0.1077,0.4035,4.5380,1.4492,0.0000,0.0000,0.0000,0.4076,-0.4084,3.4095,1.2985,0.0000,0.0000,0.0000
22.4,0.0918,0.4039,4.5380,1.4442,0.0000,0.0000,0.0000,0.4006,-0.4075,3.4126,1.3000,0.0000,0.0000,0.0000
22.5,0.0441,0.4029,0.9718,1.4533,0.0000,0.0000,0.0000,0.3856,-0.4048,3.3976,1.3020,0.0000,0.0000,0.0000
22.6,0.0159,0.4031,0.3183,1.4593,0.0000,0.0000,0.0000,0.3801,-0.4040,3.3431,1.3014,0.0000,0.0000,0.0000
22.7,0.0003,0.4017,0.0539,1.4493,0.0000,0.0000,0.0000,0.3773,-0.4045,3.2895,1.3020,0.0000,0.0000,0.0000
22.8,-0.0116,0.3998,-0.0741,1.4281,0.0000,0.0000,0.0000,0.3746,-0.4058,3.2499,1.3043,0.0000,0.0000,0.0000
22.9,-0.0202,0.3973,-0.1329,1.4016,0.0000,0.0000,0.0000,0.3713,-0.4072,3.2308,1.3063,0.0000,0.0000,0.0000
23.0,-0.0242,0.3974,-0.1508,1.3760,0.0000,0.0000,0.0000,0.3708,-0.4070,3.2302,1.3064,0.0000,0.0000,0.0000
23.1,-0.0209,0.3985,-0.1462,1.3487,0.0000,0.0000,0.0000,0.3723,-0.4070,3.2429,1.3081,0.0000,0.0000,0.0000
23.2,-0.0172,0.4019,-0.1256,1.3222,0.0000,0.0000,0.0000,0.3746,-0.4072,3.2580,1.3098,0.0000,0.0000,0.0000
23.3,-0.0144,0.4095,-0.1192,1.3063,0.0000,0.0000,0.0000,0.3757,-0.4080,3.2758,1.3117,0.0000,0.0000,0.0000
23.4,-0.0126,0.4157,-0.1145,1.2954,0.0000,0.0000,0.0000,0.3780,-0.4086,3.2872,1.3125,0.0000,0.0000,0.0000
23.5,-0.0090,0.4212,-0.1149,1.2878,0.0000,0.0000,0.0000,0.3805,-0.4093,3.2968,1.3126,0.0000,0.0000,0.0000
23.6,-0.0071,0.4252,-0.1154,1.2844,0.0000,0.0000,0.0000,0.3810,-0.4100,3.3135,1.3138,0.0000,0.0000,0.0000
23.7,-0.0048,0.4297,-0.1190,1.2857,0.0000,0.0000,0.0000,0.3814,-0.4108,3.3289,1.3152,0.0000,0.0000,0.0000
23.8,-0.0021,0.4335,-0.1248,1.2884,0.0000,0.0000,0.0000,0.3787,-0.4115,3.3495,1.3173,0.0000,0.0000,0.0000
23.9,-0.0007,0.4366,-0.1316,1.2911,0.0000,0.0000,0.0000,0.3768,-0.4122,3.3576,1.3185,0.0000,0.0000,0.0000
24.0,0.0015,0.4391,-0.1348,1.2942,0.0000,0.0000,0.0000,0.3761,-0.4126,3.3601,1.3188,0.0000,0.0000,0.0000
24.1,0.0027,0.4406,-0.1373,1.2973,0.0000,0.0000,0.0000,0.3758,-0.4128,3.3591,1.3185,0.0000,0.0000,0.0000
24.2,0.0011,0.4413,-0.1416,1.3012,0.0000,0.0000,0.0000,0.3758,-0.4130,3.3573,1.3183,0.0000,0.0000,0.0000
24.3,0.0001,0.4418,-0.1461,1.3061,0.0000,0.0000,0.0000,0.3757,-0.4128,3.3566,1.3187,0.0000,0.0000,0.0000
24.4,-0.0034,0.4418,-0.1483,1.3134,0.0000,0.0000,0.0000,0.3755,-0.4124,3.3569,1.3189,0.0000,0.0000,0.0000
24.5,-0.0107,0.4421,-0.1664,1.3219,0.0000,0.0000,0.0000,0.3756,-0.4112,3.3566,1.3183,0.0000,0.0000,0.0000
24.6,-0.0166,0.4415,-0.1625,1.3311,0.0000,0.0000,0.0000,0.3747,-0.4104,3.3627,1.3194,0.0000,0.0000,0.0000
24.7,-0.0210,0.4419,-0.1930,1.3423,0.0000,0.0000,0.0000,0.3744,-0.4100,3.3655,1.3218,0.0000,0.0000,0.0000
24.8,-0.0236,0.4416,-0.2825,1.3645,0.0000,0.0000,0.0000,0.3774,-0.4092,3.3529,1.3231,0.0000,0.0000,0.0000
24.9,-0.0230,0.4415,-0.3721,1.3807,0.0000,0.0000,0.0000,0.3788,-0.4084,3.3402,1.3235,0.0000,0.0000,0.0000
25.0,-0.0207,0.4425,-0.4797,1.3908,0.0000,0.0000,0.0000,0.3804,-0.4074,3.3285,1.3233,0.0000,0.0000,0.0000
25.1,-0.0154,0.4436,-0.5655,1.3963,0.0000,0.0000,0.0000,0.3812,-0.4068,3.3248,1.3237,0.0000,0.0000,0.0000
25.2,0.0089,0.4440,-0.6180,1.3915,0.0000,0.0000,0.0000,0.3807,-0.4055,3.3333,1.3244,0.0000,0.0000,0.0000
25.3,0.0285,0.4447,-0.6495,1.3934,0.0000,0.0000,0.0000,0.3810,-0.4046,3.3586,1.3268,0.0000,0.0000,0.0000
25.4,0.0547,0.4450,-0.6687,1.3976,0.0000,0.0000,0.0000,0.3891,-0.4027,3.3596,1.3264,0.0000,0.0000,0.0000
25.5,0.0663,0.4443,1.5748,1.4093,0.0000,0.0000,0.0000,0.3938,-0.4008,3.3613,1.3254,0.0000,0.0000,0.0000
25.6,0.0802,0.4421,3.5881,1.4255,0.0000,0.0000,0.0000,0.3990,-0.3976,3.3689,1.3240,0.0000,0.0000,0.0000
25.7,0.0850,0.4372,3.9994,1.4353,0.0000,0.0000,0.0000,0.4003,-0.3965,3.3831,1.3250,0.0000,0.0000,0.0000
25.8,0.0853,0.4339,4.2225,1.4394,0.0000,0.0000,0.0000,0.4016,-0.3957,3.3828,1.3248,0.0000,0.0000,0.0000
25.9,0.0830,0.4299,4.3513,1.4430,0.0000,0.0000,0.0000,0.4018,-0.3948,3.3875,1.3246,0.0000,0.0000,0.0000
26.0,0.0822,0.4271,4.4273,1.4458,0.0000,0.0000,0.0000,0.4026,-0.3939,3.3997,1.3246,0.0000,0.0000,0.0000
26.1,0.0815,0.4238,4.4722,1.4472,0.0000,0.0000,0.0000,0.4028,-0.3930,3.4076,1.3245,0.0000,0.0000,0.0000
26.2,0.0814,0.4204,4.4982,1.4497,0.0000,0.0000,0.0000,0.4032,-0.3923,3.4143,1.3243,0.0000,0.0000,0.0000
26.3,0.0814,0.4167,4.5140,1.4513,0.0000,0.0000,0.0000,0.4040,-0.3913,3.4237,1.3239,0.0000,0.0000,0.0000
26.4,0.0811,0.4149,4.5234,1.4531,0.0000,0.0000,0.0000,0.4039,-0.3896,3.4237,1.3227,0.0000,0.0000,0.0000
26.5,0.0806,0.4149,4.5291,1.4537,0.0000,0.0000,0.0000,0.4040,-0.3880,3.4231,1.3214,0.0000,0.0000,0.0000
26.6,0.0830,0.4150,4.5326,1.4537,0.0000,0.0000,0.0000,0.4057,-0.3861,3.4078,1.3194,0.0000,0.0000,0.0000
26.7,0.0841,0.4144,4.5347,1.4523,0.0000,0.0000,0.0000,0.4072,-0.3852,3.3928,1.3218,0.0000,0.0000,0.0000
26.8,0.0862,0.4141,4.5360,1.4496,0.0000,0.0000,0.0000,0.4098,-0.3840,3.3551,1.3278,0.0000,0.0000,0.0000
26.9,0.0915,0.4156,4.5369,1.4520,0.0000,0.0000,0.0000,0.4153,-0.3818,3.2633,1.3383,0.0000,0.0000,0.0000
27.0,0.1047,0.4164,4.5373,1.4593,0.0000,0.0000,0.0000,0.4231,-0.3806,3.0328,1.3618,0.0000,0.0000,0.0000
27.1,0.1282,0.4243,4.4210,1.4626,0.0000,0.0000,0.0000,0.4275,-0.3804,2.6089,1.3771,0.0000,0.0000,0.0000
27.2,0.0121,0.4416,3.4866,1.2800,0.0000,0.0000,0.0000,0.3735,-0.3763,2.3293,1.2322,0.0000,0.0000,0.0000
27.3,-0.1291,0.4679,2.9591,0.9756,0.0000,0.0000,0.0000,0.3320,-0.3660,2.1311,0.9420,0.0000,0.0000,0.0000
27.4,-0.2601,0.5173,2.5613,0.7929,0.0000,0.0000,0.0000,0.2627,-0.3565,2.0316,0.7674,0.0000,0.0000,0.0000
27.5,-0.4689,0.6274,2.1843,0.6825,0.0000,0.0000,0.0000,0.1066,-0.3173,1.9284,0.6617,0.0000,0.0000,0.0000
27.6,-0.6873,0.7866,1.8292,0.6171,0.0000,0.0000,0.0000,-0.0801,-0.2513,1.9025,0.5991,0.0000,0.0000,0.0000
27.7,-0.9572,1.0408,1.4507,0.5778,0.0000,0.0000,0.0000,-0.2158,-0.2229,1.9173,0.5613,0.0000,0.0000,0.0000
27.8,-1.1533,1.2353,1.1847,0.5538,0.0000,0.0000,0.0000,-0.3382,-0.2033,1.9412,0.5383,0.0000,0.0000,0.0000
27.9,-1.2607,1.3419,1.0246,0.5394,0.0000,0.0000,0.0000,-0.4210,-0.1831,1.9536,0.5244,0.0000,0.0000,0.0000
28.0,-1.3158,1.3930,0.9360,0.5307,0.0000,0.0000,0.0000,-0.4672,-0.1525,1.9478,0.5161,0.0000,0.0000,0.0000
28.1,-1.3584,1.4304,0.8815,0.5254,0.0000,0.0000,0.0000,-0.4908,-0.1331,1.9429,0.5110,0.0000,0.0000,0.0000
28.2,-1.3739,1.4327,0.8937,0.5222,0.0000,0.0000,0.0000,-0.4967,-0.1200,1.9420,0.5079,0.0000,0.0000,0.0000
28.3,-1.3873,1.4358,0.9070,0.5203,0.0000,0.0000,0.0000,-0.5009,-0.1172,1.9484,0.5061,0.0000,0.0000,0.0000
28.4,-1.4015,1.4474,0.8957,0.5191,0.0000,0.0000,0.0000,-0.4956,-0.1127,1.9473,0.5049,0.0000,0.0000,0.0000
28.5,-1.4053,1.4522,0.8716,0.5183,0.0000,0.0000,0.0000,-0.4892,-0.1119,1.9461,0.5042,0.0000,0.0000,0.0000
28.6,-1.4054,1.4517,0.8656,0.5179,0.0000,0.0000,0.0000,-0.4887,-0.1140,1.9483,0.5038,0.0000,0.0000,0.0000
28.7,-1.4011,1.4449,0.8689,0.5176,0.0000,0.0000,0.0000,-0.4926,-0.1176,1.9502,0.5035,0.0000,0.0000,0.0000
28.8,-1.3995,1.4473,0.8491,0.5175,0.0000,0.0000,0.0000,-0.4952,-0.1205,1.9497,0.5034,0.0000,0.0000,0.0000
28.9,-1.4000,1.4508,0.8358,0.5174,0.0000,0.0000,0.0000,-0.4954,-0.1227,1.9497,0.5033,0.0000,0.0000,0.0000
29.0,-1.3997,1.4536,0.8261,0.5173,0.0000,0.0000,0.0000,-0.4941,-0.1252,1.9488,0.5032,0.0000,0.0000,0.0000
29.1,-1.4076,1.4670,0.8037,0.5173,0.0000,0.0000,0.0000,-0.4936,-0.1280,1.9498,0.5032,0.0000,0.0000,0.0000
29.2,-1.4143,1.4771,0.7907,0.5172,0.0000,0.0000,0.0000,-0.4940,-0.1287,1.9500,0.5031,0.0000,0.0000,0.0000
29.3,-1.4180,1.4822,0.7875,0.5172,0.0000,0.0000,0.0000,-0.4938,-0.1298,1.9496,0.5031,0.0000,0.0000,0.0000
29.4,-1.4209,1.4853,0.7899,0.5172,0.0000,0.0000,0.0000,-0.4936,-0.1312,1.9496,0.5031,0.0000,0.0000,0.0000
29.5,-1.4244,1.4893,0.7901,0.5172,0.0000,0.0000,0.0000,-0.4936,-0.1321,1.9494,0.5031,0.0000,0.0000,0.0000
29.6,-1.4269,1.4902,0.8013,0.5172,0.0000,0.0000,0.0000,-0.4963,-0.1332,1.9516,0.5031,0.0000,0.0000,0.0000
29.7,-1.4275,1.4906,0.8063,0.5172,0.0000,0.0000,0.0000,-0.4973,-0.1337,1.9513,0.5031,0.0000,0.0000,0.0000
29.8,-1.4299,1.4956,0.8008,0.5172,0.0000,0.0000,0.0000,-0.4977,-0.1338,1.9508,0.5031,0.0000,0.0000,0.0000
29.9,-1.4325,1.4985,0.8063,0.5172,0.0000,0.0000,0.0000,-0.4987,-0.1351,1.9518,0.5031,0.0000,0.0000,0.0000
30.0,-1.4341,1.4973,0.8267,0.5172,0.0000,0.0000,0.0000,-0.5000,-0.1377,1.9551,0.5031,0.0000,0.0000,0.0000
30.1,-1.4373,1.5001,0.8273,0.5172,0.0000,0.0000,0.0000,-0.5006,-0.1403,1.9571,0.5031,0.0000,0.0000,0.0000
30.2,-1.4406,1.5042,0.8211,0.5172,0.0000,0.0000,0.0000,-0.4986,-0.1412,1.9578,0.5031,0.0000,0.0000,0.0000
30.3,-1.4410,1.5058,0.8180,0.5172,0.0000,0.0000,0.0000,-0.4956,-0.1442,1.9573,0.5031,0.0000,0.0000,0.0000
30.4,-1.4376,1.5015,0.8196,0.5172,0.0000,0.0000,0.0000,-0.4914,-0.1475,1.9583,0.5031,0.0000,0.0000,0.0000
30.5,-1.3878,1.4437,0.8581,0.5172,0.0000,0.0000,0.0000,-0.4838,-0.1471,1.9565,0.5031,0.0000,0.0000,0.0000
30.6,-1.2769,1.3083,0.9710,0.5172,0.0000,0.0000,0.0000,-0.4567,-0.1471,1.9595,0.5031,0.0000,0.0000,0.0000
30.7,-1.0530,1.1557,1.1362,0.5172,0.0000,0.0000,0.0000,-0.3988,-0.1435,1.9555,0.5031,0.0000,0.0000,0.0000
30.8,-0.8293,0.9726,1.3175,0.5172,0.0000,0.0000,0.0000,-0.2790,-0.1429,1.9589,0.5031,0.0000,0.0000,0.0000
30.9,-0.6323,0.8482,1.6056,0.5460,0.0000,0.0000,0.0000,-0.1203,-0.2063,1.9751,0.5031,0.0000,0.0000,0.0000
31.0,-0.4730,0.7381,1.8168,0.7906,0.0000,0.0000,0.0000,-0.0016,-0.2531,2.0360,0.5031,0.0000,0.0000,0.0000
31.1,-0.3429,0.6601,2.9098,1.0409,0.0000,0.0000,0.0000,0.2346,-0.3028,2.1901,0.7453,0.0000,0.0000,0.0000
31.2,-0.2118,0.5948,3.5452,1.1648,0.0000,0.0000,0.0000,0.3726,-0.3474,2.2613,0.9424,0.0000,0.0000,0.0000
31.3,-0.0980,0.5468,3.9305,1.2711,0.0000,0.0000,0.0000,0.4307,-0.3656,2.4091,1.1083,0.0000,0.0000,0.0000
31.4,-0.0320,0.5154,4.0780,1.3247,0.0000,0.0000,0.0000,0.4509,-0.3679,2.6091,1.2037,0.0000,0.0000,0.0000
31.5,0.0072,0.4932,4.1348,1.3598,0.0000,0.0000,0.0000,0.4505,-0.3676,2.7442,1.2636,0.0000,0.0000,0.0000
31.6,0.0505,0.4695,4.0283,1.4089,0.0000,0.0000,0.0000,0.4541,-0.3659,2.8310,1.2969,0.0000,0.0000,0.0000
31.7,0.0762,0.4522,4.1627,1.4319,0.0000,0.0000,0.0000,0.4510,-0.3642,2.9332,1.3203,0.0000,0.0000,0.0000
31.8,0.0932,0.4412,4.2550,1.4415,0.0000,0.0000,0.0000,0.4583,-0.3626,2.9342,1.3246,0.0000,0.0000,0.0000
31.9,0.1035,0.4330,4.3203,1.4511,0.0000,0.0000,0.0000,0.4617,-0.3615,2.9767,1.3371,0.0000,0.0000,0.0000
32.0,0.1104,0.4283,4.3923,1.4567,0.0000,0.0000,0.0000,0.4647,-0.3606,3.0483,1.3485,0.0000,0.0000,0.0000
32.1,0.1138,0.4230,4.4497,1.4574,0.0000,0.0000,0.0000,0.4681,-0.3596,3.1480,1.3564,0.0000,0.0000,0.0000
32.2,0.1167,0.4195,4.4842,1.4540,0.0000,0.0000,0.0000,0.4727,-0.3587,3.2024,1.3603,0.0000,0.0000,0.0000
32.3,0.1180,0.4167,4.5054,1.4543,0.0000,0.0000,0.0000,0.4750,-0.3585,3.2348,1.3638,0.0000,0.0000,0.0000
32.4,0.1223,0.4134,4.5183,1.4555,0.0000,0.0000,0.0000,0.4778,-0.3580,3.2432,1.3640,0.0000,0.0000,0.0000
32.5,0.1251,0.4093,4.5261,1.4581,0.0000,0.0000,0.0000,0.4785,-0.3579,3.2616,1.3660,0.0000,0.0000,0.0000
32.6,0.1295,0.4071,4.5308,1.4587,0.0000,0.0000,0.0000,0.4780,-0.3579,3.2796,1.3678,0.0000,0.0000,0.0000
32.7,0.1343,0.4057,4.5336,1.4628,0.0000,0.0000,0.0000,0.4775,-0.3579,3.2946,1.3702,0.0000,0.0000,0.0000
32.8,0.1364,0.4040,4.5354,1.4648,0.0000,0.0000,0.0000,0.4773,-0.3581,3.2977,1.3713,0.0000,0.0000,0.0000
32.9,0.1414,0.4019,4.5364,1.4671,0.0000,0.0000,0.0000,0.4776,-0.3576,3.3018,1.3716,0.0000,0.0000,0.0000
33.0,0.1440,0.4006,4.5370,1.4683,0.0000,0.0000,0.0000,0.4775,-0.3576,3.3035,1.3738,0.0000,0.0000,0.0000
33.1,0.1450,0.4005,4.5374,1.4722,0.0000,0.0000,0.0000,0.4737,-0.3578,3.2957,1.3748,0.0000,0.0000,0.0000
33.2,0.1436,0.4007,4.5377,1.4751,0.0000,0.0000,0.0000,0.4692,-0.3585,3.2825,1.3753,0.0000,0.0000,0.0000
33.3,0.1431,0.4014,4.5378,1.4770,0.0000,0.0000,0.0000,0.4661,-0.3596,3.2646,1.3762,0.0000,0.0000,0.0000
33.4,0.1393,0.4018,4.5379,1.4773,0.0000,0.0000,0.0000,0.4615,-0.3604,3.2597,1.3792,0.0000,0.0000,0.0000
33.5,0.1360,0.4024,4.5299,1.4770,0.0000,0.0000,0.0000,0.4578,-0.3609,3.2566,1.3819,0.0000,0.0000,0.0000
33.6,0.1341,0.4033,4.5108,1.4760,0.0000,0.0000,0.0000,0.4555,-0.3614,3.2532,1.3833,0.0000,0.0000,0.0000
33.7,0.1339,0.4037,4.4943,1.4758,0.0000,0.0000,0.0000,0.4544,-0.3616,3.2514,1.3842,0.0000,0.0000,0.0000
33.8,0.1349,0.4029,4.5044,1.4744,0.0000,0.0000,0.0000,0.4553,-0.3614,3.2473,1.3841,0.0000,0.0000,0.0000
33.9,0.1336,0.4014,4.5167,1.4709,0.0000,0.0000,0.0000,0.4556,-0.3609,3.2485,1.3833,0.0000,0.0000,0.0000
34.0,0.1355,0.3994,4.5227,1.4707,0.0000,0.0000,0.0000,0.4594,-0.3599,3.2567,1.3821,0.0000,0.0000,0.0000
34.1,0.1317,0.3985,4.5102,1.4700,0.0000,0.0000,0.0000,0.4620,-0.3590,3.2669,1.3812,0.0000,0.0000,0.0000
34.2,0.1220,0.3993,4.4872,1.4679,0.0000,0.0000,0.0000,0.4604,-0.3582,3.2698,1.3805,0.0000,0.0000,0.0000
34.3,0.1111,0.3999,4.4454,1.4682,0.0000,0.0000,0.0000,0.4564,-0.3568,3.3021,1.3830,0.0000,0.0000,0.0000
34.4,0.0997,0.4046,4.3603,1.4631,0.0000,0.0000,0.0000,0.4520,-0.3544,3.2941,1.3835,0.0000,0.0000,0.0000
34.5,0.0955,0.4065,4.2965,1.4602,0.0000,0.0000,0.0000,0.4435,-0.3519,3.2449,1.3839,0.0000,0.0000,0.0000
34.6,0.0841,0.4135,4.1756,1.4560,0.0000,0.0000,0.0000,0.4371,-0.3502,3.1792,1.3899,0.0000,0.0000,0.0000
34.7,0.0511,0.4442,4.0287,1.4194,0.0000,0.0000,0.0000,0.4071,-0.3503,3.0929,1.4156,0.0000,0.0000,0.0000
34.8,0.0129,0.4896,3.8314,1.3616,0.0000,0.0000,0.0000,0.3900,-0.3541,2.7481,1.4182,0.0000,0.0000,0.0000
34.9,-0.0334,0.5351,3.6127,1.2914,0.0000,0.0000,0.0000,0.3726,-0.3567,2.3259,1.4116,0.0000,0.0000,0.0000
35.0,-0.0758,0.5687,3.3934,1.2311,0.0000,0.0000,0.0000,0.3425,-0.3587,2.0160,1.3867,0.0000,0.0000,0.0000
35.1,-0.1457,0.5749,3.2436,1.1778,0.0000,0.0000,0.0000,0.3295,-0.3636,1.7230,1.3467,0.0000,0.0000,0.0000
35.2,-0.2175,0.5782,3.2483,1.1177,0.0000,0.0000,0.0000,0.3208,-0.3802,1.4544,1.3076,0.0000,0.0000,0.0000
