RuntimeTerror1001/Real-Steel/robot_motion_20250401-012514.csv
timestamp,left_shoulder_pitch_joint,left_shoulder_yaw_joint,left_shoulder_roll_joint,left_elbow_joint,left_wrist_pitch_joint,left_wrist_yaw_joint,left_wrist_roll_joint,right_shoulder_pitch_joint,right_shoulder_yaw_joint,right_shoulder_roll_joint,right_elbow_joint,right_wrist_pitch_joint,right_wrist_yaw_joint,right_wrist_roll_joint
0.0,-3.0890,-1.6590,-1.4539,0.3773,-1.4157,-1.4341,-1.8415,1.1929,1.6937,-1.2747,0.1629,1.1232,1.6140,-0.9350
0.1,-3.0890,-1.7070,-1.4529,0.3766,-1.4136,-1.4619,-1.8523,1.2046,1.6937,-1.2567,0.1654,1.1188,1.6140,-0.8979
0.2,-3.0890,-1.7610,-1.4505,0.3760,-1.4119,-1.4879,-1.8638,1.2174,1.6937,-1.2234,0.1676,1.1152,1.6140,-0.8392
0.3,-3.0890,-1.8186,-1.4483,0.3751,-1.4106,-1.5112,-1.8756,1.2305,1.6937,-1.1742,0.1697,1.1124,1.6140,-0.7621
0.4,-3.0890,-1.8777,-1.4463,0.3734,-1.4095,-1.5299,-1.8850,1.2438,1.6937,-1.1094,0.1713,1.1101,1.6140,-0.6698
0.5,-3.0890,-1.9367,-1.4462,0.3709,-1.4086,-1.5449,-1.8925,1.2580,1.6937,-1.0289,0.1719,1.1083,1.6140,-0.5698
0.6,-3.0890,-1.9943,-1.4467,0.3671,-1.4079,-1.5582,-1.9007,1.2716,1.6937,-0.9387,0.1707,1.1069,1.6140,-0.4698
0.7,-3.0890,-2.0496,-1.4472,0.3623,-1.4073,-1.5693,-1.9092,1.2839,1.6937,-0.8410,0.1690,1.1057,1.6140,-0.3698
0.8,-3.0890,-2.1020,-1.4477,0.3568,-1.4069,-1.5782,-1.9160,1.2948,1.6937,-0.7410,0.1708,1.1048,1.6140,-0.2741
0.9,-3.0890,-2.1509,-1.4439,0.3523,-1.4065,-1.5854,-1.9215,1.3035,1.6936,-0.6410,0.1810,1.1040,1.6140,-0.1976
1.0,-3.0890,-2.1961,-1.4337,0.3535,-1.4062,-1.5911,-1.9258,1.3094,1.6936,-0.5410,0.2036,1.1034,1.6140,-0.1364
1.1,-3.0890,-2.2376,-1.4180,0.3652,-1.4060,-1.5957,-1.9293,1.3121,1.6936,-0.4429,0.2393,1.1030,1.6140,-0.0874
1.2,-3.0890,-2.2754,-1.3947,0.3752,-1.4058,-1.5994,-1.9321,1.3109,1.6936,-0.3512,0.2880,1.1026,1.6140,-0.0482
1.3,-3.0890,-2.3096,-1.3703,0.3837,-1.4057,-1.6023,-1.9343,1.3062,1.6936,-0.2674,0.3531,1.0957,1.6140,-0.0168
1.4,-3.0890,-2.3390,-1.3441,0.3909,-1.3843,-1.6046,-1.9361,1.2965,1.6936,-0.1930,0.4275,1.0848,1.6140,0.0082
1.5,-3.0890,-2.3629,-1.3147,0.3970,-1.3426,-1.6065,-1.9375,1.2826,1.6936,-0.1286,0.5062,1.0737,1.6140,0.0283
1.6,-3.0890,-2.3804,-1.2819,0.4023,-1.2934,-1.6080,-1.9387,1.2622,1.6936,-0.0743,0.5900,1.0544,1.6140,0.0443
1.7,-3.0890,-2.3957,-1.2471,0.4067,-1.2288,-1.6092,-1.9396,1.2385,1.6936,-0.0304,0.6757,1.0331,1.6140,0.0572
1.8,-3.0890,-2.4101,-1.2086,0.4104,-1.1525,-1.6102,-1.9403,1.2139,1.6936,0.0057,0.7681,1.0026,1.6140,0.0675
1.9,-3.0890,-2.4237,-1.1646,0.4136,-1.0915,-1.6109,-1.9409,1.1881,1.6936,0.0350,0.8651,0.9606,1.6140,0.0757
2.0,-3.0890,-2.4344,-1.1251,0.4164,-1.0427,-1.6115,-1.9414,1.1626,1.6936,0.0601,0.9651,0.9004,1.6140,0.0823
2.1,-3.0890,-2.4432,-1.0895,0.4187,-0.9891,-1.6120,-1.9417,1.1386,1.6936,0.0822,1.0651,0.8393,1.6140,0.0875
2.2,-3.0890,-2.4505,-1.0574,0.4206,-0.9313,-1.6124,-1.9420,1.1165,1.6936,0.0999,1.1651,0.7832,1.6140,0.0917
2.3,-3.0890,-2.4559,-1.0285,0.4223,-0.8770,-1.6127,-1.9423,1.0953,1.6936,0.1134,1.2627,0.7258,1.6140,0.0951
2.4,-3.0890,-2.4597,-1.0026,0.4237,-0.8287,-1.6130,-1.9425,1.0763,1.6936,0.1241,1.3549,0.6675,1.6140,0.0978
2.5,-3.0890,-2.4575,-0.9792,0.4249,-0.7901,-1.6132,-1.9426,1.0592,1.6936,0.1358,1.4333,0.6063,1.6140,0.0999
2.6,-3.0890,-2.4513,-0.9582,0.4260,-0.7595,-1.6134,-1.9427,1.0438,1.6936,0.1464,1.5056,0.5574,1.6140,0.1017
2.7,-3.0890,-2.4465,-0.9392,0.4268,-0.7350,-1.6135,-1.9428,1.0328,1.6936,0.1560,1.5733,0.5182,1.6140,0.1030
2.8,-3.0890,-2.4444,-0.9222,0.4276,-0.7154,-1.6136,-1.9429,1.0245,1.6936,0.1607,1.6358,0.4828,1.6140,0.1041
2.9,-3.0890,-2.4447,-0.9069,0.4282,-0.6997,-1.6137,-1.9430,1.0185,1.6936,0.1625,1.6931,0.4494,1.6140,0.1050
3.0,-3.0890,-2.4471,-0.8908,0.4287,-0.6871,-1.6137,-1.9430,1.0141,1.6936,0.1622,1.7449,0.4229,1.6140,0.1057
3.1,-3.0890,-2.4511,-0.8725,0.4292,-0.6771,-1.6138,-1.9431,1.0112,1.6936,0.1607,1.7884,0.4070,1.6140,0.1063
3.2,-3.0890,-2.4554,-0.8578,0.4296,-0.6629,-1.6138,-1.9431,1.0097,1.6936,0.1602,1.8276,0.3906,1.6140,0.1067
3.3,-3.0890,-2.4592,-0.8447,0.4299,-0.6448,-1.6139,-1.9431,1.0067,1.6936,0.1599,1.8541,0.3775,1.6140,0.1071
3.4,-3.0890,-2.4643,-0.8328,0.4302,-0.6304,-1.6139,-1.9432,1.0034,1.6936,0.1592,1.8730,0.3746,1.6140,0.1074
3.5,-3.0890,-2.4706,-0.8201,0.4304,-0.6022,-1.6139,-1.9432,1.0018,1.6936,0.1583,1.8898,0.3781,1.6140,0.1076
3.6,-3.0890,-2.4778,-0.8081,0.4306,-0.5616,-1.6139,-1.9432,1.0014,1.6936,0.1579,1.9000,0.3936,1.6140,0.1078
3.7,-3.0890,-2.4859,-0.7973,0.4308,-0.5142,-1.6139,-1.9432,1.0019,1.6936,0.1580,1.9073,0.4151,1.6140,0.1080
3.8,-3.0890,-2.4945,-0.7875,0.4310,-0.4662,-1.6140,-1.9432,1.0032,1.6936,0.1594,1.9128,0.4404,1.6140,0.1081
3.9,-3.0890,-2.5036,-0.7816,0.4311,-0.4200,-1.6140,-1.9432,1.0048,1.6936,0.1654,1.9171,0.4680,1.6140,0.1082
4.0,-3.0890,-2.5130,-0.7763,0.4312,-0.3830,-1.6140,-1.9432,1.0018,1.6936,0.1696,1.9208,0.4900,1.6140,0.1082
4.1,-3.0890,-2.5224,-0.7685,0.4313,-0.3534,-1.6140,-1.9432,0.9960,1.6936,0.1725,1.9240,0.5076,1.6140,0.1083
4.2,-3.0890,-2.5314,-0.7595,0.4313,-0.3297,-1.6140,-1.9432,0.9901,1.6936,0.1744,1.9266,0.5397,1.6140,0.1084
4.3,-3.0890,-2.5397,-0.7502,0.4314,-0.3108,-1.6140,-1.9432,0.9848,1.6936,0.1749,1.9206,0.5782,1.6140,0.1084
4.4,-3.0890,-2.5473,-0.7416,0.4315,-0.2957,-1.6140,-1.9432,0.9803,1.6936,0.1728,1.9084,0.6189,1.6140,0.1084
4.5,-3.0890,-2.5541,-0.7343,0.4315,-0.2835,-1.6140,-1.9432,0.9762,1.6936,0.1671,1.8913,0.6592,1.6140,0.1084
4.6,-3.0890,-2.5604,-0.7292,0.4316,-0.2739,-1.6140,-1.9432,0.9728,1.6936,0.1574,1.8714,0.6962,1.6140,0.1085
4.7,-3.0890,-2.5650,-0.7270,0.4316,-0.2661,-1.6140,-1.9432,0.9703,1.6936,0.1435,1.8504,0.7292,1.6140,0.1085
4.8,-3.0890,-2.5691,-0.7285,0.4316,-0.2599,-1.6140,-1.9432,0.9687,1.6936,0.1279,1.8302,0.7579,1.6140,0.1085
4.9,-3.0890,-2.5709,-0.7292,0.4316,-0.2549,-1.6140,-1.9432,0.9683,1.6936,0.1100,1.8128,0.7816,1.6140,0.1124
5.0,-3.0890,-2.5723,-0.7324,0.4317,-0.2510,-1.6140,-1.9432,0.9700,1.6936,0.0908,1.8004,0.8005,1.6140,0.1167
5.1,-3.0890,-2.5739,-0.7383,0.4317,-0.2313,-1.6140,-1.9432,0.9736,1.6936,0.0716,1.7914,0.8160,1.6140,0.1183
5.2,-3.0890,-2.5755,-0.7428,0.4317,-0.1898,-1.6140,-1.9432,0.9786,1.6936,0.0538,1.7827,0.8310,1.6140,0.1159
5.3,-3.0890,-2.5772,-0.7452,0.4317,-0.1308,-1.6140,-1.9432,0.9846,1.6936,0.0382,1.7743,0.8453,1.6140,0.1090
5.4,-3.0890,-2.5790,-0.7457,0.4317,-0.0600,-1.6140,-1.9432,0.9917,1.6936,0.0259,1.7663,0.8595,1.6140,0.0984
5.5,-3.0890,-2.5808,-0.7443,0.4317,0.0187,-1.6140,-1.9432,0.9992,1.6936,0.0222,1.7543,0.8796,1.6140,0.0820
5.6,-3.0890,-2.5827,-0.7421,0.4317,0.1002,-1.6140,-1.9432,1.0070,1.6936,0.0270,1.7390,0.9124,1.6140,0.0688
5.7,-3.0890,-2.5846,-0.7402,0.4317,0.1865,-1.6140,-1.9432,1.0143,1.6936,0.0312,1.7141,0.9539,1.6140,0.0583
5.8,-3.0890,-2.5866,-0.7390,0.4317,0.2738,-1.6140,-1.9432,1.0212,1.6936,0.0350,1.6856,1.0016,1.6140,0.0499
5.9,-3.0890,-2.5886,-0.7383,0.4318,0.3581,-1.6140,-1.9432,1.0271,1.6936,0.0384,1.6552,1.0504,1.6140,0.0432
6.0,-3.0890,-2.5906,-0.7380,0.4318,0.4374,-1.6140,-1.9432,1.0322,1.6936,0.0415,1.6252,1.0963,1.6140,0.0171
6.1,-3.0890,-2.5927,-0.7377,0.4318,0.5110,-1.6140,-1.9432,1.0364,1.6936,0.0443,1.5966,1.1370,1.6140,-0.0216
6.2,-3.0890,-2.5948,-0.7372,0.4318,0.5784,-1.6140,-1.9432,1.0396,1.6936,0.0468,1.5703,1.1712,1.6140,-0.0685
6.3,-3.0890,-2.5969,-0.7374,0.4318,0.6398,-1.6140,-1.9432,1.0422,1.6936,0.0490,1.5475,1.1973,1.6140,-0.1203
6.4,-3.0890,-2.5990,-0.7399,0.4318,0.6890,-1.6140,-1.9432,1.0454,1.6936,0.0546,1.5336,1.2120,1.6140,-0.1706
6.5,-3.0890,-2.6009,-0.7423,0.4423,0.7283,-1.6140,-1.9432,1.0486,1.6936,0.0623,1.5258,1.2178,1.6140,-0.2156
6.6,-3.0890,-2.6026,-0.7495,0.4678,0.7598,-1.6140,-1.9432,1.0537,1.6936,0.0734,1.5287,1.2127,1.6140,-0.2524
6.7,-3.0890,-2.6041,-0.7579,0.5100,0.7849,-1.6140,-1.9432,1.0596,1.6936,0.0866,1.5401,1.1978,1.6140,-0.2844
6.8,-3.0890,-2.6055,-0.7668,0.5655,0.8051,-1.6140,-1.9432,1.0661,1.6936,0.1019,1.5556,1.1794,1.6140,-0.3104
6.9,-3.0890,-2.6068,-0.7761,0.6309,0.8212,-1.6140,-1.9432,1.0734,1.6936,0.1191,1.5739,1.1597,1.6140,-0.3305
7.0,-3.0890,-2.6079,-0.7859,0.7044,0.8341,-1.6140,-1.9432,1.0809,1.6936,0.1371,1.5935,1.1392,1.6140,-0.3449
7.1,-3.0890,-2.6089,-0.7962,0.7841,0.8444,-1.6140,-1.9432,1.0885,1.6936,0.1556,1.6140,1.1181,1.6140,-0.3531
7.2,-3.0890,-2.6098,-0.8080,0.8702,0.8685,-1.6140,-1.9432,1.0963,1.6936,0.1741,1.6356,1.0969,1.6140,-0.3560
7.3,-3.0890,-2.6106,-0.8209,0.9606,0.8977,-1.6140,-1.9432,1.1040,1.6936,0.1921,1.6570,1.0765,1.6140,-0.3540
7.4,-3.0890,-2.6114,-0.8338,1.0538,0.9225,-1.6140,-1.9432,1.1115,1.6936,0.2100,1.6772,1.0582,1.6140,-0.3485
7.5,-3.0890,-2.6120,-0.8465,1.1476,0.9418,-1.6140,-1.9432,1.1187,1.6936,0.2273,1.6956,1.0428,1.6140,-0.3400
7.6,-3.0890,-2.6126,-0.8586,1.2402,0.9551,-1.6140,-1.9432,1.1256,1.6936,0.2438,1.7122,1.0300,1.6140,-0.3297
7.7,-3.0890,-2.6132,-0.8698,1.3300,0.9619,-1.6140,-1.9432,1.1322,1.6936,0.2604,1.7250,1.0220,1.6140,-0.3158
7.8,-3.0890,-2.6137,-0.8758,1.4118,0.9672,-1.6140,-1.9432,1.1370,1.6936,0.2787,1.7295,1.0243,1.6140,-0.3046
7.9,-3.0890,-2.6141,-0.8773,1.4838,0.9741,-1.6140,-1.9432,1.1380,1.6936,0.2950,1.7185,1.0416,1.6140,-0.2956
8.0,-3.0890,-2.6145,-0.8747,1.5437,0.9829,-1.6140,-1.9432,1.1369,1.6936,0.3098,1.6986,1.0699,1.6140,-0.2884
8.1,-3.0890,-2.6148,-0.8691,1.5931,0.9918,-1.6140,-1.9432,1.1350,1.6936,0.3231,1.6763,1.1000,1.6140,-0.2827
8.2,-3.0890,-2.6151,-0.8612,1.6329,1.0003,-1.6140,-1.9432,1.1327,1.6936,0.3323,1.6545,1.1283,1.6140,-0.2781
8.3,-3.0890,-2.6154,-0.8514,1.6651,1.0071,-1.6140,-1.9432,1.1300,1.6936,0.3378,1.6338,1.1528,1.6140,-0.2854
8.4,-3.0890,-2.6157,-0.8405,1.6914,1.0118,-1.6140,-1.9432,1.1268,1.6936,0.3401,1.6152,1.1721,1.6140,-0.2997
8.5,-3.0890,-2.6159,-0.8290,1.7124,1.0149,-1.6140,-1.9432,1.1234,1.6936,0.3397,1.5991,1.1863,1.6140,-0.3180
8.6,-3.0890,-2.6161,-0.8172,1.7289,1.0164,-1.6140,-1.9432,1.1197,1.6936,0.3371,1.5856,1.1956,1.6140,-0.3383
8.7,-3.0890,-2.6163,-0.8063,1.7417,1.0171,-1.6140,-1.9432,1.1163,1.6936,0.3336,1.5766,1.1988,1.6140,-0.3575
8.8,-3.0890,-2.6165,-0.7986,1.7524,1.0189,-1.6140,-1.9432,1.1145,1.6936,0.3324,1.5721,1.1983,1.6140,-0.3681
8.9,-3.0890,-2.6166,-0.7975,1.7570,1.0203,-1.6140,-1.9432,1.1106,1.6936,0.3368,1.5683,1.1979,1.6140,-0.3761
9.0,-3.0890,-2.6168,-0.7978,1.7619,1.0163,-1.6140,-1.9432,1.1071,1.6936,0.3400,1.5680,1.1911,1.6140,-0.3724
9.1,-3.0890,-2.6169,-0.7993,1.7656,1.0132,-1.6140,-1.9432,1.1050,1.6936,0.3417,1.5704,1.1822,1.6140,-0.3612
9.2,-3.0890,-2.6170,-0.8016,1.7697,1.0106,-1.6140,-1.9432,1.1045,1.6936,0.3420,1.5764,1.1702,1.6140,-0.3451
9.3,-3.0890,-2.6171,-0.8040,1.7744,1.0078,-1.6140,-1.9432,1.1051,1.6936,0.3406,1.5853,1.1558,1.6140,-0.3266
9.4,-3.0890,-2.6172,-0.8062,1.7804,1.0040,-1.6140,-1.9432,1.1070,1.6936,0.3381,1.5969,1.1397,1.6140,-0.3073
9.5,-3.0890,-2.6173,-0.8081,1.7886,0.9987,-1.6140,-1.9432,1.1109,1.6936,0.3360,1.6089,1.1266,1.6140,-0.2826
9.6,-3.0890,-2.6173,-0.8101,1.7998,0.9910,-1.6140,-1.9432,1.1161,1.6936,0.3333,1.6144,1.1247,1.6140,-0.2588
9.7,-3.0890,-2.6174,-0.8121,1.8118,0.9827,-1.6140,-1.9432,1.1177,1.6936,0.3310,1.6191,1.1232,1.6140,-0.2336
9.8,-3.0890,-2.6175,-0.8141,1.8238,0.9750,-1.6140,-1.9432,1.1178,1.6936,0.3289,1.6245,1.1220,1.6140,-0.2135
9.9,-3.0890,-2.6175,-0.8163,1.8354,0.9685,-1.6140,-1.9432,1.1178,1.6936,0.3207,1.6278,1.1192,1.6140,-0.2019
10.0,-3.0890,-2.6176,-0.8190,1.8461,0.9638,-1.6140,-1.9432,1.1177,1.6936,0.3086,1.6292,1.1166,1.6140,-0.1998
10.1,-3.0890,-2.6176,-0.8220,1.8556,0.9606,-1.6140,-1.9432,1.1176,1.6936,0.2945,1.6281,1.1161,1.6140,-0.2054
10.2,-3.0890,-2.6177,-0.8252,1.8639,0.9589,-1.6140,-1.9432,1.1174,1.6936,0.2790,1.6246,1.1180,1.6140,-0.2180
10.3,-3.0890,-2.6177,-0.8284,1.8707,0.9586,-1.6140,-1.9432,1.1172,1.6936,0.2624,1.6193,1.1216,1.6140,-0.2367
10.4,-3.0890,-2.6177,-0.8327,1.8720,0.9654,-1.6140,-1.9432,1.1170,1.6936,0.2454,1.6127,1.1267,1.6140,-0.2598
10.5,-3.0890,-2.6177,-0.8431,1.8731,0.9871,-1.6140,-1.9432,1.1168,1.6936,0.2288,1.6054,1.1327,1.6140,-0.2856
10.6,-3.0890,-2.6178,-0.8524,1.8779,1.0044,-1.6140,-1.9432,1.1163,1.6936,0.2134,1.5986,1.1379,1.6140,-0.3128
10.7,-3.0890,-2.6178,-0.8608,1.8856,1.0183,-1.6140,-1.9432,1.1159,1.6936,0.2000,1.5921,1.1433,1.6140,-0.3390
10.8,-3.0890,-2.6178,-0.8684,1.8954,1.0293,-1.6140,-1.9432,1.1156,1.6936,0.1887,1.5860,1.1485,1.6140,-0.3635
10.9,-3.0890,-2.6178,-0.8752,1.9066,1.0382,-1.6140,-1.9432,1.1154,1.6936,0.1793,1.5805,1.1534,1.6140,-0.3853
11.0,-3.0890,-2.6179,-0.8813,1.9179,1.0453,-1.6140,-1.9432,1.1154,1.6936,0.1718,1.5756,1.1578,1.6140,-0.4044
11.1,-3.0890,-2.6179,-0.8869,1.9284,1.0510,-1.6140,-1.9432,1.1156,1.6936,0.1658,1.5716,1.1612,1.6140,-0.4205
11.2,-3.0890,-2.6179,-0.8918,1.9370,1.0555,-1.6140,-1.9432,1.1161,1.6936,0.1614,1.5686,1.1634,1.6140,-0.4335
11.3,-3.0890,-2.6179,-0.8963,1.9436,1.0592,-1.6140,-1.9432,1.1166,1.6936,0.1585,1.5662,1.1645,1.6140,-0.4426
11.4,-3.0890,-2.6179,-0.9003,1.9483,1.0621,-1.6140,-1.9432,1.1172,1.6936,0.1569,1.5649,1.1648,1.6140,-0.4484
11.5,-3.0890,-2.6179,-0.9039,1.9514,1.0644,-1.6140,-1.9432,1.1176,1.6936,0.1566,1.5646,1.1639,1.6140,-0.4503
11.6,-3.0890,-2.6179,-0.9072,1.9567,1.0663,-1.6140,-1.9432,1.1213,1.6936,0.1563,1.5643,1.1744,1.6140,-0.4518
11.7,-3.0890,-2.6179,-0.9151,1.9612,1.0826,-1.6140,-1.9432,1.1262,1.6936,0.1605,1.5641,1.1932,1.6140,-0.4498
11.8,-3.0890,-2.6179,-0.9294,1.9651,1.1095,-1.6140,-1.9432,1.1320,1.6936,0.1687,1.5639,1.2179,1.6140,-0.4485
11.9,-3.0890,-2.6179,-0.9491,1.9683,1.1438,-1.6140,-1.9432,1.1387,1.6936,0.1805,1.5567,1.2467,1.6140,-0.4489
12.0,-3.0890,-2.6179,-0.9727,1.9711,1.1830,-1.6140,-1.9432,1.1459,1.6936,0.1950,1.5452,1.2780,1.6140,-0.4508
12.1,-3.0890,-2.6180,-0.9989,1.9734,1.2250,-1.6140,-1.9432,1.1535,1.6936,0.2117,1.5310,1.3107,1.6140,-0.4540
12.2,-3.0890,-2.6180,-1.0275,1.9754,1.2680,-1.6140,-1.9432,1.1615,1.6936,0.2307,1.5153,1.3436,1.6140,-0.4581
12.3,-3.0890,-2.6180,-1.0569,1.9771,1.3107,-1.6140,-1.9432,1.1698,1.6936,0.2515,1.4991,1.3759,1.6140,-0.4625
12.4,-3.0890,-2.6180,-1.0857,1.9786,1.3519,-1.6140,-1.9432,1.1781,1.6936,0.2736,1.4836,1.4071,1.6140,-0.4666
12.5,-3.0890,-2.6180,-1.1121,1.9798,1.3908,-1.6140,-1.9432,1.1861,1.6936,0.2964,1.4694,1.4356,1.6140,-0.4699
12.6,-3.0890,-2.6180,-1.1351,1.9808,1.4267,-1.6140,-1.9432,1.1935,1.6936,0.3189,1.4583,1.4574,1.6140,-0.4711
12.7,-3.0890,-2.6180,-1.1509,1.9808,1.4554,-1.6140,-1.9432,1.1999,1.6936,0.3378,1.4479,1.4737,1.6140,-0.4649
12.8,-3.0890,-2.6180,-1.1601,1.9790,1.4703,-1.6140,-1.9432,1.2053,1.6936,0.3534,1.4385,1.4856,1.6140,-0.4566
12.9,-3.0890,-2.6180,-1.1641,1.9753,1.4748,-1.6140,-1.9432,1.2100,1.6936,0.3670,1.4303,1.4944,1.6140,-0.4497
13.0,-3.0890,-2.6180,-1.1633,1.9694,1.4715,-1.6140,-1.9432,1.2139,1.6936,0.3789,1.4236,1.5001,1.6140,-0.4445
13.1,-3.0890,-2.6180,-1.1583,1.9614,1.4618,-1.6140,-1.9432,1.2172,1.6936,0.3888,1.4186,1.5026,1.6140,-0.4409
13.2,-3.0890,-2.6180,-1.1500,1.9521,1.4465,-1.6140,-1.9432,1.2198,1.6936,0.3968,1.4156,1.5018,1.6140,-0.4386
13.3,-3.0890,-2.6180,-1.1389,1.9411,1.4276,-1.6140,-1.9432,1.2217,1.6936,0.4031,1.4151,1.4978,1.6140,-0.4370
13.4,-3.0890,-2.6180,-1.1262,1.9295,1.4069,-1.6140,-1.9432,1.2234,1.6936,0.4079,1.4178,1.4902,1.6140,-0.4351
13.5,-3.0890,-2.6180,-1.1110,1.9197,1.3951,-1.6140,-1.9432,1.2253,1.6936,0.4114,1.4235,1.4793,1.6140,-0.4314
13.6,-3.0890,-2.6180,-1.0946,1.9100,1.3810,-1.6140,-1.9432,1.2271,1.6936,0.4131,1.4320,1.4649,1.6140,-0.4260
13.7,-3.0890,-2.6180,-1.0780,1.9021,1.3634,-1.6140,-1.9432,1.2287,1.6936,0.4132,1.4421,1.4485,1.6140,-0.4203
13.8,-3.0890,-2.6180,-1.0620,1.8966,1.3428,-1.6140,-1.9432,1.2299,1.6936,0.4121,1.4535,1.4304,1.6140,-0.4145
13.9,-3.0890,-2.6180,-1.0471,1.8931,1.3208,-1.6140,-1.9432,1.2309,1.6936,0.4102,1.4656,1.4116,1.6140,-0.4097
14.0,-3.0890,-2.6180,-1.0325,1.8913,1.2967,-1.6140,-1.9432,1.2311,1.6936,0.4074,1.4785,1.3913,1.6140,-0.4073
14.1,-3.0890,-2.6180,-1.0184,1.8914,1.2703,-1.6140,-1.9432,1.2305,1.6936,0.4035,1.4926,1.3688,1.6140,-0.4079
14.2,-3.0890,-2.6180,-1.0076,1.8914,1.2491,-1.6140,-1.9432,1.2318,1.6936,0.4000,1.5045,1.3509,1.6140,-0.4084
14.3,-3.0890,-2.6180,-1.0012,1.8915,1.2322,-1.6140,-1.9448,1.2353,1.6936,0.3969,1.5147,1.3365,1.6140,-0.4088
14.4,-3.0890,-2.6180,-1.0005,1.8915,1.2187,-1.6140,-1.9424,1.2413,1.6936,0.3940,1.5234,1.3250,1.6140,-0.4091
14.5,-3.0890,-2.6180,-1.0037,1.8916,1.2079,-1.6140,-1.9410,1.2493,1.6936,0.3915,1.5307,1.3158,1.6140,-0.4093
14.6,-3.0890,-2.6180,-1.0114,1.8916,1.1992,-1.6140,-1.9410,1.2589,1.6936,0.3892,1.5370,1.3084,1.6140,-0.4095
14.7,-3.0890,-2.6180,-1.0240,1.8916,1.1923,-1.6140,-1.9407,1.2699,1.6936,0.3871,1.5423,1.3026,1.6140,-0.4097
14.8,-3.0890,-2.6180,-1.0403,1.8917,1.1868,-1.6140,-1.9412,1.2821,1.6936,0.3853,1.5468,1.2978,1.6140,-0.4098
14.9,-3.0890,-2.6180,-1.0602,1.8917,1.1824,-1.6140,-1.9422,1.2951,1.6936,0.3836,1.5507,1.2941,1.6140,-0.4099
15.0,-3.0890,-2.6180,-1.0831,1.8917,1.1788,-1.6140,-1.9419,1.3087,1.6936,0.3821,1.5539,1.2911,1.6140,-0.4100
15.1,-3.0890,-2.6180,-1.1082,1.8917,1.1760,-1.6140,-1.9417,1.3226,1.6936,0.3808,1.5567,1.2887,1.6140,-0.4101
15.2,-3.0890,-2.6180,-1.1357,1.8917,1.1737,-1.6140,-1.9422,1.3366,1.6936,0.3795,1.5591,1.2867,1.6140,-0.4101
15.3,-3.0890,-2.6180,-1.1625,1.8909,1.1719,-1.6140,-1.9426,1.3493,1.6936,0.3825,1.5553,1.2852,1.6140,-0.4118
15.4,-3.0890,-2.6180,-1.1867,1.8944,1.1564,-1.6140,-1.9430,1.3570,1.6936,0.3851,1.5521,1.2689,1.6140,-0.4131
15.5,-3.0890,-2.6180,-1.2085,1.9010,1.1313,-1.6140,-1.9432,1.3586,1.6936,0.3875,1.5494,1.2429,1.6140,-0.4134
15.6,-3.0890,-2.6180,-1.2281,1.9092,1.0990,-1.6140,-1.9434,1.3546,1.6936,0.3896,1.5471,1.2096,1.6140,-0.4124
15.7,-3.0890,-2.6180,-1.2457,1.9180,1.0611,-1.6140,-1.9436,1.3458,1.6936,0.3915,1.5451,1.1711,1.6140,-0.4100
15.8,-3.0890,-2.6180,-1.2616,1.9268,1.0197,-1.6140,-1.9437,1.3328,1.6936,0.3932,1.5434,1.1300,1.6140,-0.4064
15.9,-3.0890,-2.6180,-1.2759,1.9349,0.9772,-1.6140,-1.9438,1.3164,1.6936,0.3948,1.5420,1.0884,1.6140,-0.4020
16.0,-3.0890,-2.6180,-1.2887,1.9423,0.9347,-1.6140,-1.9439,1.2972,1.6936,0.3962,1.5408,1.0468,1.6140,-0.3968
16.1,-3.0890,-2.6180,-1.3003,1.9460,0.8943,-1.6140,-1.9440,1.2728,1.6936,0.3974,1.5291,1.0134,1.6140,-0.3867
16.2,-3.0890,-2.6180,-1.3107,1.9475,0.8587,-1.6140,-1.9440,1.2465,1.6936,0.3969,1.5191,0.9873,1.6140,-0.3794
16.3,-3.0890,-2.6180,-1.3201,1.9458,0.8308,-1.6140,-1.9441,1.2201,1.6936,0.3945,1.5106,0.9655,1.6140,-0.3787
16.4,-3.0890,-2.6180,-1.3285,1.9419,0.8094,-1.6140,-1.9441,1.1943,1.6936,0.3899,1.5035,0.9464,1.6140,-0.3842
16.5,-3.0890,-2.6180,-1.3361,1.9367,0.7934,-1.6140,-1.9441,1.1696,1.6936,0.3834,1.4973,0.9289,1.6140,-0.3942
16.6,-3.0890,-2.6180,-1.3429,1.9308,0.7819,-1.6140,-1.9442,1.1463,1.6936,0.3751,1.4921,0.9132,1.6140,-0.4067
16.7,-3.0890,-2.6180,-1.3491,1.9255,0.7739,-1.6140,-1.9442,1.1250,1.6936,0.3654,1.4877,0.8995,1.6140,-0.4201
16.8,-3.0890,-2.6180,-1.3546,1.9209,0.7687,-1.6140,-1.9442,1.1063,1.6936,0.3546,1.4840,0.8870,1.6140,-0.4319
16.9,-3.0890,-2.6180,-1.3596,1.9182,0.7629,-1.6140,-1.9442,1.0875,1.6936,0.3480,1.4808,0.8774,1.6140,-0.4418
17.0,-3.0890,-2.6180,-1.3641,1.9170,0.7556,-1.6140,-1.9442,1.0706,1.6936,0.3405,1.4702,0.8696,1.6140,-0.4497
17.1,-3.0890,-2.6180,-1.3681,1.9192,0.7452,-1.6140,-1.9442,1.0492,1.6936,0.3333,1.4613,0.8634,1.6140,-0.4560
17.2,-3.0890,-2.6180,-1.3717,1.9235,0.7336,-1.6140,-1.9442,1.0298,1.6936,0.3245,1.4537,0.8541,1.6140,-0.4635
17.3,-3.0890,-2.6180,-1.3750,1.9295,0.7218,-1.6140,-1.9442,1.0124,1.6936,0.3134,1.4472,0.8437,1.6140,-0.4703
17.4,-3.0890,-2.6180,-1.3779,1.9357,0.7115,-1.6140,-1.9442,0.9967,1.6936,0.2996,1.4417,0.8327,1.6140,-0.4759
17.5,-3.0890,-2.6180,-1.3806,1.9414,0.7036,-1.6140,-1.9442,0.9826,1.6936,0.2828,1.4371,0.8213,1.6140,-0.4796
17.6,-3.0890,-2.6180,-1.3830,1.9460,0.6982,-1.6140,-1.9442,0.9703,1.6936,0.2631,1.4331,0.8105,1.6140,-0.4808
17.7,-3.0890,-2.6145,-1.3809,1.9511,0.6958,-1.6140,-1.9442,0.9595,1.6936,0.2407,1.4297,0.8000,1.6140,-0.4787
17.8,-3.0890,-2.6113,-1.3768,1.9582,0.6939,-1.6140,-1.9442,0.9513,1.6936,0.2151,1.4269,0.7851,1.6140,-0.4747
17.9,-3.0890,-2.6085,-1.3731,1.9642,0.6924,-1.6140,-1.9442,0.9467,1.6936,0.1882,1.4244,0.7692,1.6140,-0.4638
18.0,-3.0890,-2.6059,-1.3698,1.9694,0.6911,-1.6140,-1.9442,0.9460,1.6936,0.1613,1.4224,0.7430,1.6140,-0.4418
18.1,-3.0890,-2.6026,-1.3599,1.9761,0.6902,-1.6140,-1.9442,0.9477,1.6936,0.1359,1.4206,0.7160,1.6140,-0.4196
18.2,-3.0890,-2.5978,-1.3470,1.9838,0.6861,-1.6140,-1.9442,0.9514,1.6936,0.1122,1.4191,0.6947,1.6140,-0.3961
18.3,-3.0890,-2.5919,-1.3313,1.9921,0.6803,-1.6140,-1.9442,0.9560,1.6936,0.0907,1.4178,0.6777,1.6140,-0.3739
18.4,-3.0890,-2.5850,-1.3136,2.0006,0.6728,-1.6140,-1.9442,0.9611,1.6936,0.0716,1.4168,0.6640,1.6140,-0.3542
18.5,-3.0890,-2.5776,-1.2944,2.0090,0.6668,-1.6140,-1.9442,0.9664,1.6936,0.0552,1.4158,0.6532,1.6140,-0.3374
18.6,-3.0890,-2.5701,-1.2730,2.0172,0.6623,-1.6140,-1.9442,0.9716,1.6936,0.0415,1.4151,0.6447,1.6140,-0.3234
18.7,-3.0890,-2.5628,-1.2498,2.0249,0.6595,-1.6140,-1.9442,0.9768,1.6936,0.0303,1.4144,0.6381,1.6140,-0.3138
18.8,-3.0890,-2.5559,-1.2252,2.0323,0.6582,-1.6140,-1.9442,0.9818,1.6936,0.0215,1.4138,0.6335,1.6140,-0.3084
18.9,-3.0890,-2.5499,-1.1990,2.0390,0.6585,-1.6140,-1.9442,0.9865,1.6936,0.0146,1.4133,0.6320,1.6140,-0.3069
19.0,-3.0890,-2.5458,-1.1711,2.0448,0.6598,-1.6140,-1.9442,0.9908,1.6936,0.0094,1.4129,0.6348,1.6140,-0.3078
19.1,-3.0890,-2.5433,-1.1419,2.0493,0.6622,-1.6140,-1.9442,0.9942,1.6936,0.0055,1.4126,0.6408,1.6140,-0.3113
19.2,-3.0890,-2.5424,-1.1122,2.0515,0.6661,-1.6140,-1.9442,0.9966,1.6936,0.0027,1.4123,0.6494,1.6140,-0.3177
19.3,-3.0890,-2.5427,-1.0826,2.0522,0.6703,-1.6140,-1.9442,0.9981,1.6936,0.0008,1.4120,0.6600,1.6140,-0.3263
19.4,-3.0890,-2.5443,-1.0533,2.0511,0.6747,-1.6140,-1.9442,0.9985,1.6936,-0.0003,1.4118,0.6714,1.6140,-0.3365
19.5,-3.0890,-2.5470,-1.0251,2.0483,0.6800,-1.6140,-1.9442,0.9984,1.6936,-0.0012,1.4117,0.6829,1.6140,-0.3473
19.6,-3.0890,-2.5503,-1.0030,2.0460,0.6842,-1.6140,-1.9442,1.0007,1.6936,0.0021,1.3979,0.6921,1.6140,-0.3530
19.7,-3.0890,-2.5543,-0.9884,2.0439,0.6875,-1.6140,-1.9439,1.0067,1.6936,0.0113,1.3862,0.6994,1.6140,-0.3576
19.8,-3.0890,-2.5586,-0.9808,2.0422,0.6902,-1.6140,-1.9443,1.0165,1.6936,0.0271,1.3762,0.7053,1.6140,-0.3612
19.9,-3.0890,-2.5631,-0.9796,2.0408,0.6923,-1.6140,-1.9453,1.0299,1.6936,0.0499,1.3678,0.7100,1.6140,-0.3641
20.0,-3.0890,-2.5677,-0.9846,2.0395,0.6941,-1.6140,-1.9468,1.0463,1.6936,0.0788,1.3606,0.7138,1.6140,-0.3664
20.1,-3.0890,-2.5722,-0.9951,2.0385,0.6954,-1.6140,-1.9487,1.0651,1.6936,0.1130,1.3545,0.7168,1.6140,-0.3683
20.2,-3.0890,-2.5766,-1.0103,2.0376,0.6965,-1.6140,-1.9509,1.0857,1.6936,0.1512,1.3493,0.7192,1.6140,-0.3698
20.3,-3.0890,-2.5806,-1.0295,2.0368,0.6974,-1.6140,-1.9533,1.1076,1.6936,0.1925,1.3449,0.7211,1.6140,-0.3710
20.4,-3.0890,-2.5843,-1.0529,2.0362,0.6981,-1.6140,-1.9556,1.1303,1.6936,0.2357,1.3411,0.7227,1.6140,-0.3719
20.5,-3.0890,-2.5877,-1.0794,2.0356,0.6987,-1.6140,-1.9577,1.1532,1.6936,0.2792,1.3380,0.7239,1.6140,-0.3727
20.6,-3.0890,-2.5907,-1.1081,2.0351,0.6991,-1.6140,-1.9597,1.1756,1.6936,0.3212,1.3352,0.7249,1.6140,-0.3733
20.7,-3.0890,-2.5934,-1.1384,2.0347,0.6995,-1.6140,-1.9616,1.1974,1.6936,0.3603,1.3329,0.7257,1.6140,-0.3738
20.8,-3.0890,-2.5958,-1.1697,2.0344,0.6998,-1.6140,-1.9632,1.2185,1.6936,0.3969,1.3310,0.7263,1.6140,-0.3742
20.9,-3.0890,-2.5980,-1.2012,2.0341,0.7000,-1.6140,-1.9647,1.2386,1.6936,0.4311,1.3293,0.7268,1.6140,-0.3745
21.0,-3.0890,-2.6000,-1.2303,2.0339,0.7002,-1.6140,-1.9649,1.2577,1.6936,0.4640,1.3279,0.7272,1.6140,-0.3748
21.1,-3.0890,-2.6018,-1.2547,2.0337,0.7003,-1.6140,-1.9592,1.2754,1.6936,0.4955,1.3267,0.7275,1.6140,-0.3750
21.2,-3.0890,-2.6035,-1.2755,2.0335,0.7005,-1.6140,-1.9553,1.2912,1.6936,0.5241,1.3257,0.7278,1.6140,-0.3751
21.3,-3.0890,-2.6049,-1.2930,2.0333,0.7005,-1.6140,-1.9525,1.3052,1.6936,0.5498,1.3248,0.7280,1.6140,-0.3752
21.4,-3.0890,-2.6062,-1.3083,2.0332,0.7006,-1.6140,-1.9508,1.3171,1.6936,0.5707,1.3241,0.7282,1.6140,-0.3753
21.5,-3.0890,-2.6074,-1.3205,2.0331,0.7007,-1.6140,-1.9500,1.3268,1.6936,0.5882,1.3234,0.7283,1.6140,-0.3754
21.6,-3.0890,-2.6085,-1.3301,2.0330,0.7007,-1.6140,-1.9497,1.3351,1.6936,0.6045,1.3229,0.7284,1.6140,-0.3755
