RuntimeTerror1001/Real-Steel/robot_motion_20250430-232956.csv
timestamp,left_shoulder_pitch_joint,left_shoulder_roll_joint,left_shoulder_yaw_joint,left_elbow_joint,left_wrist_roll_joint,left_wrist_pitch_joint,left_wrist_yaw_joint,right_shoulder_pitch_joint,right_shoulder_roll_joint,right_shoulder_yaw_joint,right_elbow_joint,right_wrist_roll_joint,right_wrist_pitch_joint,right_wrist_yaw_joint
0.0,-0.7508,0.9304,0.3969,1.7455,0.0000,0.0000,0.0000,0.1580,-0.5161,-0.0207,1.6034,0.0000,0.0000,0.0000
0.1,-0.7423,0.9349,0.5881,1.7314,0.0000,0.0000,0.0000,0.1700,-0.4027,-0.0049,1.5208,0.0000,0.0000,0.0000
0.2,-0.7291,0.9332,0.7381,1.7140,0.0000,0.0000,0.0000,0.1827,-0.3159,-0.0224,1.4485,0.0000,0.0000,0.0000
0.3,-0.3647,0.7133,0.4984,1.7076,0.0000,0.0000,0.0000,0.1908,-0.2534,0.0789,1.3621,0.0000,0.0000,0.0000
0.4,-0.1512,0.5593,0.4568,1.6205,0.0000,0.0000,0.0000,0.2412,-0.4134,-0.3742,1.3304,0.0000,0.0000,0.0000
0.5,-0.0090,0.4515,0.3481,1.5724,0.0000,0.0000,0.0000,0.3357,-1.0422,-0.1982,1.3112,0.0000,0.0000,0.0000
0.6,0.0713,0.3760,0.3099,1.5187,0.0000,0.0000,0.0000,0.3264,-0.9638,-0.6490,1.3042,0.0000,0.0000,0.0000
0.7,0.1323,0.3232,0.2889,1.4754,0.0000,0.0000,0.0000,0.3183,-0.9041,-0.9329,1.3114,0.0000,0.0000,0.0000
0.8,0.1768,0.2863,0.3125,1.4458,0.0000,0.0000,0.0000,0.3901,-1.3857,-0.6656,1.3224,0.0000,0.0000,0.0000
0.9,0.2084,0.2604,0.3274,1.4251,0.0000,0.0000,0.0000,0.3674,-1.2419,-0.9749,1.3271,0.0000,0.0000,0.0000
1.0,0.2290,0.2423,0.3518,1.4059,0.0000,0.0000,0.0000,0.3512,-1.1341,-1.1951,1.3322,0.0000,0.0000,0.0000
1.1,0.2397,0.2296,0.3699,1.3856,0.0000,0.0000,0.0000,0.3324,-1.0626,-1.3266,1.3272,0.0000,0.0000,0.0000
1.2,0.2513,0.2207,0.4181,1.3718,0.0000,0.0000,0.0000,0.3206,-1.0295,-1.3871,1.3211,0.0000,0.0000,0.0000
1.3,0.2584,0.2145,0.4801,1.3622,0.0000,0.0000,0.0000,0.3102,-0.9931,-1.4158,1.3191,0.0000,0.0000,0.0000
1.4,0.2607,0.2101,0.4776,1.3560,0.0000,0.0000,0.0000,0.3009,-0.9730,-1.4301,1.3130,0.0000,0.0000,0.0000
1.5,0.2588,0.2071,0.4527,1.3527,0.0000,0.0000,0.0000,0.2906,-0.9422,-1.4497,1.3085,0.0000,0.0000,0.0000
1.6,0.2598,0.2050,0.4437,1.3501,0.0000,0.0000,0.0000,0.2830,-0.9310,-1.4517,1.3036,0.0000,0.0000,0.0000
1.7,0.2570,0.2035,0.3985,1.3495,0.0000,0.0000,0.0000,0.2772,-0.9158,-1.4654,1.2950,0.0000,0.0000,0.0000
1.8,0.2539,0.2024,0.3179,1.3542,0.0000,0.0000,0.0000,0.2726,-0.8996,-1.4862,1.2837,0.0000,0.0000,0.0000
1.9,0.2684,0.2017,0.4846,1.3474,0.0000,0.0000,0.0000,0.3719,-1.3825,-0.9272,1.2955,0.0000,0.0000,0.0000
2.0,0.2877,0.2012,0.6075,1.3431,0.0000,0.0000,0.0000,0.4435,-1.7206,-0.4921,1.3106,0.0000,0.0000,0.0000
2.1,0.2995,0.2008,0.6391,1.3407,0.0000,0.0000,0.0000,0.4917,-1.9572,-0.2247,1.3052,0.0000,0.0000,0.0000
2.2,0.3048,0.2006,0.6694,1.3382,0.0000,0.0000,0.0000,0.5250,-2.1229,-0.0359,1.3098,0.0000,0.0000,0.0000
2.3,0.3048,0.2004,0.6725,1.3391,0.0000,0.0000,0.0000,0.4503,-1.7941,-0.3867,1.3187,0.0000,0.0000,0.0000
2.4,0.3041,0.2003,0.6730,1.3409,0.0000,0.0000,0.0000,0.3983,-1.5599,-0.6412,1.3243,0.0000,0.0000,0.0000
2.5,0.3041,0.2002,0.6665,1.3429,0.0000,0.0000,0.0000,0.3610,-1.3801,-0.8463,1.3254,0.0000,0.0000,0.0000
2.6,0.3034,0.2001,0.6686,1.3429,0.0000,0.0000,0.0000,0.3329,-1.2412,-1.0088,1.3285,0.0000,0.0000,0.0000
2.7,0.2710,0.2001,0.5421,1.3462,0.0000,0.0000,0.0000,0.2648,-1.0028,-1.2617,1.3173,0.0000,0.0000,0.0000
2.8,0.2575,0.2000,0.4790,1.3484,0.0000,0.0000,0.0000,0.2223,-1.0022,-1.2435,1.3012,0.0000,0.0000,0.0000
2.9,0.2436,0.2000,0.3946,1.3570,0.0000,0.0000,0.0000,-0.0221,-0.9742,-1.3247,1.5003,0.0000,0.0000,0.0000
3.0,0.2379,0.2000,0.5122,1.3374,0.0000,0.0000,0.0000,-0.1983,-0.8793,-0.6616,1.6026,0.0000,0.0000,0.0000
3.1,0.2357,0.2000,0.6410,1.3201,0.0000,0.0000,0.0000,-0.3755,-0.8485,-0.2146,1.7446,0.0000,0.0000,0.0000
3.2,0.2307,0.2000,0.5958,1.3120,0.0000,0.0000,0.0000,-0.6592,-1.3324,-0.4000,1.7679,0.0000,0.0000,0.0000
3.3,0.2398,0.2000,0.7151,1.3100,0.0000,0.0000,0.0000,-0.9655,-1.6855,-0.6969,1.7324,0.0000,0.0000,0.0000
3.4,0.2534,0.2000,0.6778,1.3128,0.0000,0.0000,0.0000,-1.2294,-1.9327,-0.9593,1.6886,0.0000,0.0000,0.0000
3.5,0.2689,0.2000,0.6401,1.3212,0.0000,0.0000,0.0000,-1.4842,-2.1057,-0.4058,1.6675,0.0000,0.0000,0.0000
3.6,0.2861,0.2000,0.6246,1.3303,0.0000,0.0000,0.0000,-1.6758,-2.2268,-0.0184,1.6322,0.0000,0.0000,0.0000
3.7,0.3005,0.2000,0.5845,1.3393,0.0000,0.0000,0.0000,-1.8214,-2.3115,0.2528,1.6162,0.0000,0.0000,0.0000
3.8,0.3114,0.2000,0.5458,1.3473,0.0000,0.0000,0.0000,-1.9382,-2.3709,0.4427,1.6048,0.0000,0.0000,0.0000
3.9,0.3173,0.2000,0.4693,1.3566,0.0000,0.0000,0.0000,-2.0087,-2.4124,0.5756,1.6111,0.0000,0.0000,0.0000
4.0,0.3212,0.2000,0.4106,1.3622,0.0000,0.0000,0.0000,-2.0404,-2.4415,0.6686,1.6261,0.0000,0.0000,0.0000
4.1,0.3257,0.2000,0.3421,1.3704,0.0000,0.0000,0.0000,-2.0647,-2.4619,0.7337,1.6411,0.0000,0.0000,0.0000
4.2,0.3260,0.2000,0.2766,1.3784,0.0000,0.0000,0.0000,-2.0831,-2.4761,0.7793,1.6473,0.0000,0.0000,0.0000
4.3,0.3305,0.2000,0.2333,1.3838,0.0000,0.0000,0.0000,-2.0932,-2.4861,0.8112,1.6533,0.0000,0.0000,0.0000
4.4,0.3354,0.2000,0.2074,1.3876,0.0000,0.0000,0.0000,-2.1012,-2.4931,0.8336,1.6626,0.0000,0.0000,0.0000
4.5,0.3406,0.2000,0.1838,1.3932,0.0000,0.0000,0.0000,-2.1147,-2.4980,0.8492,1.6643,0.0000,0.0000,0.0000
4.6,0.3446,0.2000,0.1634,1.3975,0.0000,0.0000,0.0000,-2.1256,-2.5014,0.8601,1.6618,0.0000,0.0000,0.0000
4.7,0.3483,0.2000,0.1657,1.3945,0.0000,0.0000,0.0000,-2.1172,-2.5038,0.8678,1.6539,0.0000,0.0000,0.0000
4.8,0.3555,0.2000,0.1577,1.3924,0.0000,0.0000,0.0000,-2.0919,-2.5054,0.8732,1.6540,0.0000,0.0000,0.0000
4.9,0.3609,0.2000,0.1454,1.3919,0.0000,0.0000,0.0000,-2.1179,-2.5066,0.8769,1.6602,0.0000,0.0000,0.0000
5.0,0.3644,0.2000,0.1401,1.3902,0.0000,0.0000,0.0000,-2.1376,-2.5074,0.8795,1.6601,0.0000,0.0000,0.0000
5.1,0.3626,0.2000,0.0992,1.3965,0.0000,0.0000,0.0000,-2.1836,-2.5080,0.8814,1.6307,0.0000,0.0000,0.0000
5.2,0.3593,0.2000,0.0505,1.4067,0.0000,0.0000,0.0000,-2.2082,-2.5084,0.8827,1.6062,0.0000,0.0000,0.0000
5.3,0.3617,0.2000,0.0463,1.4048,0.0000,0.0000,0.0000,-2.1779,-2.5087,0.8836,1.5960,0.0000,0.0000,0.0000
5.4,0.3543,0.2000,0.1376,1.3878,0.0000,0.0000,0.0000,-2.0402,-2.5089,0.1015,1.6552,0.0000,0.0000,0.0000
5.5,0.3405,0.2000,0.2046,1.3655,0.0000,0.0000,0.0000,-1.8151,-2.5090,-0.2898,1.7638,0.0000,0.0000,0.0000
5.6,0.3319,0.2000,0.4614,1.3404,0.0000,0.0000,0.0000,-1.5524,-1.9745,0.0629,1.8476,0.0000,0.0000,0.0000
5.7,0.3169,0.2000,0.6131,1.3151,0.0000,0.0000,0.0000,-1.2738,-1.5335,0.3097,1.9200,0.0000,0.0000,0.0000
5.8,0.3026,0.2000,0.8155,1.2989,0.0000,0.0000,0.0000,-1.0393,-1.2120,0.4825,1.9254,0.0000,0.0000,0.0000
5.9,0.2869,0.2000,1.0191,1.3032,0.0000,0.0000,0.0000,-0.8245,-1.0351,-0.1386,1.9028,0.0000,0.0000,0.0000
6.0,0.2629,0.2000,1.1291,1.2951,0.0000,0.0000,0.0000,-0.6334,-0.9027,-0.5467,1.8757,0.0000,0.0000,0.0000
6.1,0.2458,0.2000,1.0609,1.2851,0.0000,0.0000,0.0000,-0.4423,-0.8303,-0.8543,1.7289,0.0000,0.0000,0.0000
6.2,0.2394,0.2000,0.8810,1.2873,0.0000,0.0000,0.0000,-0.2681,-0.8370,-1.1162,1.5823,0.0000,0.0000,0.0000
6.3,0.2358,0.2000,0.7307,1.2931,0.0000,0.0000,0.0000,-0.1332,-0.8366,-1.2991,1.4805,0.0000,0.0000,0.0000
6.4,0.2340,0.2000,0.6548,1.2969,0.0000,0.0000,0.0000,-0.0314,-0.8272,-1.4233,1.4090,0.0000,0.0000,0.0000
6.5,0.2382,0.2000,0.6270,1.3029,0.0000,0.0000,0.0000,0.0454,-0.8319,-1.5074,1.3649,0.0000,0.0000,0.0000
6.6,0.2473,0.2000,0.6288,1.3120,0.0000,0.0000,0.0000,0.1446,-0.8376,-1.6103,1.3288,0.0000,0.0000,0.0000
6.7,0.2488,0.2000,0.5985,1.3129,0.0000,0.0000,0.0000,0.1784,-0.8503,-1.6166,1.3234,0.0000,0.0000,0.0000
6.8,0.2469,0.2000,0.5686,1.3135,0.0000,0.0000,0.0000,0.2016,-0.8655,-1.6120,1.3150,0.0000,0.0000,0.0000
6.9,0.2425,0.2000,0.5405,1.3155,0.0000,0.0000,0.0000,0.2187,-0.8833,-1.5953,1.3106,0.0000,0.0000,0.0000
7.0,0.2408,0.2000,0.5197,1.3231,0.0000,0.0000,0.0000,0.2306,-0.8944,-1.5822,1.3101,0.0000,0.0000,0.0000
7.1,0.2414,0.2000,0.4956,1.3296,0.0000,0.0000,0.0000,0.2407,-0.9008,-1.5727,1.3135,0.0000,0.0000,0.0000
7.2,0.2468,0.2000,0.5061,1.3315,0.0000,0.0000,0.0000,0.2470,-0.8944,-1.6011,1.3052,0.0000,0.0000,0.0000
7.3,0.2633,0.2000,0.4626,1.3335,0.0000,0.0000,0.0000,0.2491,-0.8785,-1.6337,1.2918,0.0000,0.0000,0.0000
7.4,0.3122,0.2000,0.4662,1.3276,0.0000,0.0000,0.0000,0.2504,-0.8715,-1.6328,1.2843,0.0000,0.0000,0.0000
7.5,-0.3592,0.6333,0.7615,1.5459,0.0000,0.0000,0.0000,0.2518,-0.8720,-1.5843,1.2948,0.0000,0.0000,0.0000
7.6,-0.6597,0.7186,1.1183,1.7057,0.0000,0.0000,0.0000,0.2494,-0.8481,-1.6048,1.2989,0.0000,0.0000,0.0000
7.7,-0.9990,0.5630,1.0617,1.7917,0.0000,0.0000,0.0000,0.2500,-0.8304,-1.6352,1.3119,0.0000,0.0000,0.0000
7.8,-1.3245,0.4541,0.9148,1.8080,0.0000,0.0000,0.0000,0.2513,-0.8090,-1.6161,1.3092,0.0000,0.0000,0.0000
7.9,-1.6190,0.3779,0.8444,1.7979,0.0000,0.0000,0.0000,0.2527,-0.7939,-1.5755,1.3024,0.0000,0.0000,0.0000
8.0,-1.8834,0.3245,0.9424,1.8064,0.0000,0.0000,0.0000,0.2494,-0.7748,-1.4693,1.2875,0.0000,0.0000,0.0000
8.1,-2.1163,0.2872,1.0967,1.7859,0.0000,0.0000,0.0000,0.2440,-0.7597,-1.3399,1.2716,0.0000,0.0000,0.0000
8.2,-2.2962,0.2610,1.2303,1.7648,0.0000,0.0000,0.0000,0.2388,-0.7458,-1.2374,1.2636,0.0000,0.0000,0.0000
8.3,-2.4455,0.2427,1.3576,1.7485,0.0000,0.0000,0.0000,0.2339,-0.7391,-1.1868,1.2652,0.0000,0.0000,0.0000
8.4,-2.5653,0.2299,1.4501,1.7365,0.0000,0.0000,0.0000,0.2300,-0.7386,-1.1638,1.2702,0.0000,0.0000,0.0000
8.5,-2.6587,0.2209,1.5214,1.7288,0.0000,0.0000,0.0000,0.2263,-0.7391,-1.1650,1.2787,0.0000,0.0000,0.0000
8.6,-2.7299,0.2146,1.5557,1.7114,0.0000,0.0000,0.0000,0.2230,-0.7409,-1.1678,1.2883,0.0000,0.0000,0.0000
8.7,-2.7808,0.2103,1.6031,1.7070,0.0000,0.0000,0.0000,0.2240,-0.7426,-1.1305,1.3002,0.0000,0.0000,0.0000
8.8,-2.8079,0.2072,1.6120,1.7048,0.0000,0.0000,0.0000,0.2219,-0.7392,-1.0970,1.3089,0.0000,0.0000,0.0000
8.9,-2.8258,0.2050,1.6176,1.7014,0.0000,0.0000,0.0000,0.2186,-0.7336,-1.0786,1.3157,0.0000,0.0000,0.0000
9.0,-2.8378,0.2035,1.6174,1.7016,0.0000,0.0000,0.0000,0.2157,-0.7323,-1.0810,1.3211,0.0000,0.0000,0.0000
9.1,-2.8466,0.2025,1.6169,1.7001,0.0000,0.0000,0.0000,0.2125,-0.7308,-1.0799,1.3237,0.0000,0.0000,0.0000
9.2,-2.8539,0.2017,1.6193,1.6957,0.0000,0.0000,0.0000,0.2062,-0.7198,-1.0927,1.3264,0.0000,0.0000,0.0000
9.3,-2.8585,0.2012,1.6238,1.6951,0.0000,0.0000,0.0000,0.2014,-0.7123,-1.1012,1.3273,0.0000,0.0000,0.0000
9.4,-2.8604,0.2008,1.6292,1.6952,0.0000,0.0000,0.0000,0.1984,-0.7087,-1.1042,1.3270,0.0000,0.0000,0.0000
9.5,-2.8623,0.2006,1.6415,1.6931,0.0000,0.0000,0.0000,0.1973,-0.7063,-1.1072,1.3283,0.0000,0.0000,0.0000
9.6,-2.8658,0.2004,1.6569,1.6896,0.0000,0.0000,0.0000,0.1960,-0.7056,-1.1124,1.3286,0.0000,0.0000,0.0000
9.7,-2.8584,0.2003,1.6678,1.6825,0.0000,0.0000,0.0000,0.1939,-0.7029,-1.1132,1.3276,0.0000,0.0000,0.0000
9.8,-2.8544,0.2002,1.6775,1.6792,0.0000,0.0000,0.0000,0.1918,-0.7027,-1.1228,1.3252,0.0000,0.0000,0.0000
9.9,-2.8051,0.2001,1.6276,1.7117,0.0000,0.0000,0.0000,0.1902,-0.7056,-1.0683,1.3188,0.0000,0.0000,0.0000
10.0,-2.7286,0.2001,1.4675,1.7563,0.0000,0.0000,0.0000,0.1893,-0.7103,-1.0155,1.3106,0.0000,0.0000,0.0000
10.1,-2.5225,0.2001,1.1253,1.8424,0.0000,0.0000,0.0000,0.1984,-0.7161,-1.0413,1.3035,0.0000,0.0000,0.0000
10.2,-2.2942,0.2000,0.9882,1.9001,0.0000,0.0000,0.0000,0.2074,-0.7134,-1.0939,1.2996,0.0000,0.0000,0.0000
10.3,-2.0035,0.4807,1.1586,1.9112,0.0000,0.0000,0.0000,0.2247,-0.7315,-1.1454,1.2886,0.0000,0.0000,0.0000
10.4,-1.7189,0.7281,1.1029,1.8970,0.0000,0.0000,0.0000,0.2393,-0.7270,-1.2473,1.2973,0.0000,0.0000,0.0000
10.5,-1.4884,0.9059,0.8769,1.8110,0.0000,0.0000,0.0000,0.2535,-0.7302,-1.3701,1.3241,0.0000,0.0000,0.0000
10.6,-1.2205,0.9264,0.9266,1.7379,0.0000,0.0000,0.0000,0.2624,-0.7281,-1.4380,1.3238,0.0000,0.0000,0.0000
10.7,-0.7566,0.7085,0.7038,1.6717,0.0000,0.0000,0.0000,0.2674,-0.7240,-1.4844,1.3178,0.0000,0.0000,0.0000
10.8,-0.4339,0.5559,0.6080,1.6045,0.0000,0.0000,0.0000,0.2731,-0.7321,-1.5232,1.3107,0.0000,0.0000,0.0000
10.9,-0.2128,0.4491,0.5756,1.5506,0.0000,0.0000,0.0000,0.2756,-0.7330,-1.5476,1.3051,0.0000,0.0000,0.0000
11.0,-0.0455,0.3744,0.6741,1.5170,0.0000,0.0000,0.0000,0.2772,-0.7298,-1.5830,1.3089,0.0000,0.0000,0.0000
11.1,0.0654,0.3221,0.6512,1.4883,0.0000,0.0000,0.0000,0.2793,-0.7279,-1.6010,1.3080,0.0000,0.0000,0.0000
11.2,0.1403,0.2855,0.7420,1.4577,0.0000,0.0000,0.0000,0.2794,-0.7244,-1.6044,1.2962,0.0000,0.0000,0.0000
11.3,0.1784,0.2598,0.7659,1.4192,0.0000,0.0000,0.0000,0.2784,-0.7186,-1.6025,1.2836,0.0000,0.0000,0.0000
11.4,0.1969,0.2419,0.6673,1.3912,0.0000,0.0000,0.0000,0.2775,-0.7138,-1.5806,1.2687,0.0000,0.0000,0.0000
11.5,0.2040,0.2293,0.5355,1.3682,0.0000,0.0000,0.0000,0.2753,-0.7087,-1.5710,1.2557,0.0000,0.0000,0.0000
11.6,0.2076,0.2205,0.4300,1.3522,0.0000,0.0000,0.0000,0.2749,-0.7126,-1.5727,1.2442,0.0000,0.0000,0.0000
11.7,0.2102,0.2144,0.3326,1.3428,0.0000,0.0000,0.0000,0.2731,-0.7177,-1.5879,1.2379,0.0000,0.0000,0.0000
11.8,0.2127,0.2101,0.2862,1.3336,0.0000,0.0000,0.0000,0.2709,-0.7231,-1.6006,1.2334,0.0000,0.0000,0.0000
11.9,0.2181,0.2049,0.2308,1.3248,0.0000,0.0000,0.0000,0.2655,-0.7262,-1.5725,1.2239,0.0000,0.0000,0.0000
12.0,0.2211,0.2034,0.2171,1.3237,0.0000,0.0000,0.0000,0.2633,-0.7268,-1.5296,1.2185,0.0000,0.0000,0.0000
12.1,0.2222,0.2024,0.2066,1.3211,0.0000,0.0000,0.0000,0.2615,-0.7284,-1.5040,1.2155,0.0000,0.0000,0.0000
12.2,0.2227,0.2017,0.2000,1.3194,0.0000,0.0000,0.0000,0.2595,-0.7314,-1.4995,1.2143,0.0000,0.0000,0.0000
12.3,0.2238,0.2012,0.2091,1.3180,0.0000,0.0000,0.0000,0.2586,-0.7366,-1.5086,1.2150,0.0000,0.0000,0.0000
12.4,0.2253,0.2008,0.2289,1.3173,0.0000,0.0000,0.0000,0.2575,-0.7407,-1.5343,1.2175,0.0000,0.0000,0.0000
12.5,0.2251,0.2006,0.2268,1.3178,0.0000,0.0000,0.0000,0.2555,-0.7404,-1.5314,1.2155,0.0000,0.0000,0.0000
12.6,0.2246,0.2004,0.2387,1.3171,0.0000,0.0000,0.0000,0.2548,-0.7464,-1.5099,1.2137,0.0000,0.0000,0.0000
12.7,0.2227,0.2003,0.2238,1.3175,0.0000,0.0000,0.0000,0.2489,-0.7511,-1.4106,1.2309,0.0000,0.0000,0.0000
12.8,0.2209,0.2002,0.2161,1.3147,0.0000,0.0000,0.0000,0.2311,-0.7571,-1.3190,1.2642,0.0000,0.0000,0.0000
12.9,0.2161,0.2001,0.1147,1.3168,0.0000,0.0000,0.0000,0.1466,-0.7891,-1.1135,1.3930,0.0000,0.0000,0.0000
13.0,0.2097,0.2001,0.0958,1.3081,0.0000,0.0000,0.0000,0.0783,-0.8294,-1.0779,1.4527,0.0000,0.0000,0.0000
13.1,0.2023,0.2000,0.1500,1.2940,0.0000,0.0000,0.0000,-0.0005,-0.8706,-1.0666,1.5223,0.0000,0.0000,0.0000
13.2,0.1953,0.2000,0.2240,1.2826,0.0000,0.0000,0.0000,-0.0849,-0.9189,-1.0622,1.5666,0.0000,0.0000,0.0000
13.3,0.1908,0.2000,0.2616,1.2754,0.0000,0.0000,0.0000,-0.1759,-0.9681,-1.0502,1.5783,0.0000,0.0000,0.0000
13.4,0.1877,0.2000,0.2918,1.2701,0.0000,0.0000,0.0000,-0.2649,-1.0208,-1.0281,1.5898,0.0000,0.0000,0.0000
13.5,0.1861,0.2000,0.3204,1.2664,0.0000,0.0000,0.0000,-0.3537,-1.0780,-0.9861,1.5849,0.0000,0.0000,0.0000
13.6,0.1865,0.2000,0.3766,1.2630,0.0000,0.0000,0.0000,-0.4404,-1.1409,-0.9382,1.5727,0.0000,0.0000,0.0000
13.7,0.1865,0.2000,0.4226,1.2596,0.0000,0.0000,0.0000,-0.5113,-1.1948,-0.8931,1.5653,0.0000,0.0000,0.0000
13.8,0.1856,0.2000,0.4522,1.2566,0.0000,0.0000,0.0000,-0.5769,-1.2436,-0.5125,1.5596,0.0000,0.0000,0.0000
13.9,0.1861,0.2000,0.4379,1.2531,0.0000,0.0000,0.0000,-0.6265,-1.2773,-0.2477,1.5630,0.0000,0.0000,0.0000
14.0,0.1873,0.2000,0.4495,1.2509,0.0000,0.0000,0.0000,-0.6622,-1.3028,-0.0623,1.5689,0.0000,0.0000,0.0000
14.1,0.1893,0.2000,0.4674,1.2485,0.0000,0.0000,0.0000,-0.6818,-1.3161,0.0692,1.5791,0.0000,0.0000,0.0000
14.2,0.1902,0.2000,0.4918,1.2465,0.0000,0.0000,0.0000,-0.6971,-1.3272,0.1591,1.5875,0.0000,0.0000,0.0000
14.3,0.1912,0.2000,0.4580,1.2464,0.0000,0.0000,0.0000,-0.7053,-1.3324,0.2246,1.5872,0.0000,0.0000,0.0000
14.4,0.1926,0.2000,0.4127,1.2476,0.0000,0.0000,0.0000,-0.7075,-1.3340,0.2773,1.5845,0.0000,0.0000,0.0000
14.5,0.1945,0.2000,0.3863,1.2490,0.0000,0.0000,0.0000,-0.7055,-1.3324,0.3183,1.5780,0.0000,0.0000,0.0000
14.6,0.1963,0.2000,0.3729,1.2508,0.0000,0.0000,0.0000,-0.6882,-1.3181,-0.0172,1.5701,0.0000,0.0000,0.0000
14.7,0.1973,0.2000,0.3748,1.2515,0.0000,0.0000,0.0000,-0.6443,-1.2847,-0.2816,1.5717,0.0000,0.0000,0.0000
14.8,0.1973,0.2000,0.3745,1.2518,0.0000,0.0000,0.0000,-0.5802,-1.2386,-0.4976,1.5779,0.0000,0.0000,0.0000
14.9,0.1955,0.2000,0.3723,1.2508,0.0000,0.0000,0.0000,-0.5136,-1.1964,-0.6663,1.5924,0.0000,0.0000,0.0000
15.0,0.1932,0.2000,0.3722,1.2491,0.0000,0.0000,0.0000,-0.4365,-1.1506,-0.7982,1.6077,0.0000,0.0000,0.0000
15.1,0.1893,0.2000,0.2474,1.2530,0.0000,0.0000,0.0000,-0.3601,-1.1060,-0.8870,1.5900,0.0000,0.0000,0.0000
15.2,0.1874,0.2000,0.1706,1.2619,0.0000,0.0000,0.0000,-0.2915,-1.0669,-0.9552,1.5637,0.0000,0.0000,0.0000
15.3,0.1880,0.2000,0.1020,1.2680,0.0000,0.0000,0.0000,-0.2238,-1.0277,-1.0083,1.5252,0.0000,0.0000,0.0000
15.4,0.1886,0.2000,0.0614,1.2715,0.0000,0.0000,0.0000,-0.1450,-0.9947,-1.0687,1.5020,0.0000,0.0000,0.0000
15.5,0.1897,0.2000,0.0191,1.2787,0.0000,0.0000,0.0000,-0.0768,-0.9583,-1.1220,1.4745,0.0000,0.0000,0.0000
15.6,0.1949,0.2000,0.0231,1.2834,0.0000,0.0000,0.0000,-0.0160,-0.9254,-1.1905,1.4238,0.0000,0.0000,0.0000
15.7,0.2021,0.2000,0.0567,1.2857,0.0000,0.0000,0.0000,0.0405,-0.9144,-1.3498,1.3836,0.0000,0.0000,0.0000
15.8,0.2118,0.2000,0.1088,1.2905,0.0000,0.0000,0.0000,0.0938,-0.8978,-1.4238,1.3406,0.0000,0.0000,0.0000
15.9,0.2211,0.2000,0.1549,1.2964,0.0000,0.0000,0.0000,0.1365,-0.8735,-1.4482,1.2990,0.0000,0.0000,0.0000
16.0,0.2294,0.2000,0.2018,1.2993,0.0000,0.0000,0.0000,0.1683,-0.8497,-1.4139,1.2606,0.0000,0.0000,0.0000
16.1,0.2368,0.2000,0.2148,1.3037,0.0000,0.0000,0.0000,0.1894,-0.8324,-1.3449,1.2360,0.0000,0.0000,0.0000
16.2,0.2411,0.2000,0.2312,1.3063,0.0000,0.0000,0.0000,0.2054,-0.8285,-1.2404,1.2247,0.0000,0.0000,0.0000
16.3,0.2436,0.2000,0.2487,1.3075,0.0000,0.0000,0.0000,0.2165,-0.8295,-1.1632,1.2196,0.0000,0.0000,0.0000
16.4,0.2449,0.2000,0.2589,1.3082,0.0000,0.0000,0.0000,0.2239,-0.8305,-1.1419,1.2133,0.0000,0.0000,0.0000
16.5,0.2474,0.2000,0.2495,1.3062,0.0000,0.0000,0.0000,0.2303,-0.8287,-1.1583,1.2067,0.0000,0.0000,0.0000
16.6,0.2603,0.2000,0.2418,1.2996,0.0000,0.0000,0.0000,0.2376,-0.8327,-1.1876,1.2011,0.0000,0.0000,0.0000
16.7,0.2843,0.2000,0.2223,1.2897,0.0000,0.0000,0.0000,0.2429,-0.8321,-1.2480,1.1967,0.0000,0.0000,0.0000
16.8,0.3366,0.2000,0.1868,1.2695,0.0000,0.0000,0.0000,0.2482,-0.8437,-1.3011,1.1984,0.0000,0.0000,0.0000
16.9,0.4376,0.2000,0.2075,1.2549,0.0000,0.0000,0.0000,0.2519,-0.8537,-1.3648,1.1994,0.0000,0.0000,0.0000
17.0,0.5538,0.2000,0.1654,1.2555,0.0000,0.0000,0.0000,0.2556,-0.8792,-1.3804,1.2052,0.0000,0.0000,0.0000
17.1,0.6733,0.2000,0.2777,1.2535,0.0000,0.0000,0.0000,0.2590,-0.9109,-1.3869,1.2134,0.0000,0.0000,0.0000
17.2,0.7938,0.2000,0.3482,1.2585,0.0000,0.0000,0.0000,0.2611,-0.9340,-1.4109,1.2222,0.0000,0.0000,0.0000
17.3,0.9089,0.2000,0.5643,1.2534,0.0000,0.0000,0.0000,0.2623,-0.9549,-1.4176,1.2338,0.0000,0.0000,0.0000
17.4,1.0075,0.2000,0.7770,1.2493,0.0000,0.0000,0.0000,0.2632,-0.9800,-1.4141,1.2470,0.0000,0.0000,0.0000
17.5,1.1000,0.2000,0.9827,1.2465,0.0000,0.0000,0.0000,0.2630,-0.9941,-1.4171,1.2563,0.0000,0.0000,0.0000
17.6,1.1832,0.2000,1.1089,1.2467,0.0000,0.0000,0.0000,0.2626,-0.9980,-1.4207,1.2678,0.0000,0.0000,0.0000
17.7,1.2534,0.2000,1.1288,1.2557,0.0000,0.0000,0.0000,0.2620,-0.9889,-1.4386,1.2762,0.0000,0.0000,0.0000
17.8,1.3110,0.2017,0.9080,1.2587,0.0000,0.0000,0.0000,0.2610,-0.9886,-1.4523,1.2807,0.0000,0.0000,0.0000
17.9,1.3520,0.2035,0.7576,1.2618,0.0000,0.0000,0.0000,0.3675,-1.4448,-0.9968,1.2812,0.0000,0.0000,0.0000
18.0,1.3830,0.2073,0.5891,1.2637,0.0000,0.0000,0.0000,0.4424,-1.7642,-0.6562,1.2847,0.0000,0.0000,0.0000
18.1,1.4084,0.2140,0.4307,1.2625,0.0000,0.0000,0.0000,0.4957,-1.9877,-0.4136,1.2864,0.0000,0.0000,0.0000
18.2,1.4261,0.2185,0.3198,1.2635,0.0000,0.0000,0.0000,0.5327,-2.1442,-0.2425,1.2887,0.0000,0.0000,0.0000
18.3,1.4384,0.2216,0.2273,1.2659,0.0000,0.0000,0.0000,0.5588,-2.2538,-0.1213,1.2904,0.0000,0.0000,0.0000
18.4,1.4446,0.2211,0.2062,1.2697,0.0000,0.0000,0.0000,0.5759,-2.3304,-0.0679,1.2866,0.0000,0.0000,0.0000
18.5,1.4473,0.2190,0.2171,1.2723,0.0000,0.0000,0.0000,0.5879,-2.3841,-0.0244,1.2851,0.0000,0.0000,0.0000
18.6,1.4461,0.2144,0.2906,1.2751,0.0000,0.0000,0.0000,0.5964,-2.4217,0.0086,1.2868,0.0000,0.0000,0.0000
18.7,1.4433,0.2101,0.3682,1.2761,0.0000,0.0000,0.0000,0.4945,-1.9752,-0.4764,1.2870,0.0000,0.0000,0.0000
18.8,1.4220,0.2070,0.6623,1.2787,0.0000,0.0000,0.0000,0.4198,-1.6479,-0.8133,1.2831,0.0000,0.0000,0.0000
18.9,1.3670,0.2049,0.8186,1.2757,0.0000,0.0000,0.0000,0.3667,-1.4274,-1.0291,1.2795,0.0000,0.0000,0.0000
19.0,1.3035,0.2034,0.8623,1.2735,0.0000,0.0000,0.0000,0.3297,-1.2785,-1.1728,1.2771,0.0000,0.0000,0.0000
19.1,1.2099,0.2024,0.8068,1.2713,0.0000,0.0000,0.0000,0.3061,-1.1882,-1.2641,1.2775,0.0000,0.0000,0.0000
19.2,1.1085,0.2017,0.6216,1.2753,0.0000,0.0000,0.0000,0.2903,-1.1276,-1.3749,1.2640,0.0000,0.0000,0.0000
19.3,0.9979,0.2012,0.4322,1.2713,0.0000,0.0000,0.0000,0.2799,-1.0830,-1.4615,1.2547,0.0000,0.0000,0.0000
19.4,0.8631,0.2008,0.2941,1.2630,0.0000,0.0000,0.0000,0.2739,-1.0468,-1.5339,1.2478,0.0000,0.0000,0.0000
19.5,0.7413,0.2006,0.2431,1.2708,0.0000,0.0000,0.0000,0.2705,-1.0121,-1.5673,1.2412,0.0000,0.0000,0.0000
19.6,0.6370,0.2004,0.2333,1.2839,0.0000,0.0000,0.0000,0.2672,-0.9663,-1.5529,1.2329,0.0000,0.0000,0.0000
19.7,0.5497,0.2003,0.2613,1.3016,0.0000,0.0000,0.0000,0.2649,-0.9303,-1.5575,1.2263,0.0000,0.0000,0.0000
19.8,0.4736,0.2002,0.2664,1.3086,0.0000,0.0000,0.0000,0.2639,-0.9080,-1.5788,1.2216,0.0000,0.0000,0.0000
19.9,0.4185,0.2001,0.2701,1.3103,0.0000,0.0000,0.0000,0.2641,-0.8943,-1.6067,1.2190,0.0000,0.0000,0.0000
20.0,0.3781,0.2001,0.2590,1.3092,0.0000,0.0000,0.0000,0.2641,-0.8834,-1.6304,1.2173,0.0000,0.0000,0.0000
20.1,0.3504,0.2001,0.2476,1.3094,0.0000,0.0000,0.0000,0.2640,-0.8765,-1.6553,1.2151,0.0000,0.0000,0.0000
20.2,0.3344,0.2000,0.2390,1.3108,0.0000,0.0000,0.0000,0.2645,-0.8715,-1.6429,1.2099,0.0000,0.0000,0.0000
20.3,0.3259,0.2000,0.2335,1.3122,0.0000,0.0000,0.0000,0.2655,-0.8723,-1.6497,1.2092,0.0000,0.0000,0.0000
20.4,0.3199,0.2000,0.2228,1.3144,0.0000,0.0000,0.0000,0.2655,-0.8699,-1.6346,1.2098,0.0000,0.0000,0.0000
20.5,0.3162,0.2000,0.2067,1.3160,0.0000,0.0000,0.0000,0.2655,-0.8660,-1.5802,1.2160,0.0000,0.0000,0.0000
20.6,0.3139,0.2000,0.1946,1.3169,0.0000,0.0000,0.0000,0.2658,-0.8628,-1.5092,1.2270,0.0000,0.0000,0.0000
20.7,0.3133,0.2000,0.2206,1.3160,0.0000,0.0000,0.0000,0.2665,-0.8610,-1.4334,1.2428,0.0000,0.0000,0.0000
20.8,0.3119,0.2000,0.2163,1.3149,0.0000,0.0000,0.0000,0.2640,-0.8435,-1.3352,1.2588,0.0000,0.0000,0.0000
20.9,0.3114,0.2000,0.1992,1.3144,0.0000,0.0000,0.0000,0.2604,-0.8279,-1.2547,1.2768,0.0000,0.0000,0.0000
21.0,0.3107,0.2000,0.1872,1.3123,0.0000,0.0000,0.0000,0.2567,-0.8122,-1.1870,1.2941,0.0000,0.0000,0.0000
21.1,0.3100,0.2000,0.1421,1.3126,0.0000,0.0000,0.0000,0.2526,-0.7970,-1.1467,1.3150,0.0000,0.0000,0.0000
21.2,0.0557,0.4290,0.4496,1.3149,0.0000,0.0000,0.0000,0.2489,-0.7887,-1.1244,1.3345,0.0000,0.0000,0.0000
21.3,-0.1231,0.5908,0.6752,1.3181,0.0000,0.0000,0.0000,0.2413,-0.7732,-1.1014,1.3505,0.0000,0.0000,0.0000
21.4,-0.2487,0.7071,0.8282,1.3194,0.0000,0.0000,0.0000,0.2334,-0.7592,-1.0754,1.3606,0.0000,0.0000,0.0000
21.5,-0.3370,0.7882,0.9380,1.3207,0.0000,0.0000,0.0000,0.2261,-0.7480,-1.0522,1.3669,0.0000,0.0000,0.0000
21.6,-0.3990,0.8438,1.0128,1.3214,0.0000,0.0000,0.0000,0.2202,-0.7406,-1.0312,1.3708,0.0000,0.0000,0.0000
21.7,-0.4431,0.8831,1.0605,1.3223,0.0000,0.0000,0.0000,0.2152,-0.7356,-1.0131,1.3719,0.0000,0.0000,0.0000
21.8,-0.4742,0.9101,1.0955,1.3225,0.0000,0.0000,0.0000,0.2109,-0.7327,-1.0011,1.3723,0.0000,0.0000,0.0000
21.9,-0.4958,0.9256,1.1146,1.3216,0.0000,0.0000,0.0000,0.2080,-0.7317,-0.9960,1.3733,0.0000,0.0000,0.0000
22.0,-0.5110,0.9345,1.1143,1.3193,0.0000,0.0000,0.0000,0.2059,-0.7310,-0.9920,1.3749,0.0000,0.0000,0.0000
22.1,-0.2621,0.7141,0.8002,1.3172,0.0000,0.0000,0.0000,0.2054,-0.7337,-0.9993,1.3764,0.0000,0.0000,0.0000
22.2,-0.0879,0.5599,0.5841,1.3149,0.0000,0.0000,0.0000,0.2053,-0.7368,-1.0066,1.3774,0.0000,0.0000,0.0000
22.3,0.0337,0.4519,0.4330,1.3124,0.0000,0.0000,0.0000,0.2056,-0.7404,-1.0093,1.3752,0.0000,0.0000,0.0000
22.4,0.1183,0.3763,0.3371,1.3092,0.0000,0.0000,0.0000,0.2069,-0.7471,-1.0091,1.3699,0.0000,0.0000,0.0000
22.5,0.1771,0.3234,0.2692,1.3070,0.0000,0.0000,0.0000,0.2099,-0.7594,-1.0182,1.3610,0.0000,0.0000,0.0000
22.6,0.2176,0.2864,0.2228,1.3056,0.0000,0.0000,0.0000,0.2131,-0.7718,-1.0244,1.3488,0.0000,0.0000,0.0000
22.7,0.2446,0.2605,0.1900,1.3045,0.0000,0.0000,0.0000,0.2164,-0.7822,-1.0469,1.3319,0.0000,0.0000,0.0000
22.8,0.2629,0.2423,0.1739,1.3052,0.0000,0.0000,0.0000,0.2204,-0.7929,-1.0712,1.3137,0.0000,0.0000,0.0000
22.9,0.2756,0.2296,0.1644,1.3073,0.0000,0.0000,0.0000,0.2238,-0.8018,-1.1062,1.2961,0.0000,0.0000,0.0000
23.0,0.2843,0.2207,0.1574,1.3089,0.0000,0.0000,0.0000,0.2267,-0.8071,-1.1336,1.2807,0.0000,0.0000,0.0000
23.1,0.2900,0.2145,0.1474,1.3099,0.0000,0.0000,0.0000,0.2301,-0.8113,-1.1586,1.2686,0.0000,0.0000,0.0000
23.2,0.2936,0.2102,0.1150,1.3127,0.0000,0.0000,0.0000,0.2344,-0.8200,-1.2026,1.2625,0.0000,0.0000,0.0000
23.3,0.2960,0.2071,0.0948,1.3140,0.0000,0.0000,0.0000,0.2379,-0.8274,-1.2454,1.2596,0.0000,0.0000,0.0000
23.4,0.2981,0.2050,0.0624,1.3169,0.0000,0.0000,0.0000,0.2399,-0.8300,-1.2786,1.2586,0.0000,0.0000,0.0000
23.5,0.2996,0.2035,0.0247,1.3160,0.0000,0.0000,0.0000,0.2406,-0.8278,-1.2941,1.2559,0.0000,0.0000,0.0000
23.6,0.2953,0.2024,0.0255,1.3056,0.0000,0.0000,0.0000,0.2414,-0.8234,-1.2916,1.2536,0.0000,0.0000,0.0000
23.7,0.2907,0.2017,0.1033,1.2912,0.0000,0.0000,0.0000,0.2413,-0.8147,-1.2669,1.2511,0.0000,0.0000,0.0000
23.8,0.0522,0.4313,0.7231,1.2769,0.0000,0.0000,0.0000,0.2401,-0.8044,-1.2410,1.2492,0.0000,0.0000,0.0000
23.9,-0.1133,0.5935,1.2665,1.2710,0.0000,0.0000,0.0000,0.2388,-0.7975,-1.2341,1.2490,0.0000,0.0000,0.0000
24.0,-0.0000,0.4754,1.4250,1.2795,0.0000,0.0000,0.0000,0.2377,-0.7943,-1.2301,1.2496,0.0000,0.0000,0.0000
24.1,0.0778,0.3928,1.5746,1.2973,0.0000,0.0000,0.0000,0.2374,-0.7985,-1.2417,1.2519,0.0000,0.0000,0.0000
24.2,0.1310,0.3350,1.6961,1.3182,0.0000,0.0000,0.0000,0.2365,-0.8031,-1.2515,1.2531,0.0000,0.0000,0.0000
24.3,0.1681,0.2945,1.7842,1.3351,0.0000,0.0000,0.0000,0.2353,-0.8068,-1.2568,1.2531,0.0000,0.0000,0.0000
24.4,0.1937,0.2661,1.8674,1.3496,0.0000,0.0000,0.0000,0.2334,-0.8064,-1.2565,1.2522,0.0000,0.0000,0.0000
24.5,0.2113,0.2463,1.9283,1.3605,0.0000,0.0000,0.0000,0.2325,-0.8094,-1.2666,1.2528,0.0000,0.0000,0.0000
24.6,0.2233,0.2324,1.9793,1.3674,0.0000,0.0000,0.0000,0.2320,-0.8143,-1.2827,1.2539,0.0000,0.0000,0.0000
24.7,0.2315,0.2227,2.0354,1.3719,0.0000,0.0000,0.0000,0.2329,-0.8268,-1.3181,1.2563,0.0000,0.0000,0.0000
24.8,0.2369,0.2159,2.0801,1.3749,0.0000,0.0000,0.0000,0.2327,-0.8363,-1.3458,1.2576,0.0000,0.0000,0.0000
24.9,0.2407,0.2111,2.1130,1.3770,0.0000,0.0000,0.0000,0.2322,-0.8412,-1.3637,1.2583,0.0000,0.0000,0.0000
25.0,0.0248,0.4395,2.2395,1.3800,0.0000,0.0000,0.0000,0.2316,-0.8461,-1.3768,1.2589,0.0000,0.0000,0.0000
25.1,-0.1263,0.5990,2.3280,1.3828,0.0000,0.0000,0.0000,0.2312,-0.8497,-1.3845,1.2591,0.0000,0.0000,0.0000
25.2,-0.0131,0.4793,2.2859,1.3853,0.0000,0.0000,0.0000,0.2316,-0.8556,-1.3953,1.2599,0.0000,0.0000,0.0000
25.3,0.0663,0.3955,2.2549,1.3868,0.0000,0.0000,0.0000,0.2321,-0.8599,-1.3966,1.2600,0.0000,0.0000,0.0000
25.4,0.1218,0.3369,2.2310,1.3865,0.0000,0.0000,0.0000,0.2327,-0.8605,-1.3985,1.2592,0.0000,0.0000,0.0000
25.5,-0.0586,0.5341,2.3221,1.3814,0.0000,0.0000,0.0000,0.2321,-0.8543,-1.3831,1.2564,0.0000,0.0000,0.0000
25.6,-0.2708,0.7699,2.4304,1.3419,0.0000,0.0000,0.0000,0.2343,-0.8509,-1.3599,1.2529,0.0000,0.0000,0.0000
25.7,-0.0055,0.4793,1.8600,1.2802,0.0000,0.0000,0.0000,0.2372,-0.8339,-1.2931,1.2496,0.0000,0.0000,0.0000
25.8,0.0739,0.3955,1.4033,1.2628,0.0000,0.0000,0.0000,0.2397,-0.8297,-1.2895,1.2515,0.0000,0.0000,0.0000
25.9,0.1688,0.2958,0.6850,1.2553,0.0000,0.0000,0.0000,0.2434,-0.8243,-1.2841,1.2541,0.0000,0.0000,0.0000
26.0,0.1958,0.2671,0.4925,1.2676,0.0000,0.0000,0.0000,0.2441,-0.8224,-1.2862,1.2540,0.0000,0.0000,0.0000
26.1,0.2146,0.2469,0.3569,1.2781,0.0000,0.0000,0.0000,0.2444,-0.8201,-1.2838,1.2531,0.0000,0.0000,0.0000
26.2,0.2278,0.2329,0.2373,1.2836,0.0000,0.0000,0.0000,0.2447,-0.8191,-1.2751,1.2512,0.0000,0.0000,0.0000
26.3,0.2372,0.2230,0.1461,1.2847,0.0000,0.0000,0.0000,0.2456,-0.8213,-1.2793,1.2501,0.0000,0.0000,0.0000
26.4,0.2438,0.2161,0.0936,1.2875,0.0000,0.0000,0.0000,0.2453,-0.8242,-1.2959,1.2468,0.0000,0.0000,0.0000
26.5,0.2477,0.2113,0.0716,1.2904,0.0000,0.0000,0.0000,0.2459,-0.8312,-1.3254,1.2435,0.0000,0.0000,0.0000
26.6,0.2523,0.2079,0.1268,1.2927,0.0000,0.0000,0.0000,0.2471,-0.8435,-1.4298,1.2398,0.0000,0.0000,0.0000
26.7,0.2562,0.2055,0.1720,1.3056,0.0000,0.0000,0.0000,0.2442,-0.8550,-1.4458,1.2315,0.0000,0.0000,0.0000
26.8,0.2729,0.2039,0.2844,1.3430,0.0000,0.0000,0.0000,0.2379,-0.8529,-1.2358,1.2453,0.0000,0.0000,0.0000
26.9,-0.0102,0.4865,0.2296,1.4650,0.0000,0.0000,0.0000,0.1925,-0.7660,-1.1843,1.3740,0.0000,0.0000,0.0000
27.0,-0.2651,0.6905,0.3062,1.6957,0.0000,0.0000,0.0000,0.1363,-0.6783,-1.1084,1.6138,0.0000,0.0000,0.0000
27.1,-0.4800,0.8302,0.5260,2.0163,0.0000,0.0000,0.0000,0.0414,-0.5799,-1.1235,1.9886,0.0000,0.0000,0.0000
27.2,-0.6859,0.8653,0.8323,2.3814,0.0000,0.0000,0.0000,-0.0508,-0.5065,-1.1551,2.2647,0.0000,0.0000,0.0000
27.3,-0.8978,0.7953,1.2984,2.6370,0.0000,0.0000,0.0000,-0.1088,-0.4877,-1.2444,2.5365,0.0000,0.0000,0.0000
27.4,-1.0868,0.6942,1.5702,2.8159,0.0000,0.0000,0.0000,-0.1915,-0.4830,-0.6054,2.7268,0.0000,0.0000,0.0000
27.5,-1.2177,0.6486,1.6376,2.9397,0.0000,0.0000,0.0000,-0.2898,-0.4700,-0.1581,2.8600,0.0000,0.0000,0.0000
27.6,-1.3138,0.6135,1.6689,3.0158,0.0000,0.0000,0.0000,-0.3650,-0.4634,0.1551,2.9533,0.0000,0.0000,0.0000
27.7,-1.3770,0.5990,1.6982,3.0689,0.0000,0.0000,0.0000,-0.4194,-0.4611,0.3742,3.0185,0.0000,0.0000,0.0000
27.8,-1.4257,0.5822,1.7102,3.1026,0.0000,0.0000,0.0000,-0.4551,-0.4603,0.5277,3.0642,0.0000,0.0000,0.0000
27.9,-1.4630,0.5608,1.7381,3.1410,0.0000,0.0000,0.0000,-0.4742,-0.4676,0.6351,3.0962,0.0000,0.0000,0.0000
28.0,-1.4899,0.5405,1.7701,3.1687,0.0000,0.0000,0.0000,-0.4851,-0.4792,0.7103,3.1186,0.0000,0.0000,0.0000
28.1,-1.4989,0.5475,1.7936,3.1881,0.0000,0.0000,0.0000,-0.4833,-0.4848,0.7629,3.1343,0.0000,0.0000,0.0000
28.2,-1.5045,0.5564,1.8069,3.1982,0.0000,0.0000,0.0000,-0.4750,-0.4840,0.7997,3.1452,0.0000,0.0000,0.0000
28.3,-1.5097,0.5620,1.8018,3.1920,0.0000,0.0000,0.0000,-0.4798,-0.4772,0.8255,3.1529,0.0000,0.0000,0.0000
28.4,-1.5161,0.5622,1.7868,3.1777,0.0000,0.0000,0.0000,-0.4991,-0.4660,0.8436,3.1355,0.0000,0.0000,0.0000
28.5,-1.5221,0.5840,1.7356,3.1182,0.0000,0.0000,0.0000,-0.5343,-0.4477,0.8650,3.0766,0.0000,0.0000,0.0000
28.6,-1.5295,0.5697,1.7367,3.1277,0.0000,0.0000,0.0000,-0.5392,-0.4441,0.8712,3.0978,0.0000,0.0000,0.0000
28.7,-1.5417,0.5387,1.7403,3.1444,0.0000,0.0000,0.0000,-0.5439,-0.4432,0.8756,3.1197,0.0000,0.0000,0.0000
28.8,-1.5481,0.5196,1.7506,3.1595,0.0000,0.0000,0.0000,-0.5420,-0.4431,0.8786,3.1351,0.0000,0.0000,0.0000
28.9,-1.5539,0.4981,1.7763,3.1781,0.0000,0.0000,0.0000,-0.5347,-0.4449,0.8807,3.1458,0.0000,0.0000,0.0000
29.0,-1.5588,0.4810,1.7848,3.1862,0.0000,0.0000,0.0000,-0.5335,-0.4474,0.8822,3.1533,0.0000,0.0000,0.0000
29.1,-1.5674,0.4701,1.7297,3.1575,0.0000,0.0000,0.0000,-0.5399,-0.4453,0.8833,3.1586,0.0000,0.0000,0.0000
29.2,-1.5744,0.4659,1.6740,3.1199,0.0000,0.0000,0.0000,-0.5456,-0.4396,0.8840,3.1532,0.0000,0.0000,0.0000
29.3,-1.5464,0.5311,1.7292,3.1092,0.0000,0.0000,0.0000,-0.5341,-0.4366,0.8845,3.1585,0.0000,0.0000,0.0000
29.4,-1.4711,0.6745,1.7600,3.0732,0.0000,0.0000,0.0000,-0.5071,-0.4168,0.8848,3.0737,0.0000,0.0000,0.0000
29.5,-1.3632,0.8297,1.6526,2.8881,0.0000,0.0000,0.0000,-0.4275,-0.4117,0.1888,2.9519,0.0000,0.0000,0.0000
29.6,-1.2147,0.9331,1.3642,2.6472,0.0000,0.0000,0.0000,-0.3097,-0.4246,-0.2808,2.7814,0.0000,0.0000,0.0000
29.7,-1.0873,0.9995,1.0452,2.3646,0.0000,0.0000,0.0000,-0.2184,-0.4404,-0.6246,2.5515,0.0000,0.0000,0.0000
29.8,-0.9667,1.0291,1.1087,2.1025,0.0000,0.0000,0.0000,-0.1036,-0.5406,-0.8283,2.1595,0.0000,0.0000,0.0000
29.9,-0.8614,1.0259,1.1340,1.8896,0.0000,0.0000,0.0000,-0.0192,-0.6391,-0.9777,1.8762,0.0000,0.0000,0.0000
30.0,-0.4924,0.7781,0.8758,1.7284,0.0000,0.0000,0.0000,0.0441,-0.7411,-1.0325,1.7067,0.0000,0.0000,0.0000
30.1,-0.2334,0.6047,0.7277,1.6163,0.0000,0.0000,0.0000,0.0926,-0.8178,-1.0880,1.5950,0.0000,0.0000,0.0000
30.2,-0.0559,0.4833,0.5533,1.5426,0.0000,0.0000,0.0000,0.1290,-0.8545,-1.2060,1.5009,0.0000,0.0000,0.0000
30.3,0.0669,0.3983,0.4710,1.4849,0.0000,0.0000,0.0000,0.1560,-0.8783,-1.3187,1.4338,0.0000,0.0000,0.0000
30.4,0.1497,0.3388,0.3707,1.4399,0.0000,0.0000,0.0000,0.1752,-0.8872,-1.4368,1.3844,0.0000,0.0000,0.0000
30.5,0.2060,0.2972,0.2899,1.4075,0.0000,0.0000,0.0000,0.1895,-0.8922,-1.5089,1.3507,0.0000,0.0000,0.0000
30.6,0.2429,0.2680,0.2595,1.3796,0.0000,0.0000,0.0000,0.1992,-0.8990,-1.5679,1.3299,0.0000,0.0000,0.0000
30.7,0.2683,0.2476,0.2746,1.3520,0.0000,0.0000,0.0000,0.2066,-0.9065,-1.6098,1.3179,0.0000,0.0000,0.0000
30.8,0.2848,0.2333,0.2902,1.3269,0.0000,0.0000,0.0000,0.2110,-0.9171,-1.6230,1.3097,0.0000,0.0000,0.0000
30.9,0.2960,0.2233,0.2364,1.3062,0.0000,0.0000,0.0000,0.2145,-0.9346,-1.6472,1.3019,0.0000,0.0000,0.0000
31.0,0.3043,0.2163,0.2266,1.2848,0.0000,0.0000,0.0000,0.2169,-0.9491,-1.6696,1.2949,0.0000,0.0000,0.0000
31.1,0.3174,0.2114,0.2660,1.2733,0.0000,0.0000,0.0000,0.2198,-0.9614,-1.6747,1.2912,0.0000,0.0000,0.0000
31.2,0.3354,0.2080,0.2297,1.2789,0.0000,0.0000,0.0000,0.2148,-0.9260,-1.6000,1.2704,0.0000,0.0000,0.0000
31.3,0.0257,0.4348,0.2941,1.3203,0.0000,0.0000,0.0000,0.2031,-0.8760,-1.4920,1.2395,0.0000,0.0000,0.0000
31.4,-0.2012,0.6103,0.2852,1.3727,0.0000,0.0000,0.0000,0.1667,-0.7681,-1.2388,1.2715,0.0000,0.0000,0.0000
31.5,-0.3733,0.7650,0.2508,1.4232,0.0000,0.0000,0.0000,0.1121,-0.6491,-1.0247,1.3352,0.0000,0.0000,0.0000
