RuntimeTerror1001/Real-Steel/robot_motion_20250501-104103.csv
timestamp,left_shoulder_pitch_joint,left_shoulder_roll_joint,left_shoulder_yaw_joint,left_elbow_joint,left_wrist_roll_joint,left_wrist_pitch_joint,left_wrist_yaw_joint,right_shoulder_pitch_joint,right_shoulder_roll_joint,right_shoulder_yaw_joint,right_elbow_joint,right_wrist_roll_joint,right_wrist_pitch_joint,right_wrist_yaw_joint
0.0,-4.9914,-0.1600,1.2875,1.1946,0.0000,0.0000,0.0000,0.1096,0.0291,-3.3817,1.2245,0.0000,0.0000,0.0000
0.1,-5.1008,-0.0881,1.2543,1.1686,0.0000,0.0000,0.0000,0.1190,0.0387,-3.3376,1.2517,0.0000,0.0000,0.0000
0.2,-5.2069,-0.0661,1.2267,1.1317,0.0000,0.0000,0.0000,0.1208,0.0538,-0.9702,1.2567,0.0000,0.0000,0.0000
0.3,-5.3317,-0.0336,1.1203,1.0949,0.0000,0.0000,0.0000,0.1156,0.0574,0.2610,1.2564,0.0000,0.0000,0.0000
0.4,-5.2426,-0.0428,0.9075,1.1865,0.0000,0.0000,0.0000,0.1690,-0.0335,0.1160,1.2398,0.0000,0.0000,0.0000
0.5,-5.3416,-0.0923,0.7223,1.2466,0.0000,0.0000,0.0000,0.1442,-0.1000,0.1806,1.2227,0.0000,0.0000,0.0000
0.6,-5.3763,-0.1313,0.6446,1.2876,0.0000,0.0000,0.0000,0.1252,-0.1288,0.2385,1.1852,0.0000,0.0000,0.0000
0.7,-5.3679,-0.0839,0.5148,1.3414,0.0000,0.0000,0.0000,0.1435,-0.1623,0.1745,1.1229,0.0000,0.0000,0.0000
0.8,-5.2822,-0.0658,0.4894,1.3703,0.0000,0.0000,0.0000,0.1553,-0.1821,0.1846,1.1263,0.0000,0.0000,0.0000
0.9,-5.2864,-0.0591,0.4692,1.3756,0.0000,0.0000,0.0000,0.1516,-0.1884,0.2153,1.1366,0.0000,0.0000,0.0000
1.0,-5.2655,-0.0454,0.4561,1.3865,0.0000,0.0000,0.0000,0.1620,-0.1974,0.1678,1.1401,0.0000,0.0000,0.0000
1.1,-5.2355,-0.0571,0.4615,1.3943,0.0000,0.0000,0.0000,0.1684,-0.2045,0.1186,1.1403,0.0000,0.0000,0.0000
1.2,-5.2288,-0.0531,0.4512,1.3998,0.0000,0.0000,0.0000,0.1710,-0.2113,0.0631,1.1400,0.0000,0.0000,0.0000
1.3,-5.2290,-0.0776,0.4467,1.4073,0.0000,0.0000,0.0000,0.1636,-0.2207,0.0204,1.1475,0.0000,0.0000,0.0000
1.4,-5.1927,-0.1041,0.4636,1.4167,0.0000,0.0000,0.0000,0.1580,-0.2274,-0.0042,1.1522,0.0000,0.0000,0.0000
1.5,-5.1922,-0.1121,0.4495,1.4263,0.0000,0.0000,0.0000,0.1573,-0.2322,-0.0202,1.1549,0.0000,0.0000,0.0000
1.6,-5.2348,-0.0989,0.4133,1.4330,0.0000,0.0000,0.0000,0.1546,-0.2350,-0.0353,1.1616,0.0000,0.0000,0.0000
1.7,-5.3605,-0.0363,0.3260,1.4350,0.0000,0.0000,0.0000,0.1388,-0.2429,-0.0410,1.1691,0.0000,0.0000,0.0000
1.8,-5.4472,-0.0191,0.2680,1.4300,0.0000,0.0000,0.0000,0.1167,-0.2521,-0.0166,1.1696,0.0000,0.0000,0.0000
1.9,-5.4685,0.0187,0.2496,1.4309,0.0000,0.0000,0.0000,0.1114,-0.2687,0.0234,1.1742,0.0000,0.0000,0.0000
2.0,-5.4869,0.0582,0.2215,1.4366,0.0000,0.0000,0.0000,0.1239,-0.3021,0.1123,1.1860,0.0000,0.0000,0.0000
2.1,-5.4972,0.1107,0.1929,1.4422,0.0000,0.0000,0.0000,0.2357,-0.3737,0.4757,1.1838,0.0000,0.0000,0.0000
2.2,-3.0235,0.1657,0.1492,1.4501,0.0000,0.0000,0.0000,0.1569,-0.4944,0.4877,0.8903,0.0000,0.0000,0.0000
2.3,-1.5743,0.2691,0.1075,1.4350,0.0000,0.0000,0.0000,-0.1845,-0.5640,0.2604,0.8021,0.0000,0.0000,0.0000
2.4,-0.7901,0.3782,0.0809,1.4306,0.0000,0.0000,0.0000,-0.4658,-0.6876,0.2229,0.6707,0.0000,0.0000,0.0000
2.5,-0.4396,0.8931,0.2227,1.4697,0.0000,0.0000,0.0000,-0.7422,-0.9616,-0.1471,0.6677,0.0000,0.0000,0.0000
2.6,-0.2454,1.2605,0.3137,1.4852,0.0000,0.0000,0.0000,-0.9763,-1.3578,-0.3691,0.6622,0.0000,0.0000,0.0000
2.7,0.0404,1.4604,0.2249,1.4775,0.0000,0.0000,0.0000,-1.3540,-1.9458,0.4262,0.7648,0.0000,0.0000,0.0000
2.8,-2.6402,1.5715,0.5935,1.4806,0.0000,0.0000,0.0000,-1.6687,-2.1924,1.3364,0.9022,0.0000,0.0000,0.0000
2.9,-4.5655,1.3561,0.3006,1.4953,0.0000,0.0000,0.0000,-1.8096,-2.2803,1.6505,0.8102,0.0000,0.0000,0.0000
3.0,-5.1103,1.0304,0.2478,1.4846,0.0000,0.0000,0.0000,-1.9556,-2.3124,1.7614,0.7986,0.0000,0.0000,0.0000
3.1,-5.2263,0.8702,0.2658,1.4691,0.0000,0.0000,0.0000,-2.0214,-2.3199,1.7868,0.8135,0.0000,0.0000,0.0000
3.2,-5.3636,0.6847,0.2953,1.4470,0.0000,0.0000,0.0000,-2.0416,-2.3273,1.8116,0.8138,0.0000,0.0000,0.0000
3.3,-5.4207,0.5789,0.3150,1.4426,0.0000,0.0000,0.0000,-2.0311,-2.3301,1.8208,0.7969,0.0000,0.0000,0.0000
3.4,-5.4320,0.5335,0.3323,1.4391,0.0000,0.0000,0.0000,-2.0339,-2.3312,1.8245,0.7876,0.0000,0.0000,0.0000
3.5,-5.3820,0.5025,0.3606,1.4471,0.0000,0.0000,0.0000,-2.0437,-2.3315,1.8257,0.8076,0.0000,0.0000,0.0000
3.6,-5.3607,0.4933,0.3663,1.4457,0.0000,0.0000,0.0000,-2.0402,-2.3316,1.8260,0.8145,0.0000,0.0000,0.0000
3.7,-5.4001,0.4841,0.3374,1.4397,0.0000,0.0000,0.0000,-2.0244,-2.3317,1.8263,0.8283,0.0000,0.0000,0.0000
3.8,-5.4665,0.5947,0.2750,1.4498,0.0000,0.0000,0.0000,-1.9780,-2.3318,1.8264,0.7929,0.0000,0.0000,0.0000
3.9,-1.6004,1.0445,0.2102,1.4747,0.0000,0.0000,0.0000,-1.4725,-1.7758,0.1984,0.6210,0.0000,0.0000,0.0000
4.0,-0.8845,1.3015,0.3014,1.4846,0.0000,0.0000,0.0000,-1.2865,-1.4691,-0.2133,0.6109,0.0000,0.0000,0.0000
4.1,-1.1979,1.4912,1.0020,1.4941,0.0000,0.0000,0.0000,-1.0313,-1.0988,-0.2234,0.5576,0.0000,0.0000,0.0000
4.2,-0.6033,1.2704,0.6351,1.4792,0.0000,0.0000,0.0000,-0.6656,-0.9511,-0.2324,0.4703,0.0000,0.0000,0.0000
4.3,-0.0788,1.0055,0.2165,1.4662,0.0000,0.0000,0.0000,-0.0914,-0.6491,-0.4183,0.9554,0.0000,0.0000,0.0000
4.4,0.0317,0.9056,0.1217,1.4661,0.0000,0.0000,0.0000,0.0135,-0.5273,-0.4003,1.0181,0.0000,0.0000,0.0000
4.5,-2.3804,0.7999,0.0615,1.4679,0.0000,0.0000,0.0000,0.0818,-0.4345,-0.3634,1.0574,0.0000,0.0000,0.0000
4.6,-3.7448,0.6782,0.0268,1.4722,0.0000,0.0000,0.0000,0.1219,-0.3687,-0.3123,1.0884,0.0000,0.0000,0.0000
4.7,-4.3998,0.5880,0.0068,1.4870,0.0000,0.0000,0.0000,0.1647,-0.3233,-0.2405,1.1186,0.0000,0.0000,0.0000
4.8,-4.7505,0.4910,-0.0082,1.4914,0.0000,0.0000,0.0000,0.1712,-0.2916,-0.0460,1.1773,0.0000,0.0000,0.0000
4.9,-4.9686,0.4538,-0.0268,1.4866,0.0000,0.0000,0.0000,0.1671,-0.2720,0.2471,1.2294,0.0000,0.0000,0.0000
5.0,-5.0816,0.4478,-0.0382,1.4872,0.0000,0.0000,0.0000,0.1777,-0.2567,0.1424,1.2550,0.0000,0.0000,0.0000
5.1,-5.1661,0.4495,-0.0481,1.4840,0.0000,0.0000,0.0000,0.1893,-0.2484,0.0386,1.2609,0.0000,0.0000,0.0000
5.2,-5.2108,0.3878,-0.0334,1.4814,0.0000,0.0000,0.0000,0.1910,-0.2425,0.0005,1.2652,0.0000,0.0000,0.0000
5.3,-5.2205,0.3551,-0.0307,1.4870,0.0000,0.0000,0.0000,0.2029,-0.2392,-0.0397,1.2619,0.0000,0.0000,0.0000
5.4,-5.2334,0.3631,-0.0381,1.4964,0.0000,0.0000,0.0000,0.2151,-0.2376,-0.0847,1.2520,0.0000,0.0000,0.0000
5.5,-5.3534,0.4048,0.0164,1.4897,0.0000,0.0000,0.0000,0.2257,-0.2381,-0.1282,1.2463,0.0000,0.0000,0.0000
5.6,-5.3586,0.6381,0.1756,1.4457,0.0000,0.0000,0.0000,0.2287,-0.2382,-0.1098,1.2381,0.0000,0.0000,0.0000
5.7,-4.1666,0.6314,1.3870,1.0876,0.0000,0.0000,0.0000,0.2329,-0.2364,-0.1638,1.2119,0.0000,0.0000,0.0000
5.8,-3.2518,0.7145,2.2163,0.8574,0.0000,0.0000,0.0000,0.2259,-0.2341,-0.1510,1.2041,0.0000,0.0000,0.0000
5.9,-1.9469,0.4398,2.6878,0.8477,0.0000,0.0000,0.0000,0.2135,-0.2386,-0.1133,1.1960,0.0000,0.0000,0.0000
6.0,-1.0626,0.3873,3.4831,0.8914,0.0000,0.0000,0.0000,0.2120,-0.2423,-0.0436,1.1920,0.0000,0.0000,0.0000
6.1,-0.7679,0.3221,2.3549,0.9680,0.0000,0.0000,0.0000,0.2047,-0.2513,0.1788,1.1791,0.0000,0.0000,0.0000
6.2,-0.7816,0.2553,1.2553,0.9862,0.0000,0.0000,0.0000,0.2019,-0.2552,0.2424,1.1748,0.0000,0.0000,0.0000
6.3,-0.7800,0.1425,0.6475,0.9930,0.0000,0.0000,0.0000,0.1965,-0.2594,0.2745,1.1753,0.0000,0.0000,0.0000
6.4,-0.8502,0.0611,0.2698,1.0181,0.0000,0.0000,0.0000,0.1865,-0.2663,0.2766,1.1800,0.0000,0.0000,0.0000
6.5,-0.9395,0.0356,0.0556,1.0335,0.0000,0.0000,0.0000,0.1808,-0.2718,0.2707,1.1851,0.0000,0.0000,0.0000
6.6,-1.0583,0.0469,-0.1377,1.0195,0.0000,0.0000,0.0000,0.1848,-0.2806,0.2270,1.1803,0.0000,0.0000,0.0000
6.7,-1.1150,0.0272,-0.2067,0.9958,0.0000,0.0000,0.0000,0.1793,-0.2855,0.2473,1.1847,0.0000,0.0000,0.0000
6.8,-1.1266,-0.0029,-0.2225,0.9721,0.0000,0.0000,0.0000,0.1880,-0.2896,0.2782,1.1943,0.0000,0.0000,0.0000
6.9,-1.1387,-0.0093,-0.2332,0.9609,0.0000,0.0000,0.0000,0.1995,-0.2942,0.2958,1.2029,0.0000,0.0000,0.0000
7.0,-1.1059,-0.0632,-0.2418,0.9477,0.0000,0.0000,0.0000,0.2089,-0.2968,0.3620,1.2143,0.0000,0.0000,0.0000
7.1,-1.1103,-0.0359,-0.2450,0.9548,0.0000,0.0000,0.0000,0.2039,-0.2968,0.3774,1.2236,0.0000,0.0000,0.0000
7.2,-1.1080,0.0341,-0.2458,0.9672,0.0000,0.0000,0.0000,0.2013,-0.2972,0.3986,1.2280,0.0000,0.0000,0.0000
7.3,-1.0924,0.0782,-0.2463,0.9778,0.0000,0.0000,0.0000,0.2044,-0.2968,0.4669,1.2344,0.0000,0.0000,0.0000
7.4,-1.0460,0.0743,-0.2465,0.9993,0.0000,0.0000,0.0000,0.2101,-0.2950,0.5098,1.2409,0.0000,0.0000,0.0000
7.5,-1.0141,0.0840,-0.2467,1.0252,0.0000,0.0000,0.0000,0.2163,-0.2938,0.5054,1.2461,0.0000,0.0000,0.0000
7.6,-0.5366,0.3272,3.2818,1.0648,0.0000,0.0000,0.0000,0.1994,-0.2780,0.4515,1.2393,0.0000,0.0000,0.0000
7.7,-0.2369,0.2586,3.8586,1.0196,0.0000,0.0000,0.0000,0.1818,-0.2724,0.5084,1.2470,0.0000,0.0000,0.0000
7.8,-0.3115,0.1829,3.5729,1.0673,0.0000,0.0000,0.0000,0.1608,-0.2655,0.7751,1.2535,0.0000,0.0000,0.0000
7.9,-1.1708,0.5645,3.1789,1.0339,0.0000,0.0000,0.0000,0.1662,-0.2443,0.4320,1.2332,0.0000,0.0000,0.0000
8.0,-1.5657,0.0854,3.6757,1.0569,0.0000,0.0000,0.0000,0.1695,-0.2348,0.1822,1.2176,0.0000,0.0000,0.0000
8.1,-2.6569,-0.2291,2.8901,1.1458,0.0000,0.0000,0.0000,0.1741,-0.2282,-0.0035,1.2139,0.0000,0.0000,0.0000
8.2,-3.9996,-0.2267,1.6454,1.2902,0.0000,0.0000,0.0000,0.1707,-0.2156,-0.0875,1.2357,0.0000,0.0000,0.0000
8.3,-4.5044,-0.1292,1.1795,1.3298,0.0000,0.0000,0.0000,0.1751,-0.2130,-0.1174,1.2399,0.0000,0.0000,0.0000
8.4,-4.8705,-0.0049,0.8508,1.3590,0.0000,0.0000,0.0000,0.1769,-0.2112,-0.0643,1.2474,0.0000,0.0000,0.0000
8.5,-5.0448,0.0827,0.6477,1.3799,0.0000,0.0000,0.0000,0.1786,-0.2111,-0.0550,1.2496,0.0000,0.0000,0.0000
8.6,-5.1295,0.0930,0.5353,1.3924,0.0000,0.0000,0.0000,0.1789,-0.2118,-0.0288,1.2544,0.0000,0.0000,0.0000
8.7,-5.0857,0.0504,0.5017,1.3993,0.0000,0.0000,0.0000,0.1752,-0.2133,0.0243,1.2646,0.0000,0.0000,0.0000
8.8,-5.0443,0.0130,0.4783,1.4090,0.0000,0.0000,0.0000,0.1858,-0.2141,0.0875,1.2744,0.0000,0.0000,0.0000
8.9,-5.0667,0.0351,0.4200,1.4186,0.0000,0.0000,0.0000,0.1911,-0.2174,0.1188,1.2761,0.0000,0.0000,0.0000
9.0,-5.0738,0.0500,0.3951,1.4219,0.0000,0.0000,0.0000,0.1978,-0.2209,0.1314,1.2722,0.0000,0.0000,0.0000
9.1,-5.1061,0.0825,0.3533,1.4248,0.0000,0.0000,0.0000,0.2091,-0.2257,0.1890,1.2545,0.0000,0.0000,0.0000
9.2,-5.1310,0.1227,0.3179,1.4308,0.0000,0.0000,0.0000,0.2171,-0.2327,0.2640,1.2252,0.0000,0.0000,0.0000
9.3,-5.2056,0.1586,0.2722,1.4334,0.0000,0.0000,0.0000,0.2002,-0.2517,0.3670,1.2047,0.0000,0.0000,0.0000
9.4,-5.4065,0.2808,0.1766,1.4350,0.0000,0.0000,0.0000,0.1773,-0.3134,0.4635,1.1053,0.0000,0.0000,0.0000
9.5,-5.4588,0.2942,0.1541,1.4412,0.0000,0.0000,0.0000,0.1745,-0.3661,0.4964,1.0538,0.0000,0.0000,0.0000
9.6,-5.4826,0.2491,0.1490,1.4491,0.0000,0.0000,0.0000,0.1714,-0.5159,0.5229,1.0165,0.0000,0.0000,0.0000
9.7,-5.4358,0.2011,0.1652,1.4607,0.0000,0.0000,0.0000,0.1804,-0.5817,0.5348,0.9886,0.0000,0.0000,0.0000
9.8,-5.3454,0.1248,0.2111,1.4731,0.0000,0.0000,0.0000,0.1633,-0.6497,0.5150,0.9421,0.0000,0.0000,0.0000
9.9,-5.2462,0.0647,0.2613,1.4844,0.0000,0.0000,0.0000,0.1457,-0.7156,0.4893,0.8996,0.0000,0.0000,0.0000
10.0,-5.1640,0.0246,0.3055,1.4898,0.0000,0.0000,0.0000,0.1034,-0.7866,0.4914,0.8835,0.0000,0.0000,0.0000
10.1,-4.9928,-0.0990,0.4313,1.4962,0.0000,0.0000,0.0000,0.0336,-0.9205,0.4943,0.9050,0.0000,0.0000,0.0000
10.2,-4.9596,-0.1357,0.4588,1.4960,0.0000,0.0000,0.0000,0.0024,-0.9914,0.4993,0.9280,0.0000,0.0000,0.0000
10.3,-4.1505,-0.2571,1.2075,1.4959,0.0000,0.0000,0.0000,-0.1222,-1.1305,0.5599,0.9793,0.0000,0.0000,0.0000
10.4,-3.8537,-0.2613,1.4884,1.4937,0.0000,0.0000,0.0000,-0.1676,-1.1748,0.5786,0.9901,0.0000,0.0000,0.0000
10.5,-3.7121,-0.2760,1.6234,1.4929,0.0000,0.0000,0.0000,-0.2029,-1.2089,0.5968,0.9917,0.0000,0.0000,0.0000
10.6,-3.5855,-0.2680,1.7431,1.4929,0.0000,0.0000,0.0000,-0.2183,-1.2248,0.6029,0.9873,0.0000,0.0000,0.0000
10.7,-3.4394,-0.2617,1.8857,1.4930,0.0000,0.0000,0.0000,-0.2338,-1.2413,0.6054,0.9855,0.0000,0.0000,0.0000
10.8,-3.3944,-0.2688,1.9307,1.4938,0.0000,0.0000,0.0000,-0.2390,-1.2409,0.6152,0.9831,0.0000,0.0000,0.0000
10.9,-3.4156,-0.2959,1.9124,1.4958,0.0000,0.0000,0.0000,-0.2363,-1.2342,0.6193,0.9794,0.0000,0.0000,0.0000
11.0,-3.5007,-0.3288,1.8327,1.4964,0.0000,0.0000,0.0000,-0.2347,-1.2249,0.6290,0.9808,0.0000,0.0000,0.0000
11.1,-3.5524,-0.3564,1.7873,1.4962,0.0000,0.0000,0.0000,-0.2312,-1.2174,0.6311,0.9901,0.0000,0.0000,0.0000
11.2,-3.8445,-0.3870,1.5146,1.4958,0.0000,0.0000,0.0000,-0.1919,-1.1777,0.6218,0.9925,0.0000,0.0000,0.0000
11.3,-4.2510,-0.3081,1.1278,1.4913,0.0000,0.0000,0.0000,-0.1409,-1.1162,0.5956,0.9834,0.0000,0.0000,0.0000
11.4,-4.6080,-0.1644,0.7833,1.4875,0.0000,0.0000,0.0000,-0.0760,-1.0189,0.5694,0.9643,0.0000,0.0000,0.0000
11.5,-4.9177,0.0006,0.5244,1.4646,0.0000,0.0000,0.0000,-0.0024,-0.9232,0.6141,0.9993,0.0000,0.0000,0.0000
11.6,-5.1380,0.1021,0.3549,1.4500,0.0000,0.0000,0.0000,0.0463,-0.8363,0.6326,1.0481,0.0000,0.0000,0.0000
11.7,-5.2569,0.1718,0.2522,1.4478,0.0000,0.0000,0.0000,0.0796,-0.7453,0.6228,1.0811,0.0000,0.0000,0.0000
11.8,-5.3232,0.2147,0.1917,1.4513,0.0000,0.0000,0.0000,0.1080,-0.6506,0.6139,1.0823,0.0000,0.0000,0.0000
11.9,-5.4146,0.3241,0.1124,1.4633,0.0000,0.0000,0.0000,0.1361,-0.4930,0.5636,1.1078,0.0000,0.0000,0.0000
12.0,-5.4344,0.3592,0.0948,1.4630,0.0000,0.0000,0.0000,0.1460,-0.4382,0.5411,1.1515,0.0000,0.0000,0.0000
12.1,-5.4397,0.3517,0.0880,1.4566,0.0000,0.0000,0.0000,0.1653,-0.3904,0.4339,1.1870,0.0000,0.0000,0.0000
12.2,-5.4301,0.3142,0.0908,1.4537,0.0000,0.0000,0.0000,0.1734,-0.3564,0.2999,1.2254,0.0000,0.0000,0.0000
12.3,-5.4114,0.2709,0.1009,1.4528,0.0000,0.0000,0.0000,0.1778,-0.3303,0.1706,1.2515,0.0000,0.0000,0.0000
12.4,-5.3990,0.2513,0.1051,1.4529,0.0000,0.0000,0.0000,0.1809,-0.3131,0.0866,1.2678,0.0000,0.0000,0.0000
12.5,-5.3985,0.2304,0.1105,1.4512,0.0000,0.0000,0.0000,0.1821,-0.2996,0.1104,1.2798,0.0000,0.0000,0.0000
12.6,-5.3954,0.2246,0.1185,1.4467,0.0000,0.0000,0.0000,0.1827,-0.2909,0.1772,1.2804,0.0000,0.0000,0.0000
12.7,-5.4035,0.2667,0.1294,1.4423,0.0000,0.0000,0.0000,0.1819,-0.2864,0.2028,1.2755,0.0000,0.0000,0.0000
12.8,-5.3966,0.2799,0.2259,1.4396,0.0000,0.0000,0.0000,0.1909,-0.2799,0.1706,1.2581,0.0000,0.0000,0.0000
12.9,-5.4506,0.4150,0.3925,1.4495,0.0000,0.0000,0.0000,0.2042,-0.2734,0.1600,1.2413,0.0000,0.0000,0.0000
13.0,-2.9211,0.6587,0.6563,1.4581,0.0000,0.0000,0.0000,0.2095,-0.2682,0.1723,1.2313,0.0000,0.0000,0.0000
13.1,-1.5099,0.8806,0.9849,1.4538,0.0000,0.0000,0.0000,0.2241,-0.2666,0.1643,1.2213,0.0000,0.0000,0.0000
13.2,-4.0856,1.0116,1.6307,1.4171,0.0000,0.0000,0.0000,0.2454,-0.2683,0.1163,1.2122,0.0000,0.0000,0.0000
13.3,-4.9256,0.8972,2.2950,1.3802,0.0000,0.0000,0.0000,0.2365,-0.2738,0.1599,1.2187,0.0000,0.0000,0.0000
13.4,-5.2360,0.7682,2.8348,1.3729,0.0000,0.0000,0.0000,0.2290,-0.2808,0.1178,1.2112,0.0000,0.0000,0.0000
13.5,-1.5742,0.7638,3.2002,1.3588,0.0000,0.0000,0.0000,0.2184,-0.2930,0.0483,1.1980,0.0000,0.0000,0.0000
13.6,-0.8035,0.7600,3.3340,1.3574,0.0000,0.0000,0.0000,0.2130,-0.2976,0.0439,1.1968,0.0000,0.0000,0.0000
13.7,-0.3804,0.7577,3.4390,1.3597,0.0000,0.0000,0.0000,0.2075,-0.3002,0.0318,1.1941,0.0000,0.0000,0.0000
13.8,-0.1394,0.7464,3.5142,1.3444,0.0000,0.0000,0.0000,0.1975,-0.3029,0.0479,1.1948,0.0000,0.0000,0.0000
13.9,0.0130,0.7136,3.5784,1.3409,0.0000,0.0000,0.0000,0.1907,-0.3054,0.0511,1.1945,0.0000,0.0000,0.0000
14.0,0.1317,0.6551,3.6528,1.3526,0.0000,0.0000,0.0000,0.1816,-0.3074,0.0435,1.1894,0.0000,0.0000,0.0000
14.1,0.1585,0.6432,3.6904,1.3578,0.0000,0.0000,0.0000,0.1808,-0.3078,0.0295,1.1855,0.0000,0.0000,0.0000
14.2,0.1845,0.6305,3.7272,1.3642,0.0000,0.0000,0.0000,0.1784,-0.3069,0.0210,1.1800,0.0000,0.0000,0.0000
14.3,0.1942,0.6406,3.6839,1.3705,0.0000,0.0000,0.0000,0.1752,-0.3052,0.0456,1.1802,0.0000,0.0000,0.0000
14.4,-3.4750,0.5507,3.2503,1.3848,0.0000,0.0000,0.0000,0.1712,-0.2979,0.1158,1.1896,0.0000,0.0000,0.0000
14.5,-4.3091,0.5468,2.8926,1.3913,0.0000,0.0000,0.0000,0.1737,-0.2951,0.1894,1.2018,0.0000,0.0000,0.0000
14.6,-5.0151,0.7803,2.1803,1.3166,0.0000,0.0000,0.0000,0.2100,-0.2912,0.3783,1.2201,0.0000,0.0000,0.0000
14.7,-5.3244,0.7261,1.3928,1.4053,0.0000,0.0000,0.0000,0.2246,-0.2752,0.3872,1.2228,0.0000,0.0000,0.0000
14.8,-5.3341,0.3458,0.8519,1.4297,0.0000,0.0000,0.0000,0.2152,-0.2635,0.3594,1.2361,0.0000,0.0000,0.0000
14.9,-5.3392,0.2733,0.4999,1.4367,0.0000,0.0000,0.0000,0.1951,-0.2559,0.3547,1.2533,0.0000,0.0000,0.0000
15.0,-5.2608,0.1708,0.4129,1.4335,0.0000,0.0000,0.0000,0.1901,-0.2553,0.1939,1.2662,0.0000,0.0000,0.0000
15.1,-5.2338,0.1561,0.3928,1.4356,0.0000,0.0000,0.0000,0.1900,-0.2543,0.1272,1.2698,0.0000,0.0000,0.0000
15.2,-5.2248,0.1963,0.3408,1.4437,0.0000,0.0000,0.0000,0.1947,-0.2535,0.0521,1.2738,0.0000,0.0000,0.0000
15.3,-5.2713,0.2887,0.2878,1.4478,0.0000,0.0000,0.0000,0.1967,-0.2522,0.1137,1.2704,0.0000,0.0000,0.0000
15.4,-5.3022,0.3661,0.2576,1.4473,0.0000,0.0000,0.0000,0.1944,-0.2523,0.1736,1.2605,0.0000,0.0000,0.0000
15.5,-5.3278,0.4312,0.2345,1.4472,0.0000,0.0000,0.0000,0.1961,-0.2530,0.2581,1.2400,0.0000,0.0000,0.0000
15.6,-5.3454,0.4447,0.2280,1.4460,0.0000,0.0000,0.0000,0.1932,-0.2528,0.3422,1.2156,0.0000,0.0000,0.0000
15.7,-5.3726,0.4575,0.2211,1.4433,0.0000,0.0000,0.0000,0.1808,-0.2524,0.3383,1.1863,0.0000,0.0000,0.0000
15.8,-5.4330,0.4454,0.2196,1.4367,0.0000,0.0000,0.0000,0.1640,-0.2525,0.3607,1.1609,0.0000,0.0000,0.0000
15.9,-5.4702,0.4354,0.2211,1.4345,0.0000,0.0000,0.0000,0.1457,-0.2527,0.3969,1.1435,0.0000,0.0000,0.0000
16.0,-5.4908,0.4203,0.2248,1.4377,0.0000,0.0000,0.0000,0.1306,-0.2531,0.4453,1.1268,0.0000,0.0000,0.0000
16.1,-5.5135,0.3871,0.2275,1.4466,0.0000,0.0000,0.0000,0.1132,-0.2539,0.5035,1.0927,0.0000,0.0000,0.0000
16.2,-5.5275,0.3782,0.2254,1.4491,0.0000,0.0000,0.0000,0.1102,-0.2543,0.5189,1.0794,0.0000,0.0000,0.0000
16.3,-5.5131,0.3683,0.2307,1.4534,0.0000,0.0000,0.0000,0.1100,-0.2562,0.4878,1.0567,0.0000,0.0000,0.0000
16.4,-5.5062,0.3650,0.2339,1.4543,0.0000,0.0000,0.0000,0.1109,-0.2569,0.4749,1.0502,0.0000,0.0000,0.0000
16.5,-5.5173,0.3891,0.2229,1.4568,0.0000,0.0000,0.0000,0.1117,-0.2578,0.4799,1.0445,0.0000,0.0000,0.0000
16.6,-5.5267,0.4124,0.2168,1.4569,0.0000,0.0000,0.0000,0.1119,-0.2585,0.4859,1.0426,0.0000,0.0000,0.0000
16.7,-5.5472,0.4499,0.2082,1.4477,0.0000,0.0000,0.0000,0.1112,-0.2617,0.5170,1.0434,0.0000,0.0000,0.0000
16.8,-5.5357,0.4758,0.2056,1.4431,0.0000,0.0000,0.0000,0.1190,-0.2639,0.5471,1.0580,0.0000,0.0000,0.0000
16.9,-5.4951,0.4775,0.2073,1.4470,0.0000,0.0000,0.0000,0.1504,-0.2655,0.5544,1.1035,0.0000,0.0000,0.0000
17.0,-5.4431,0.4775,0.2142,1.4435,0.0000,0.0000,0.0000,0.1776,-0.2657,0.5083,1.1430,0.0000,0.0000,0.0000
17.1,-5.4299,0.4757,0.2169,1.4427,0.0000,0.0000,0.0000,0.1828,-0.2660,0.4892,1.1572,0.0000,0.0000,0.0000
17.2,-5.4180,0.4603,0.2222,1.4435,0.0000,0.0000,0.0000,0.1875,-0.2665,0.4547,1.1743,0.0000,0.0000,0.0000
17.3,-5.4168,0.4518,0.2243,1.4441,0.0000,0.0000,0.0000,0.1887,-0.2671,0.4466,1.1792,0.0000,0.0000,0.0000
17.4,-5.4151,0.4328,0.2298,1.4448,0.0000,0.0000,0.0000,0.1898,-0.2678,0.4403,1.1824,0.0000,0.0000,0.0000
17.5,-5.4179,0.4240,0.2309,1.4483,0.0000,0.0000,0.0000,0.1909,-0.2680,0.4489,1.1851,0.0000,0.0000,0.0000
17.6,-5.4345,0.4412,0.2257,1.4493,0.0000,0.0000,0.0000,0.1916,-0.2680,0.4504,1.1863,0.0000,0.0000,0.0000
17.7,-5.4837,0.5129,0.2125,1.4462,0.0000,0.0000,0.0000,0.1914,-0.2682,0.4785,1.1898,0.0000,0.0000,0.0000
17.8,-3.0158,0.6250,0.2113,1.4400,0.0000,0.0000,0.0000,0.1912,-0.2685,0.4468,1.1893,0.0000,0.0000,0.0000
17.9,-1.5901,0.8125,0.2547,1.4265,0.0000,0.0000,0.0000,0.1905,-0.2687,0.3997,1.1861,0.0000,0.0000,0.0000
18.0,-0.8580,0.9691,0.3235,1.4070,0.0000,0.0000,0.0000,0.1916,-0.2694,0.3530,1.1826,0.0000,0.0000,0.0000
18.1,-0.4854,1.0831,0.3860,1.3884,0.0000,0.0000,0.0000,0.1910,-0.2706,0.3323,1.1808,0.0000,0.0000,0.0000
18.2,-0.3389,1.2321,0.4817,1.3800,0.0000,0.0000,0.0000,0.1893,-0.2721,0.3291,1.1804,0.0000,0.0000,0.0000
18.3,-0.2752,1.2722,0.5383,1.3713,0.0000,0.0000,0.0000,0.1905,-0.2737,0.3241,1.1800,0.0000,0.0000,0.0000
18.4,-0.2264,1.2835,0.5635,1.3666,0.0000,0.0000,0.0000,0.1920,-0.2756,0.3113,1.1794,0.0000,0.0000,0.0000
18.5,-0.1901,1.2637,0.5646,1.3619,0.0000,0.0000,0.0000,0.1962,-0.2779,0.3018,1.1792,0.0000,0.0000,0.0000
18.6,-0.1563,1.2315,0.5514,1.3571,0.0000,0.0000,0.0000,0.1987,-0.2799,0.2979,1.1788,0.0000,0.0000,0.0000
18.7,-0.1183,1.2009,0.5313,1.3516,0.0000,0.0000,0.0000,0.2016,-0.2818,0.3057,1.1785,0.0000,0.0000,0.0000
18.8,-0.1055,1.2119,0.5299,1.3522,0.0000,0.0000,0.0000,0.2061,-0.2822,0.2934,1.1758,0.0000,0.0000,0.0000
18.9,-0.0947,1.2180,0.5270,1.3525,0.0000,0.0000,0.0000,0.2085,-0.2818,0.2909,1.1741,0.0000,0.0000,0.0000
19.0,-0.0931,1.2344,0.5324,1.3509,0.0000,0.0000,0.0000,0.2098,-0.2811,0.2925,1.1727,0.0000,0.0000,0.0000
19.1,-0.0947,1.2523,0.5403,1.3495,0.0000,0.0000,0.0000,0.2108,-0.2803,0.2914,1.1707,0.0000,0.0000,0.0000
19.2,-0.1102,1.2923,0.5773,1.3433,0.0000,0.0000,0.0000,0.2124,-0.2781,0.2941,1.1668,0.0000,0.0000,0.0000
19.3,-0.1125,1.3041,0.5985,1.3452,0.0000,0.0000,0.0000,0.2111,-0.2768,0.3096,1.1673,0.0000,0.0000,0.0000
19.4,0.0094,1.2773,0.5131,1.3838,0.0000,0.0000,0.0000,0.2073,-0.2745,0.3785,1.1737,0.0000,0.0000,0.0000
19.5,0.0853,1.1767,0.4257,1.3969,0.0000,0.0000,0.0000,0.2057,-0.2733,0.4127,1.1773,0.0000,0.0000,0.0000
19.6,0.1306,1.0858,0.3556,1.4051,0.0000,0.0000,0.0000,0.2046,-0.2721,0.4406,1.1799,0.0000,0.0000,0.0000
19.7,0.1581,1.0245,0.3064,1.4084,0.0000,0.0000,0.0000,0.2044,-0.2708,0.4605,1.1813,0.0000,0.0000,0.0000
19.8,0.1745,0.9926,0.2768,1.4117,0.0000,0.0000,0.0000,0.2045,-0.2700,0.4752,1.1825,0.0000,0.0000,0.0000
19.9,0.1844,0.9766,0.2598,1.4136,0.0000,0.0000,0.0000,0.2052,-0.2694,0.4691,1.1827,0.0000,0.0000,0.0000
20.0,0.1941,0.9499,0.2393,1.4171,0.0000,0.0000,0.0000,0.2086,-0.2680,0.4620,1.1836,0.0000,0.0000,0.0000
20.1,0.1978,0.8938,0.2225,1.4222,0.0000,0.0000,0.0000,0.1992,-0.2678,0.5249,1.1973,0.0000,0.0000,0.0000
20.2,-2.1860,0.6330,0.2379,1.4534,0.0000,0.0000,0.0000,0.2046,-0.2649,0.0804,1.2458,0.0000,0.0000,0.0000
20.3,-2.9129,0.2437,1.4585,1.1649,0.0000,0.0000,0.0000,0.1430,-0.2474,-0.6061,0.9105,0.0000,0.0000,0.0000
20.4,-2.4608,0.4469,2.3995,0.7560,0.0000,0.0000,0.0000,0.0200,-0.2021,-0.9515,0.5502,0.0000,0.0000,0.0000
20.5,-1.8559,0.6739,2.6217,0.6070,0.0000,0.0000,0.0000,-0.3122,-0.1000,-1.0958,0.4186,0.0000,0.0000,0.0000
20.6,-1.2704,0.5568,2.7118,0.5521,0.0000,0.0000,0.0000,-0.5180,-0.0471,-1.1345,0.3700,0.0000,0.0000,0.0000
20.7,-1.0170,0.4516,2.7323,0.5316,0.0000,0.0000,0.0000,-0.6017,-0.0190,-1.1503,0.3517,0.0000,0.0000,0.0000
20.8,-0.8951,0.3812,2.7562,0.5238,0.0000,0.0000,0.0000,-0.6454,-0.0112,-1.1442,0.3448,0.0000,0.0000,0.0000
20.9,-0.8665,0.3612,2.7593,0.5221,0.0000,0.0000,0.0000,-0.6551,-0.0140,-1.1393,0.3433,0.0000,0.0000,0.0000
21.0,-0.8399,0.3388,2.7571,0.5203,0.0000,0.0000,0.0000,-0.6623,-0.0227,-1.1308,0.3417,0.0000,0.0000,0.0000
21.1,-0.8361,0.3290,2.7439,0.5196,0.0000,0.0000,0.0000,-0.6649,-0.0300,-1.1254,0.3411,0.0000,0.0000,0.0000
21.2,-0.8369,0.3294,2.7399,0.5193,0.0000,0.0000,0.0000,-0.6740,-0.0330,-1.1233,0.3408,0.0000,0.0000,0.0000
21.3,-0.8252,0.3220,2.7514,0.5193,0.0000,0.0000,0.0000,-0.6788,-0.0337,-1.1238,0.3408,0.0000,0.0000,0.0000
21.4,-0.8177,0.3178,2.7595,0.5192,0.0000,0.0000,0.0000,-0.6816,-0.0358,-1.1229,0.3408,0.0000,0.0000,0.0000
21.5,-0.8204,0.3196,2.7564,0.5192,0.0000,0.0000,0.0000,-0.6834,-0.0405,-1.1183,0.3407,0.0000,0.0000,0.0000
21.6,-0.8022,0.3053,2.7720,0.5192,0.0000,0.0000,0.0000,-0.6821,-0.0505,-1.1114,0.3407,0.0000,0.0000,0.0000
21.7,-0.7767,0.2872,2.7963,0.5192,0.0000,0.0000,0.0000,-0.6816,-0.0668,-1.1011,0.3407,0.0000,0.0000,0.0000
21.8,-0.7568,0.2740,2.8172,0.5192,0.0000,0.0000,0.0000,-0.6861,-0.0812,-1.0866,0.3407,0.0000,0.0000,0.0000
21.9,-0.7522,0.2652,2.8169,0.5192,0.0000,0.0000,0.0000,-0.6886,-0.0910,-1.0742,0.3407,0.0000,0.0000,0.0000
22.0,-0.7554,0.2579,2.8049,0.5192,0.0000,0.0000,0.0000,-0.6871,-0.1004,-1.0630,0.3407,0.0000,0.0000,0.0000
22.1,-0.7636,0.2552,2.7885,0.5192,0.0000,0.0000,0.0000,-0.6849,-0.1055,-1.0548,0.3407,0.0000,0.0000,0.0000
22.2,-0.7705,0.2556,2.7772,0.5192,0.0000,0.0000,0.0000,-0.6810,-0.1031,-1.0519,0.3407,0.0000,0.0000,0.0000
22.3,-0.8195,0.3570,2.7991,0.5192,0.0000,0.0000,0.0000,-0.6577,-0.0833,-1.0590,0.3407,0.0000,0.0000,0.0000
22.4,-1.4850,0.6215,2.8060,0.5192,0.0000,0.0000,0.0000,-0.3903,-0.0881,-1.0039,0.3407,0.0000,0.0000,0.0000
22.5,-2.0416,0.4887,2.7841,0.6277,0.0000,0.0000,0.0000,-0.1056,-0.1375,-0.9010,0.6639,0.0000,0.0000,0.0000
22.6,-2.7268,0.2006,2.5948,1.0792,0.0000,0.0000,0.0000,0.1365,-0.2283,-0.4470,0.9994,0.0000,0.0000,0.0000
22.7,-3.4802,-0.1443,2.0173,1.3009,0.0000,0.0000,0.0000,0.2103,-0.2589,-0.2195,1.1026,0.0000,0.0000,0.0000
22.8,-4.3259,-0.1968,1.2812,1.3860,0.0000,0.0000,0.0000,0.2550,-0.2637,-0.1536,1.1078,0.0000,0.0000,0.0000
22.9,-4.8585,-0.0785,0.8334,1.4134,0.0000,0.0000,0.0000,0.2624,-0.2599,0.0057,1.1201,0.0000,0.0000,0.0000
23.0,-5.0224,-0.0167,0.7070,1.4152,0.0000,0.0000,0.0000,0.2608,-0.2570,0.0734,1.1228,0.0000,0.0000,0.0000
23.1,-5.1370,0.0155,0.6265,1.4110,0.0000,0.0000,0.0000,0.2572,-0.2557,0.1297,1.1255,0.0000,0.0000,0.0000
23.2,-5.2131,0.0200,0.5746,1.4100,0.0000,0.0000,0.0000,0.2569,-0.2547,0.1589,1.1253,0.0000,0.0000,0.0000
23.3,-5.2494,0.0077,0.5480,1.4122,0.0000,0.0000,0.0000,0.2595,-0.2544,0.1581,1.1268,0.0000,0.0000,0.0000
23.4,-5.2230,-0.0269,0.5377,1.4281,0.0000,0.0000,0.0000,0.2529,-0.2538,0.1644,1.1419,0.0000,0.0000,0.0000
23.5,-5.1648,-0.0633,0.5558,1.4388,0.0000,0.0000,0.0000,0.2412,-0.2528,0.1962,1.1557,0.0000,0.0000,0.0000
23.6,-4.9497,-0.1997,0.7078,1.4397,0.0000,0.0000,0.0000,0.2262,-0.2502,0.1436,1.1720,0.0000,0.0000,0.0000
23.7,-4.7312,-0.2898,0.8754,1.4370,0.0000,0.0000,0.0000,0.2149,-0.2470,-0.0034,1.1921,0.0000,0.0000,0.0000
23.8,-4.5326,-0.3767,1.0519,1.4325,0.0000,0.0000,0.0000,0.1996,-0.2423,-0.2641,1.2052,0.0000,0.0000,0.0000
23.9,-3.8948,-0.4622,1.7053,1.4174,0.0000,0.0000,0.0000,0.1855,-0.2367,-0.4865,1.1983,0.0000,0.0000,0.0000
