RuntimeTerror1001/Real-Steel/robot_motion_20250430-234251.csv
timestamp,left_shoulder_pitch_joint,left_shoulder_roll_joint,left_shoulder_yaw_joint,left_elbow_joint,left_wrist_roll_joint,left_wrist_pitch_joint,left_wrist_yaw_joint,right_shoulder_pitch_joint,right_shoulder_roll_joint,right_shoulder_yaw_joint,right_elbow_joint,right_wrist_roll_joint,right_wrist_pitch_joint,right_wrist_yaw_joint
0.0,0.0833,0.1878,-0.7926,1.2365,0.0000,0.0000,0.0000,0.2527,-0.3789,-0.1955,1.1853,0.0000,0.0000,0.0000
0.1,0.1273,0.1881,-0.8192,1.2172,0.0000,0.0000,0.0000,0.2357,-0.3318,-0.0063,1.1924,0.0000,0.0000,0.0000
0.2,0.1501,0.1820,-0.8184,1.1912,0.0000,0.0000,0.0000,0.2191,-0.2914,0.1504,1.1972,0.0000,0.0000,0.0000
0.3,0.1627,0.1740,-0.8139,1.1701,0.0000,0.0000,0.0000,0.2107,-0.2554,0.3074,1.2019,0.0000,0.0000,0.0000
0.4,0.1114,0.2114,-0.3296,1.1614,0.0000,0.0000,0.0000,0.2300,-0.2455,-0.6994,1.2388,0.0000,0.0000,0.0000
0.5,0.0564,0.2465,0.0713,1.1515,0.0000,0.0000,0.0000,0.2401,-0.2535,-1.4042,1.2365,0.0000,0.0000,0.0000
0.6,0.0465,0.2680,-1.1554,1.1757,0.0000,0.0000,0.0000,0.2462,-0.2737,-1.8975,1.2345,0.0000,0.0000,0.0000
0.7,0.0242,0.2832,-0.4433,1.1908,0.0000,0.0000,0.0000,0.2504,-0.2946,-2.2429,1.2410,0.0000,0.0000,0.0000
0.8,0.0004,0.2963,-0.0153,1.1931,0.0000,0.0000,0.0000,0.2617,-0.3158,-2.4846,1.2601,0.0000,0.0000,0.0000
0.9,-0.0147,0.3041,0.2810,1.1922,0.0000,0.0000,0.0000,0.2797,-0.3336,-2.6538,1.2791,0.0000,0.0000,0.0000
1.0,-0.0249,0.3064,0.4583,1.1945,0.0000,0.0000,0.0000,0.2856,-0.3491,-2.7723,1.2951,0.0000,0.0000,0.0000
1.1,-0.0157,0.3086,0.6452,1.2031,0.0000,0.0000,0.0000,0.2874,-0.3617,-2.8552,1.3107,0.0000,0.0000,0.0000
1.2,-0.0075,0.3107,0.7190,1.2001,0.0000,0.0000,0.0000,0.2883,-0.3732,-2.9132,1.3243,0.0000,0.0000,0.0000
1.3,-0.0037,0.3099,0.7484,1.1954,0.0000,0.0000,0.0000,0.2893,-0.3809,-2.9538,1.3320,0.0000,0.0000,0.0000
1.4,0.0019,0.3081,0.7923,1.1975,0.0000,0.0000,0.0000,0.2904,-0.3862,-2.9823,1.3379,0.0000,0.0000,0.0000
1.5,0.0089,0.3073,0.8271,1.1984,0.0000,0.0000,0.0000,0.2909,-0.3909,-3.0022,1.3449,0.0000,0.0000,0.0000
1.6,0.0165,0.3047,0.8493,1.2017,0.0000,0.0000,0.0000,0.2892,-0.3940,-3.0161,1.3512,0.0000,0.0000,0.0000
1.7,0.0235,0.3017,0.8688,1.2055,0.0000,0.0000,0.0000,0.2917,-0.3948,-3.0259,1.3562,0.0000,0.0000,0.0000
1.8,0.0362,0.2981,0.8841,1.2112,0.0000,0.0000,0.0000,0.2907,-0.3951,-3.0327,1.3613,0.0000,0.0000,0.0000
1.9,0.0452,0.2953,0.9026,1.2157,0.0000,0.0000,0.0000,0.2905,-0.3952,-3.0375,1.3644,0.0000,0.0000,0.0000
2.0,0.0557,0.2933,0.9604,1.2228,0.0000,0.0000,0.0000,0.2905,-0.3964,-3.0408,1.3683,0.0000,0.0000,0.0000
2.1,0.0621,0.2914,0.9803,1.2245,0.0000,0.0000,0.0000,0.2931,-0.3976,-3.0432,1.3703,0.0000,0.0000,0.0000
2.2,0.0669,0.2887,1.0075,1.2259,0.0000,0.0000,0.0000,0.2967,-0.3982,-3.0448,1.3703,0.0000,0.0000,0.0000
2.3,0.0735,0.2830,1.0167,1.2316,0.0000,0.0000,0.0000,0.3001,-0.3984,-3.0460,1.3668,0.0000,0.0000,0.0000
2.4,0.0835,0.2772,1.0366,1.2375,0.0000,0.0000,0.0000,0.3032,-0.3980,-3.0468,1.3634,0.0000,0.0000,0.0000
2.5,0.0940,0.2720,1.0311,1.2413,0.0000,0.0000,0.0000,0.3061,-0.3979,-3.0473,1.3602,0.0000,0.0000,0.0000
2.6,0.0963,0.2654,0.9890,1.2452,0.0000,0.0000,0.0000,0.3063,-0.4005,-3.0477,1.3615,0.0000,0.0000,0.0000
2.7,0.0856,0.2602,0.9404,1.2462,0.0000,0.0000,0.0000,0.2997,-0.4045,-3.0480,1.3643,0.0000,0.0000,0.0000
2.8,0.0816,0.2550,0.8887,1.2453,0.0000,0.0000,0.0000,0.2953,-0.4114,-3.0482,1.3664,0.0000,0.0000,0.0000
2.9,0.0788,0.2484,0.8427,1.2458,0.0000,0.0000,0.0000,0.2926,-0.4230,-3.0483,1.3695,0.0000,0.0000,0.0000
3.0,0.0755,0.2398,0.7952,1.2505,0.0000,0.0000,0.0000,0.2932,-0.4374,-3.0165,1.3551,0.0000,0.0000,0.0000
3.1,0.0627,0.2317,0.7295,1.2527,0.0000,0.0000,0.0000,0.2827,-0.4618,-3.0142,1.3150,0.0000,0.0000,0.0000
3.2,0.0557,0.2248,0.6795,1.2622,0.0000,0.0000,0.0000,0.2501,-0.5079,-2.9046,1.2249,0.0000,0.0000,0.0000
3.3,0.0439,0.2193,0.5462,1.2843,0.0000,0.0000,0.0000,0.1148,-0.5539,-2.7472,1.1393,0.0000,0.0000,0.0000
3.4,0.0406,0.2161,0.1810,1.3112,0.0000,0.0000,0.0000,-0.0425,-0.6132,-2.6125,1.0475,0.0000,0.0000,0.0000
3.5,0.0391,0.2113,-0.6125,1.3138,0.0000,0.0000,0.0000,-0.1898,-0.6826,-2.5023,0.8976,0.0000,0.0000,0.0000
3.6,0.0460,0.2095,-1.1143,1.3142,0.0000,0.0000,0.0000,-0.3470,-0.7929,-2.4166,0.7865,0.0000,0.0000,0.0000
3.7,0.0515,0.2084,-1.3472,1.3213,0.0000,0.0000,0.0000,-0.5571,-1.0675,-2.3215,0.7387,0.0000,0.0000,0.0000
3.8,0.0608,0.2134,-1.3392,1.3341,0.0000,0.0000,0.0000,-0.8264,-1.4974,-2.2288,0.7807,0.0000,0.0000,0.0000
3.9,0.0682,0.2241,-1.3118,1.3475,0.0000,0.0000,0.0000,-1.0783,-1.7983,-2.1840,0.8301,0.0000,0.0000,0.0000
4.0,0.0933,0.2448,-0.7890,1.3382,0.0000,0.0000,0.0000,-1.3131,-2.0090,-2.1581,0.8149,0.0000,0.0000,0.0000
4.1,0.1251,0.2697,-0.2886,1.3213,0.0000,0.0000,0.0000,-1.5556,-2.1564,-2.1134,0.8410,0.0000,0.0000,0.0000
4.2,0.1688,0.2926,-1.4073,1.3186,0.0000,0.0000,0.0000,-1.6706,-2.2596,-2.1104,0.8120,0.0000,0.0000,0.0000
4.3,0.1960,0.3080,-2.1904,1.3108,0.0000,0.0000,0.0000,-1.8168,-2.3319,-2.0829,0.8441,0.0000,0.0000,0.0000
4.4,0.2009,0.3228,-1.1678,1.2932,0.0000,0.0000,0.0000,-1.9439,-2.3824,-2.0343,0.8617,0.0000,0.0000,0.0000
4.5,0.2027,0.3388,-0.4749,1.2655,0.0000,0.0000,0.0000,-2.0333,-2.4178,-1.9972,0.8784,0.0000,0.0000,0.0000
4.6,0.2050,0.3519,-0.0094,1.2404,0.0000,0.0000,0.0000,-2.0839,-2.4426,-1.9507,0.9085,0.0000,0.0000,0.0000
4.7,0.2104,0.3610,0.3125,1.2225,0.0000,0.0000,0.0000,-2.1168,-2.4600,-1.9285,0.9018,0.0000,0.0000,0.0000
4.8,0.2013,0.3655,0.4830,1.2010,0.0000,0.0000,0.0000,-2.1437,-2.4721,-1.9120,0.8898,0.0000,0.0000,0.0000
4.9,0.1756,0.3626,0.5691,1.1819,0.0000,0.0000,0.0000,-2.1644,-2.4806,-1.8947,0.8835,0.0000,0.0000,0.0000
5.0,0.1467,0.3566,0.6284,1.1733,0.0000,0.0000,0.0000,-2.1828,-2.4866,-1.8992,0.8884,0.0000,0.0000,0.0000
5.1,0.1246,0.3522,0.6799,1.1704,0.0000,0.0000,0.0000,-2.2181,-2.4907,-1.9040,0.9043,0.0000,0.0000,0.0000
5.2,0.0962,0.3497,0.6856,1.1576,0.0000,0.0000,0.0000,-2.2399,-2.4936,-1.9053,0.9118,0.0000,0.0000,0.0000
5.3,0.0758,0.3476,0.6939,1.1498,0.0000,0.0000,0.0000,-2.2480,-2.4957,-1.9073,0.9142,0.0000,0.0000,0.0000
5.4,0.0644,0.3463,0.7030,1.1428,0.0000,0.0000,0.0000,-2.2558,-2.4971,-1.9116,0.9149,0.0000,0.0000,0.0000
5.5,0.0592,0.3448,0.7127,1.1393,0.0000,0.0000,0.0000,-2.2445,-2.4981,-1.9206,0.9147,0.0000,0.0000,0.0000
5.6,0.0590,0.3438,0.7228,1.1361,0.0000,0.0000,0.0000,-2.2380,-2.4988,-1.9495,0.9217,0.0000,0.0000,0.0000
5.7,0.0618,0.3431,0.7318,1.1334,0.0000,0.0000,0.0000,-2.2419,-2.4993,-1.9585,0.9262,0.0000,0.0000,0.0000
5.8,0.0769,0.3426,0.7468,1.1367,0.0000,0.0000,0.0000,-2.1827,-2.4996,-1.9732,0.9130,0.0000,0.0000,0.0000
5.9,0.1072,0.3412,0.7849,1.1577,0.0000,0.0000,0.0000,-2.0533,-2.4999,-1.9870,0.8632,0.0000,0.0000,0.0000
6.0,0.1266,0.3375,0.8557,1.1898,0.0000,0.0000,0.0000,-1.7784,-2.3266,-2.0427,0.7376,0.0000,0.0000,0.0000
6.1,0.1054,0.3205,0.8056,1.2194,0.0000,0.0000,0.0000,-1.4366,-1.8921,-2.0851,0.6497,0.0000,0.0000,0.0000
6.2,0.0901,0.3038,0.9294,1.2713,0.0000,0.0000,0.0000,-1.1404,-1.5141,-2.0959,0.6317,0.0000,0.0000,0.0000
6.3,0.0808,0.2877,-0.2729,1.2739,0.0000,0.0000,0.0000,-0.8699,-1.2856,-2.0873,0.5756,0.0000,0.0000,0.0000
6.4,0.0731,0.2787,0.1744,1.2900,0.0000,0.0000,0.0000,-0.5194,-1.1606,-2.3757,0.8142,0.0000,0.0000,0.0000
6.5,0.0661,0.2729,0.4542,1.2945,0.0000,0.0000,0.0000,-0.2775,-1.0052,-2.4712,0.9873,0.0000,0.0000,0.0000
6.6,0.0643,0.2722,0.6227,1.2821,0.0000,0.0000,0.0000,-0.0736,-0.8721,-2.4124,1.0810,0.0000,0.0000,0.0000
6.7,0.0628,0.2716,0.7585,1.2706,0.0000,0.0000,0.0000,0.0720,-0.7741,-2.3636,1.1563,0.0000,0.0000,0.0000
6.8,0.0759,0.2731,0.8843,1.2619,0.0000,0.0000,0.0000,0.1576,-0.6909,-2.5062,1.2251,0.0000,0.0000,0.0000
6.9,0.0882,0.2747,0.9845,1.2557,0.0000,0.0000,0.0000,0.2046,-0.6290,-2.6321,1.2804,0.0000,0.0000,0.0000
7.0,0.1141,0.2729,1.0546,1.2573,0.0000,0.0000,0.0000,0.2555,-0.5781,-2.7390,1.3153,0.0000,0.0000,0.0000
7.1,0.1226,0.2724,1.1037,1.2534,0.0000,0.0000,0.0000,0.2824,-0.5359,-2.8319,1.3369,0.0000,0.0000,0.0000
7.2,0.1294,0.2674,1.1381,1.2563,0.0000,0.0000,0.0000,0.3074,-0.5041,-2.8696,1.3461,0.0000,0.0000,0.0000
7.3,0.1300,0.2619,1.1331,1.2561,0.0000,0.0000,0.0000,0.3145,-0.4797,-2.9233,1.3568,0.0000,0.0000,0.0000
7.4,0.1224,0.2577,1.1284,1.2546,0.0000,0.0000,0.0000,0.3221,-0.4615,-2.9609,1.3630,0.0000,0.0000,0.0000
7.5,0.1122,0.2537,1.1042,1.2533,0.0000,0.0000,0.0000,0.3264,-0.4484,-2.9872,1.3665,0.0000,0.0000,0.0000
7.6,0.1021,0.2501,1.0531,1.2524,0.0000,0.0000,0.0000,0.3291,-0.4396,-3.0057,1.3678,0.0000,0.0000,0.0000
7.7,0.0980,0.2547,1.0578,1.2504,0.0000,0.0000,0.0000,0.3341,-0.4338,-2.9927,1.3658,0.0000,0.0000,0.0000
7.8,0.0992,0.2754,1.0569,1.2587,0.0000,0.0000,0.0000,0.3405,-0.4302,-2.9410,1.3571,0.0000,0.0000,0.0000
7.9,0.1015,0.3094,1.0002,1.2723,0.0000,0.0000,0.0000,0.3504,-0.4274,-2.9136,1.3472,0.0000,0.0000,0.0000
8.0,0.0914,0.3945,0.8576,1.2721,0.0000,0.0000,0.0000,0.3591,-0.4254,-2.9026,1.3346,0.0000,0.0000,0.0000
8.1,0.0029,0.4792,-0.2519,1.2353,0.0000,0.0000,0.0000,0.3661,-0.4262,-2.8775,1.3177,0.0000,0.0000,0.0000
8.2,-0.2760,0.6105,-1.0934,1.1454,0.0000,0.0000,0.0000,0.3693,-0.4252,-2.8359,1.2948,0.0000,0.0000,0.0000
8.3,-0.5720,0.7936,-1.6466,0.9926,0.0000,0.0000,0.0000,0.3662,-0.4236,-2.8690,1.2891,0.0000,0.0000,0.0000
8.4,-0.8914,1.0284,-2.0553,0.8537,0.0000,0.0000,0.0000,0.3614,-0.4222,-2.8286,1.2753,0.0000,0.0000,0.0000
8.5,-1.3139,1.3537,-2.4751,0.8511,0.0000,0.0000,0.0000,0.3571,-0.4195,-2.8182,1.2691,0.0000,0.0000,0.0000
8.6,-1.7219,1.6052,-2.7795,0.8735,0.0000,0.0000,0.0000,0.3496,-0.4224,-2.8670,1.2828,0.0000,0.0000,0.0000
8.7,-2.0412,1.7813,-2.9666,0.8818,0.0000,0.0000,0.0000,0.3385,-0.4230,-2.9215,1.2987,0.0000,0.0000,0.0000
8.8,-2.2833,1.9045,-3.1400,0.8947,0.0000,0.0000,0.0000,0.3281,-0.4255,-2.9596,1.3116,0.0000,0.0000,0.0000
8.9,-2.4612,1.9908,-3.2630,0.8940,0.0000,0.0000,0.0000,0.3100,-0.4272,-2.9863,1.3206,0.0000,0.0000,0.0000
9.0,-2.5942,2.0511,-3.3415,0.8994,0.0000,0.0000,0.0000,0.2970,-0.4301,-3.0050,1.3224,0.0000,0.0000,0.0000
9.1,-2.6937,2.0934,-3.3863,0.8955,0.0000,0.0000,0.0000,0.2908,-0.4307,-3.0181,1.3143,0.0000,0.0000,0.0000
9.2,-2.7591,2.1230,-3.3988,0.8943,0.0000,0.0000,0.0000,0.2871,-0.4301,-3.0273,1.3056,0.0000,0.0000,0.0000
9.3,-2.8046,2.1437,-3.4060,0.8993,0.0000,0.0000,0.0000,0.2832,-0.4313,-3.0337,1.2992,0.0000,0.0000,0.0000
9.4,-2.8318,2.1582,-3.4255,0.8861,0.0000,0.0000,0.0000,0.2721,-0.4333,-3.0382,1.2938,0.0000,0.0000,0.0000
9.5,-2.8545,2.1684,-3.4456,0.8745,0.0000,0.0000,0.0000,0.2627,-0.4361,-3.0413,1.2898,0.0000,0.0000,0.0000
9.6,-2.8731,2.1755,-3.4466,0.8674,0.0000,0.0000,0.0000,0.2571,-0.4389,-3.0435,1.2872,0.0000,0.0000,0.0000
9.7,-2.8865,2.1804,-3.4402,0.8619,0.0000,0.0000,0.0000,0.2502,-0.4404,-3.0450,1.2860,0.0000,0.0000,0.0000
9.8,-2.8962,2.1839,-3.4303,0.8566,0.0000,0.0000,0.0000,0.2423,-0.4394,-3.0461,1.2837,0.0000,0.0000,0.0000
9.9,-2.8976,2.1864,-3.4321,0.8687,0.0000,0.0000,0.0000,0.2343,-0.4377,-3.0469,1.2812,0.0000,0.0000,0.0000
10.0,-2.8964,2.1881,-3.4240,0.8803,0.0000,0.0000,0.0000,0.2255,-0.4369,-3.0474,1.2843,0.0000,0.0000,0.0000
10.1,-2.8939,2.1893,-3.4180,0.8895,0.0000,0.0000,0.0000,0.2189,-0.4371,-3.0478,1.2961,0.0000,0.0000,0.0000
10.2,-2.9012,2.1901,-3.4068,0.8915,0.0000,0.0000,0.0000,0.2190,-0.4389,-1.4772,1.3075,0.0000,0.0000,0.0000
10.3,-2.8910,2.1907,-3.3913,0.8477,0.0000,0.0000,0.0000,0.2290,-0.4463,-0.3779,1.3246,0.0000,0.0000,0.0000
10.4,-2.5896,2.0639,-3.4923,0.7675,0.0000,0.0000,0.0000,0.2267,-0.4476,-1.1791,1.3307,0.0000,0.0000,0.0000
10.5,-2.0898,1.7129,-3.4366,0.7229,0.0000,0.0000,0.0000,0.2336,-0.4425,-1.7400,1.3284,0.0000,0.0000,0.0000
10.6,-1.6373,1.4230,-3.4395,0.6422,0.0000,0.0000,0.0000,0.2475,-0.4363,-2.0915,1.3205,0.0000,0.0000,0.0000
10.7,-1.1531,1.2156,-2.1532,0.7045,0.0000,0.0000,0.0000,0.2555,-0.4307,-2.3786,1.3288,0.0000,0.0000,0.0000
10.8,-0.8155,1.0167,-1.2346,0.7980,0.0000,0.0000,0.0000,0.2674,-0.4258,-2.5796,1.3349,0.0000,0.0000,0.0000
10.9,-0.5251,0.8529,-0.4987,0.9038,0.0000,0.0000,0.0000,0.2894,-0.4214,-2.7203,1.3421,0.0000,0.0000,0.0000
11.0,-0.3199,0.7335,0.0164,0.9719,0.0000,0.0000,0.0000,0.3041,-0.4176,-2.8011,1.3450,0.0000,0.0000,0.0000
11.1,-0.1650,0.6443,-1.1939,1.0200,0.0000,0.0000,0.0000,0.3158,-0.4138,-2.8753,1.3473,0.0000,0.0000,0.0000
11.2,-0.0527,0.5779,-0.4702,1.0566,0.0000,0.0000,0.0000,0.3204,-0.4103,-2.9273,1.3519,0.0000,0.0000,0.0000
11.3,0.0074,0.5211,0.0363,1.0870,0.0000,0.0000,0.0000,0.3229,-0.4079,-2.9637,1.3554,0.0000,0.0000,0.0000
11.4,0.0580,0.4762,0.3909,1.1205,0.0000,0.0000,0.0000,0.3242,-0.4061,-2.9892,1.3584,0.0000,0.0000,0.0000
11.5,0.0864,0.4395,0.6391,1.1483,0.0000,0.0000,0.0000,0.3237,-0.4050,-3.0070,1.3614,0.0000,0.0000,0.0000
11.6,0.1010,0.4030,0.7491,1.1767,0.0000,0.0000,0.0000,0.3203,-0.4040,-3.0195,1.3672,0.0000,0.0000,0.0000
11.7,0.1074,0.3733,0.7940,1.1999,0.0000,0.0000,0.0000,0.3170,-0.4039,-3.0282,1.3746,0.0000,0.0000,0.0000
11.8,0.1288,0.3474,0.8159,1.2205,0.0000,0.0000,0.0000,0.3248,-0.4049,-3.0344,1.3817,0.0000,0.0000,0.0000
11.9,0.1450,0.3265,0.8392,1.2395,0.0000,0.0000,0.0000,0.3306,-0.4066,-3.0386,1.3899,0.0000,0.0000,0.0000
12.0,0.1491,0.3124,0.8999,1.2568,0.0000,0.0000,0.0000,0.3289,-0.4085,-3.0416,1.3892,0.0000,0.0000,0.0000
12.1,0.1346,0.3054,0.9864,1.2714,0.0000,0.0000,0.0000,0.3246,-0.4134,-3.0437,1.3713,0.0000,0.0000,0.0000
12.2,0.1134,0.2989,0.9282,1.2727,0.0000,0.0000,0.0000,0.3150,-0.4268,-3.0452,1.3448,0.0000,0.0000,0.0000
12.3,0.0904,0.2946,0.8391,1.2652,0.0000,0.0000,0.0000,0.3014,-0.4572,-3.0462,1.2901,0.0000,0.0000,0.0000
12.4,0.0581,0.2896,0.7572,1.2664,0.0000,0.0000,0.0000,0.2910,-0.5052,-3.0470,1.2396,0.0000,0.0000,0.0000
12.5,0.0238,0.2859,0.6538,1.2509,0.0000,0.0000,0.0000,0.2820,-0.5654,-3.0475,1.1737,0.0000,0.0000,0.0000
12.6,0.0134,0.2823,0.5969,1.2614,0.0000,0.0000,0.0000,0.2559,-0.6380,-3.0478,1.0976,0.0000,0.0000,0.0000
12.7,0.0430,0.2811,0.6805,1.2885,0.0000,0.0000,0.0000,0.2374,-0.7183,-3.0481,1.0250,0.0000,0.0000,0.0000
12.8,0.0589,0.2794,0.6931,1.3030,0.0000,0.0000,0.0000,0.2105,-0.8081,-3.0482,0.9913,0.0000,0.0000,0.0000
12.9,0.0712,0.2770,0.7343,1.3163,0.0000,0.0000,0.0000,0.1612,-0.8942,-3.0484,0.9748,0.0000,0.0000,0.0000
13.0,0.0826,0.2794,0.8573,1.3239,0.0000,0.0000,0.0000,0.0969,-0.9885,-3.0324,0.9586,0.0000,0.0000,0.0000
13.1,0.0906,0.2849,0.9438,1.3234,0.0000,0.0000,0.0000,0.0409,-1.0663,-3.0071,0.9539,0.0000,0.0000,0.0000
13.2,0.1007,0.2907,1.0262,1.3255,0.0000,0.0000,0.0000,-0.0244,-1.1410,-2.9720,0.9589,0.0000,0.0000,0.0000
13.3,0.1195,0.2965,-0.4870,1.3269,0.0000,0.0000,0.0000,-0.0869,-1.2021,-2.9311,0.9619,0.0000,0.0000,0.0000
13.4,0.1291,0.3016,-1.5462,1.3256,0.0000,0.0000,0.0000,-0.1462,-1.2575,-2.9055,0.9740,0.0000,0.0000,0.0000
13.5,0.1344,0.3051,-2.2877,1.3243,0.0000,0.0000,0.0000,-0.1851,-1.2941,-2.8953,0.9815,0.0000,0.0000,0.0000
13.6,0.1394,0.3077,-2.8067,1.3235,0.0000,0.0000,0.0000,-0.2074,-1.3176,-2.8938,0.9843,0.0000,0.0000,0.0000
13.7,0.1459,0.3098,-1.5992,1.3229,0.0000,0.0000,0.0000,-0.2128,-1.3268,-2.9020,0.9890,0.0000,0.0000,0.0000
13.8,0.1519,0.3104,-0.7540,1.3247,0.0000,0.0000,0.0000,-0.2039,-1.3250,-2.9163,0.9913,0.0000,0.0000,0.0000
13.9,0.1604,0.3111,-0.1623,1.3248,0.0000,0.0000,0.0000,-0.1706,-1.3136,-2.9284,0.9718,0.0000,0.0000,0.0000
14.0,0.1574,0.3103,0.2519,1.3258,0.0000,0.0000,0.0000,-0.1249,-1.2829,-2.9514,0.9601,0.0000,0.0000,0.0000
14.1,0.1510,0.3050,0.5009,1.3292,0.0000,0.0000,0.0000,-0.0558,-1.2285,-2.9806,0.9544,0.0000,0.0000,0.0000
14.2,0.1625,0.3012,0.7161,1.3360,0.0000,0.0000,0.0000,0.0179,-1.1579,-3.0010,0.9465,0.0000,0.0000,0.0000
14.3,0.1609,0.2995,0.6722,1.3262,0.0000,0.0000,0.0000,0.0699,-1.0884,-3.0153,0.9573,0.0000,0.0000,0.0000
14.4,0.1575,0.2984,0.6040,1.3117,0.0000,0.0000,0.0000,0.1113,-1.0126,-3.0253,0.9906,0.0000,0.0000,0.0000
14.5,0.1430,0.2988,0.5311,1.2964,0.0000,0.0000,0.0000,0.1448,-0.9395,-3.0323,1.0216,0.0000,0.0000,0.0000
14.6,0.1176,0.2991,0.4722,1.2954,0.0000,0.0000,0.0000,0.1761,-0.8603,-3.0372,1.0615,0.0000,0.0000,0.0000
14.7,0.0963,0.2988,0.4346,1.2955,0.0000,0.0000,0.0000,0.1998,-0.7801,-3.0406,1.0947,0.0000,0.0000,0.0000
14.8,0.0799,0.3030,0.4431,1.2903,0.0000,0.0000,0.0000,0.2167,-0.7049,-3.0430,1.1374,0.0000,0.0000,0.0000
14.9,0.0729,0.3091,0.4700,1.2798,0.0000,0.0000,0.0000,0.2340,-0.6369,-3.0447,1.1828,0.0000,0.0000,0.0000
15.0,0.0606,0.3127,0.5020,1.2738,0.0000,0.0000,0.0000,0.2460,-0.5797,-3.0459,1.2177,0.0000,0.0000,0.0000
15.1,0.0531,0.3155,0.5554,1.2705,0.0000,0.0000,0.0000,0.2585,-0.5355,-3.0467,1.2530,0.0000,0.0000,0.0000
15.2,0.0490,0.3182,0.6516,1.2697,0.0000,0.0000,0.0000,0.2720,-0.4978,-3.0473,1.2825,0.0000,0.0000,0.0000
15.3,0.0466,0.3196,0.7273,1.2691,0.0000,0.0000,0.0000,0.2837,-0.4722,-3.0477,1.3048,0.0000,0.0000,0.0000
15.4,0.0429,0.3201,0.7986,1.2718,0.0000,0.0000,0.0000,0.2933,-0.4523,-3.0480,1.3179,0.0000,0.0000,0.0000
15.5,0.0414,0.3210,0.8438,1.2750,0.0000,0.0000,0.0000,0.3030,-0.4379,-3.0482,1.3187,0.0000,0.0000,0.0000
15.6,0.0414,0.3232,0.8318,1.2813,0.0000,0.0000,0.0000,0.3110,-0.4286,-3.0483,1.3176,0.0000,0.0000,0.0000
15.7,0.0405,0.3317,0.6657,1.2918,0.0000,0.0000,0.0000,0.3177,-0.4219,-3.0484,1.3127,0.0000,0.0000,0.0000
15.8,0.0403,0.3504,0.3868,1.2954,0.0000,0.0000,0.0000,0.3220,-0.4159,-3.0485,1.3063,0.0000,0.0000,0.0000
15.9,0.0377,0.4018,0.1079,1.2941,0.0000,0.0000,0.0000,0.3245,-0.4132,-3.0485,1.3013,0.0000,0.0000,0.0000
16.0,0.0487,0.5067,0.0680,1.2931,0.0000,0.0000,0.0000,0.3335,-0.4128,-3.0486,1.2993,0.0000,0.0000,0.0000
16.1,0.0863,0.6297,0.1471,1.2992,0.0000,0.0000,0.0000,0.3404,-0.4157,-3.0486,1.2995,0.0000,0.0000,0.0000
16.2,0.1212,0.7739,0.4684,1.2996,0.0000,0.0000,0.0000,0.3456,-0.4245,-3.0486,1.2984,0.0000,0.0000,0.0000
16.3,0.1581,0.9019,0.6934,1.2892,0.0000,0.0000,0.0000,0.3494,-0.4341,-3.0486,1.2967,0.0000,0.0000,0.0000
16.4,0.2354,1.0244,-0.7200,1.2558,0.0000,0.0000,0.0000,0.3475,-0.4451,-3.0486,1.2992,0.0000,0.0000,0.0000
16.5,0.3317,1.1291,-0.1385,1.2336,0.0000,0.0000,0.0000,0.3385,-0.4545,-3.0486,1.3038,0.0000,0.0000,0.0000
16.6,0.4624,1.2126,0.2685,1.2198,0.0000,0.0000,0.0000,0.3186,-0.4622,-3.0139,1.3051,0.0000,0.0000,0.0000
16.7,0.6477,1.2855,0.5534,1.2093,0.0000,0.0000,0.0000,0.3102,-0.4682,-2.9426,1.2987,0.0000,0.0000,0.0000
16.8,0.8531,1.3456,0.7529,1.1964,0.0000,0.0000,0.0000,0.3166,-0.4742,-2.8897,1.2947,0.0000,0.0000,0.0000
16.9,1.0993,1.3981,0.8925,1.1916,0.0000,0.0000,0.0000,0.3236,-0.4790,-2.8541,1.2924,0.0000,0.0000,0.0000
17.0,1.2926,1.4367,0.9902,1.1883,0.0000,0.0000,0.0000,0.3264,-0.4824,-2.8362,1.2922,0.0000,0.0000,0.0000
17.1,1.4437,1.4639,1.0586,1.1837,0.0000,0.0000,0.0000,0.3283,-0.4849,-2.8042,1.2884,0.0000,0.0000,0.0000
17.2,1.6164,1.4872,1.1065,1.1771,0.0000,0.0000,0.0000,0.3320,-0.4866,-2.7825,1.2858,0.0000,0.0000,0.0000
17.3,1.7113,1.5015,1.1400,1.1711,0.0000,0.0000,0.0000,0.3349,-0.4878,-2.7806,1.2868,0.0000,0.0000,0.0000
17.4,1.7182,1.5072,1.1635,1.1647,0.0000,0.0000,0.0000,0.3376,-0.4887,-2.7785,1.2869,0.0000,0.0000,0.0000
17.5,1.6657,1.5077,1.1799,1.1607,0.0000,0.0000,0.0000,0.3381,-0.4893,-2.7836,1.2880,0.0000,0.0000,0.0000
17.6,1.6214,1.5074,1.1914,1.1684,0.0000,0.0000,0.0000,0.3259,-0.4893,-2.7995,1.2916,0.0000,0.0000,0.0000
17.7,1.4075,1.4879,1.1995,1.1724,0.0000,0.0000,0.0000,0.3165,-0.4900,-2.8262,1.2977,0.0000,0.0000,0.0000
17.8,1.1569,1.4528,1.2051,1.1724,0.0000,0.0000,0.0000,0.3129,-0.4913,-2.8430,1.3029,0.0000,0.0000,0.0000
17.9,0.9264,1.4046,-0.3618,1.1707,0.0000,0.0000,0.0000,0.3128,-0.4927,-2.8693,1.3078,0.0000,0.0000,0.0000
18.0,0.6869,1.3396,-1.4586,1.1701,0.0000,0.0000,0.0000,0.3151,-0.4946,-2.9112,1.3131,0.0000,0.0000,0.0000
18.1,0.4995,1.2529,-0.9661,1.1688,0.0000,0.0000,0.0000,0.3251,-0.4970,-2.9066,1.3141,0.0000,0.0000,0.0000
18.2,0.3584,1.1675,-0.6372,1.1802,0.0000,0.0000,0.0000,0.3350,-0.4964,-2.9151,1.3139,0.0000,0.0000,0.0000
18.3,0.2605,1.0759,-0.3574,1.1862,0.0000,0.0000,0.0000,0.3426,-0.4939,-2.9551,1.3181,0.0000,0.0000,0.0000
18.4,0.1806,0.9683,-0.1782,1.2149,0.0000,0.0000,0.0000,0.3471,-0.4873,-2.9832,1.3202,0.0000,0.0000,0.0000
18.5,0.1170,0.8631,-0.1519,1.2405,0.0000,0.0000,0.0000,0.3465,-0.4791,-3.0028,1.3246,0.0000,0.0000,0.0000
18.6,0.0664,0.7641,-0.1532,1.2573,0.0000,0.0000,0.0000,0.3463,-0.4678,-3.0166,1.3223,0.0000,0.0000,0.0000
18.7,0.0357,0.6717,-0.1660,1.2554,0.0000,0.0000,0.0000,0.3462,-0.4572,-3.0262,1.3207,0.0000,0.0000,0.0000
18.8,0.0116,0.5978,-0.0726,1.2480,0.0000,0.0000,0.0000,0.3460,-0.4475,-3.0329,1.3190,0.0000,0.0000,0.0000
18.9,-0.0096,0.5359,0.0246,1.2411,0.0000,0.0000,0.0000,0.3401,-0.4406,-3.0376,1.3204,0.0000,0.0000,0.0000
19.0,-0.0184,0.4892,0.1508,1.2439,0.0000,0.0000,0.0000,0.3362,-0.4358,-3.0409,1.3201,0.0000,0.0000,0.0000
19.1,-0.0213,0.4501,0.3263,1.2481,0.0000,0.0000,0.0000,0.3340,-0.4329,-3.0432,1.3185,0.0000,0.0000,0.0000
19.2,-0.0233,0.4201,0.4308,1.2529,0.0000,0.0000,0.0000,0.3306,-0.4313,-3.0449,1.3173,0.0000,0.0000,0.0000
19.3,-0.0227,0.3990,0.5248,1.2642,0.0000,0.0000,0.0000,0.3268,-0.4307,-3.0460,1.3163,0.0000,0.0000,0.0000
19.4,-0.0217,0.3818,0.5809,1.2748,0.0000,0.0000,0.0000,0.3226,-0.4306,-3.0468,1.3156,0.0000,0.0000,0.0000
19.5,-0.0196,0.3697,0.6731,1.2816,0.0000,0.0000,0.0000,0.3190,-0.4307,-3.0473,1.3148,0.0000,0.0000,0.0000
19.6,-0.0166,0.3615,0.7300,1.2874,0.0000,0.0000,0.0000,0.3169,-0.4306,-3.0477,1.3133,0.0000,0.0000,0.0000
19.7,-0.0078,0.3569,0.7174,1.2858,0.0000,0.0000,0.0000,0.3140,-0.4310,-3.0480,1.3102,0.0000,0.0000,0.0000
19.8,-0.0041,0.3509,0.6870,1.2850,0.0000,0.0000,0.0000,0.3081,-0.4336,-3.0482,1.3061,0.0000,0.0000,0.0000
19.9,-0.0019,0.3457,0.6363,1.2861,0.0000,0.0000,0.0000,0.3005,-0.4357,-3.0483,1.3014,0.0000,0.0000,0.0000
20.0,0.0070,0.3414,0.5700,1.2757,0.0000,0.0000,0.0000,0.2982,-0.4373,-3.0484,1.2895,0.0000,0.0000,0.0000
20.1,0.0158,0.3387,0.5230,1.2665,0.0000,0.0000,0.0000,0.2970,-0.4400,-3.0485,1.2760,0.0000,0.0000,0.0000
20.2,0.0207,0.3383,0.5131,1.2595,0.0000,0.0000,0.0000,0.2955,-0.4446,-3.0485,1.2629,0.0000,0.0000,0.0000
20.3,0.0203,0.3389,0.5143,1.2549,0.0000,0.0000,0.0000,0.2924,-0.4495,-3.0486,1.2506,0.0000,0.0000,0.0000
20.4,0.0179,0.3397,0.5304,1.2581,0.0000,0.0000,0.0000,0.2873,-0.4543,-3.0486,1.2402,0.0000,0.0000,0.0000
20.5,0.0163,0.3403,0.5622,1.2664,0.0000,0.0000,0.0000,0.2844,-0.4585,-3.0486,1.2326,0.0000,0.0000,0.0000
20.6,0.0140,0.3409,0.5860,1.2716,0.0000,0.0000,0.0000,0.2869,-0.4620,-3.0486,1.2249,0.0000,0.0000,0.0000
20.7,0.0116,0.3410,0.6174,1.2776,0.0000,0.0000,0.0000,0.2894,-0.4650,-3.0486,1.2188,0.0000,0.0000,0.0000
20.8,0.0087,0.3405,0.6458,1.2839,0.0000,0.0000,0.0000,0.2922,-0.4671,-3.0486,1.2134,0.0000,0.0000,0.0000
20.9,0.0070,0.3403,0.6837,1.2904,0.0000,0.0000,0.0000,0.2948,-0.4686,-3.0486,1.2104,0.0000,0.0000,0.0000
21.0,0.0053,0.3399,0.7126,1.2945,0.0000,0.0000,0.0000,0.2981,-0.4699,-3.0486,1.2090,0.0000,0.0000,0.0000
21.1,0.0035,0.3394,0.7399,1.2986,0.0000,0.0000,0.0000,0.3004,-0.4708,-3.0486,1.2083,0.0000,0.0000,0.0000
21.2,0.0024,0.3396,0.7662,1.3008,0.0000,0.0000,0.0000,0.3020,-0.4718,-3.0486,1.2083,0.0000,0.0000,0.0000
21.3,0.0031,0.3399,0.7772,1.3010,0.0000,0.0000,0.0000,0.3029,-0.4731,-3.0486,1.2085,0.0000,0.0000,0.0000
21.4,0.0028,0.3402,0.7953,1.3013,0.0000,0.0000,0.0000,0.3033,-0.4742,-3.0486,1.2092,0.0000,0.0000,0.0000
21.5,0.0030,0.3405,0.7981,1.2993,0.0000,0.0000,0.0000,0.3030,-0.4750,-3.0486,1.2104,0.0000,0.0000,0.0000
21.6,0.0046,0.3411,0.7928,1.2945,0.0000,0.0000,0.0000,0.3037,-0.4750,-3.0486,1.2143,0.0000,0.0000,0.0000
21.7,0.0061,0.3406,0.7717,1.2914,0.0000,0.0000,0.0000,0.3039,-0.4747,-3.0486,1.2212,0.0000,0.0000,0.0000
21.8,0.0075,0.3396,0.7479,1.2894,0.0000,0.0000,0.0000,0.3035,-0.4741,-3.0486,1.2326,0.0000,0.0000,0.0000
21.9,0.0091,0.3381,0.7206,1.2884,0.0000,0.0000,0.0000,0.3032,-0.4719,-3.0486,1.2451,0.0000,0.0000,0.0000
22.0,0.0140,0.3360,0.6940,1.2895,0.0000,0.0000,0.0000,0.3058,-0.4690,-3.0486,1.2580,0.0000,0.0000,0.0000
22.1,0.0145,0.3334,0.6662,1.2911,0.0000,0.0000,0.0000,0.3106,-0.4665,-3.0486,1.2712,0.0000,0.0000,0.0000
22.2,0.0144,0.3308,0.6456,1.2951,0.0000,0.0000,0.0000,0.3166,-0.4626,-3.0486,1.2836,0.0000,0.0000,0.0000
22.3,0.0138,0.3293,0.6510,1.2995,0.0000,0.0000,0.0000,0.3211,-0.4577,-3.0486,1.2935,0.0000,0.0000,0.0000
22.4,0.0119,0.3286,0.6493,1.3024,0.0000,0.0000,0.0000,0.3242,-0.4528,-3.0486,1.2989,0.0000,0.0000,0.0000
22.5,0.0102,0.3278,0.6471,1.3041,0.0000,0.0000,0.0000,0.3262,-0.4480,-3.0486,1.3033,0.0000,0.0000,0.0000
22.6,0.0079,0.3273,0.6181,1.3073,0.0000,0.0000,0.0000,0.3278,-0.4450,-3.0486,1.3052,0.0000,0.0000,0.0000
22.7,0.0064,0.3273,0.5532,1.3104,0.0000,0.0000,0.0000,0.3288,-0.4430,-3.0486,1.3061,0.0000,0.0000,0.0000
22.8,0.0039,0.3283,0.3446,1.3104,0.0000,0.0000,0.0000,0.3292,-0.4413,-3.0486,1.3060,0.0000,0.0000,0.0000
22.9,-0.0019,0.3288,0.0896,1.3076,0.0000,0.0000,0.0000,0.3294,-0.4403,-3.0486,1.3052,0.0000,0.0000,0.0000
23.0,-0.0092,0.3286,-0.1820,1.2995,0.0000,0.0000,0.0000,0.3294,-0.4397,-3.0486,1.3045,0.0000,0.0000,0.0000
23.1,-0.0146,0.3293,-0.4174,1.2779,0.0000,0.0000,0.0000,0.3296,-0.4395,-3.0486,1.3041,0.0000,0.0000,0.0000
23.2,-0.0181,0.3297,-0.5895,1.2542,0.0000,0.0000,0.0000,0.3310,-0.4398,-3.0486,1.3035,0.0000,0.0000,0.0000
23.3,-0.0202,0.3301,-0.7125,1.2312,0.0000,0.0000,0.0000,0.3322,-0.4405,-3.0486,1.3025,0.0000,0.0000,0.0000
23.4,-0.0203,0.3309,-0.7834,1.2090,0.0000,0.0000,0.0000,0.3346,-0.4417,-3.0486,1.3016,0.0000,0.0000,0.0000
23.5,-0.0194,0.3316,-0.8242,1.1914,0.0000,0.0000,0.0000,0.3367,-0.4434,-3.0486,1.3015,0.0000,0.0000,0.0000
23.6,-0.0179,0.3308,-0.8438,1.1754,0.0000,0.0000,0.0000,0.3382,-0.4449,-3.0486,1.3016,0.0000,0.0000,0.0000
23.7,-0.0159,0.3299,-0.8551,1.1644,0.0000,0.0000,0.0000,0.3399,-0.4461,-3.0486,1.3014,0.0000,0.0000,0.0000
23.8,-0.0133,0.3290,-0.8675,1.1573,0.0000,0.0000,0.0000,0.3419,-0.4475,-3.0486,1.3015,0.0000,0.0000,0.0000
23.9,-0.0104,0.3280,-0.8779,1.1517,0.0000,0.0000,0.0000,0.3445,-0.4486,-3.0486,1.3006,0.0000,0.0000,0.0000
24.0,-0.0090,0.3268,-0.8939,1.1484,0.0000,0.0000,0.0000,0.3459,-0.4497,-3.0486,1.3003,0.0000,0.0000,0.0000
24.1,-0.0084,0.3267,-0.9028,1.1467,0.0000,0.0000,0.0000,0.3466,-0.4506,-3.0486,1.2988,0.0000,0.0000,0.0000
24.2,-0.0076,0.3264,-0.9121,1.1461,0.0000,0.0000,0.0000,0.3457,-0.4515,-3.0486,1.2980,0.0000,0.0000,0.0000
24.3,-0.0160,0.3265,-0.9310,1.1471,0.0000,0.0000,0.0000,0.3458,-0.4522,-3.0486,1.2972,0.0000,0.0000,0.0000
24.4,-0.0272,0.3271,-0.9503,1.1491,0.0000,0.0000,0.0000,0.3453,-0.4529,-3.0486,1.2968,0.0000,0.0000,0.0000
24.5,-0.0360,0.3280,-0.9617,1.1516,0.0000,0.0000,0.0000,0.3458,-0.4535,-3.0486,1.2968,0.0000,0.0000,0.0000
24.6,-0.0407,0.3298,-0.9618,1.1562,0.0000,0.0000,0.0000,0.3494,-0.4535,-3.0486,1.2958,0.0000,0.0000,0.0000
24.7,-0.0431,0.3321,-0.9474,1.1632,0.0000,0.0000,0.0000,0.3524,-0.4532,-3.0486,1.2957,0.0000,0.0000,0.0000
24.8,-0.0292,0.3340,-0.8840,1.1819,0.0000,0.0000,0.0000,0.3533,-0.4527,-3.0486,1.2961,0.0000,0.0000,0.0000
24.9,-0.0127,0.3363,-0.7738,1.2036,0.0000,0.0000,0.0000,0.3514,-0.4526,-3.0486,1.2979,0.0000,0.0000,0.0000
25.0,0.0056,0.3387,-0.6017,1.2359,0.0000,0.0000,0.0000,0.3510,-0.4520,-3.0486,1.2997,0.0000,0.0000,0.0000
25.1,0.0183,0.3401,-0.2966,1.2611,0.0000,0.0000,0.0000,0.3512,-0.4509,-3.0486,1.3004,0.0000,0.0000,0.0000
25.2,0.0386,0.3418,0.0417,1.2830,0.0000,0.0000,0.0000,0.3532,-0.4494,-3.0486,1.2980,0.0000,0.0000,0.0000
25.3,0.0512,0.3438,0.3349,1.2910,0.0000,0.0000,0.0000,0.3507,-0.4480,-3.0486,1.2991,0.0000,0.0000,0.0000
25.4,0.0531,0.3448,0.5463,1.2911,0.0000,0.0000,0.0000,0.3501,-0.4464,-3.0486,1.3012,0.0000,0.0000,0.0000
25.5,0.0595,0.3461,0.6929,1.2847,0.0000,0.0000,0.0000,0.3495,-0.4451,-3.0486,1.3020,0.0000,0.0000,0.0000
25.6,0.0620,0.3476,0.8072,1.2783,0.0000,0.0000,0.0000,0.3454,-0.4432,-3.0486,1.3051,0.0000,0.0000,0.0000
25.7,0.0671,0.3488,0.9125,1.2677,0.0000,0.0000,0.0000,0.3436,-0.4418,-3.0486,1.3149,0.0000,0.0000,0.0000
25.8,0.0950,0.3523,1.0042,1.2541,0.0000,0.0000,0.0000,0.3559,-0.4410,-2.8861,1.3288,0.0000,0.0000,0.0000
25.9,0.1113,0.3565,1.0684,1.2351,0.0000,0.0000,0.0000,0.3649,-0.4428,-2.4723,1.3378,0.0000,0.0000,0.0000
26.0,0.0679,0.3796,-0.4574,1.1627,0.0000,0.0000,0.0000,0.3458,-0.4441,-2.1172,1.2847,0.0000,0.0000,0.0000
26.1,0.0074,0.3954,-1.3759,0.9430,0.0000,0.0000,0.0000,0.3246,-0.4440,-1.9007,1.1136,0.0000,0.0000,0.0000
26.2,-0.0655,0.4217,-2.0083,0.7680,0.0000,0.0000,0.0000,0.2900,-0.4467,-1.7561,0.9129,0.0000,0.0000,0.0000
26.3,-0.1915,0.4500,-2.3981,0.6455,0.0000,0.0000,0.0000,0.2114,-0.4365,-1.6878,0.7724,0.0000,0.0000,0.0000
26.4,-0.2947,0.5475,-2.5898,0.5597,0.0000,0.0000,0.0000,0.1163,-0.4228,-1.6530,0.6741,0.0000,0.0000,0.0000
26.5,-0.3792,0.6751,-2.6041,0.4997,0.0000,0.0000,0.0000,-0.0082,-0.3928,-1.6268,0.6052,0.0000,0.0000,0.0000
26.6,-0.4960,0.8065,-2.5914,0.4577,0.0000,0.0000,0.0000,-0.1158,-0.3725,-1.6387,0.5570,0.0000,0.0000,0.0000
26.7,-0.6291,0.9159,-2.6455,0.4283,0.0000,0.0000,0.0000,-0.2231,-0.3707,-1.6535,0.5233,0.0000,0.0000,0.0000
26.8,-0.7670,1.0218,-2.7077,0.4077,0.0000,0.0000,0.0000,-0.3105,-0.3689,-1.6563,0.4997,0.0000,0.0000,0.0000
26.9,-0.9184,1.1107,-2.7962,0.3933,0.0000,0.0000,0.0000,-0.3780,-0.3735,-1.6506,0.4832,0.0000,0.0000,0.0000
27.0,-1.0383,1.1851,-2.8363,0.3832,0.0000,0.0000,0.0000,-0.4289,-0.3839,-1.6474,0.4716,0.0000,0.0000,0.0000
27.1,-1.1296,1.2455,-2.8506,0.3761,0.0000,0.0000,0.0000,-0.4667,-0.3925,-1.6429,0.4635,0.0000,0.0000,0.0000
27.2,-1.1717,1.2632,-2.8769,0.3712,0.0000,0.0000,0.0000,-0.4814,-0.3928,-1.6333,0.4578,0.0000,0.0000,0.0000
27.3,-1.2137,1.2709,-2.9482,0.3677,0.0000,0.0000,0.0000,-0.4947,-0.3955,-1.6262,0.4538,0.0000,0.0000,0.0000
27.4,-1.2485,1.2821,-3.0008,0.3653,0.0000,0.0000,0.0000,-0.5051,-0.3993,-1.6166,0.4511,0.0000,0.0000,0.0000
27.5,-1.2788,1.2907,-3.0507,0.3636,0.0000,0.0000,0.0000,-0.5140,-0.4014,-1.6101,0.4491,0.0000,0.0000,0.0000
27.6,-1.3102,1.3078,-3.0909,0.3624,0.0000,0.0000,0.0000,-0.5209,-0.4042,-1.6033,0.4478,0.0000,0.0000,0.0000
27.7,-1.3353,1.3223,-3.1202,0.3616,0.0000,0.0000,0.0000,-0.5289,-0.4063,-1.5985,0.4468,0.0000,0.0000,0.0000
27.8,-1.3569,1.3365,-3.1428,0.3610,0.0000,0.0000,0.0000,-0.5340,-0.4066,-1.5984,0.4461,0.0000,0.0000,0.0000
27.9,-1.3689,1.3422,-3.1638,0.3606,0.0000,0.0000,0.0000,-0.5359,-0.4053,-1.5998,0.4457,0.0000,0.0000,0.0000
28.0,-1.3735,1.3466,-3.1587,0.3603,0.0000,0.0000,0.0000,-0.5357,-0.4046,-1.6003,0.4453,0.0000,0.0000,0.0000
28.1,-1.3726,1.3484,-3.1493,0.3601,0.0000,0.0000,0.0000,-0.5352,-0.4042,-1.6009,0.4451,0.0000,0.0000,0.0000
28.2,-1.3715,1.3497,-3.1462,0.3600,0.0000,0.0000,0.0000,-0.5308,-0.4030,-1.6026,0.4450,0.0000,0.0000,0.0000
28.3,-1.3631,1.3448,-3.1569,0.3599,0.0000,0.0000,0.0000,-0.5226,-0.4046,-1.6065,0.4448,0.0000,0.0000,0.0000
28.4,-1.2372,1.2846,-3.0448,0.3598,0.0000,0.0000,0.0000,-0.4877,-0.4026,-1.6182,0.4448,0.0000,0.0000,0.0000
28.5,-1.0098,1.1023,-3.0411,0.3598,0.0000,0.0000,0.0000,-0.3624,-0.4121,-1.6245,0.4447,0.0000,0.0000,0.0000
28.6,-0.7917,0.9383,-3.1388,0.3597,0.0000,0.0000,0.0000,-0.2159,-0.4213,-1.6482,0.4447,0.0000,0.0000,0.0000
28.7,-0.6578,0.8308,-3.3263,0.4506,0.0000,0.0000,0.0000,-0.0825,-0.4398,-1.7030,0.4674,0.0000,0.0000,0.0000
28.8,-0.5363,0.7384,-1.9629,0.6051,0.0000,0.0000,0.0000,0.0494,-0.4580,-1.7511,0.7020,0.0000,0.0000,0.0000
28.9,-0.4346,0.6584,-1.0782,0.7132,0.0000,0.0000,0.0000,0.1453,-0.4653,-1.9188,0.8983,0.0000,0.0000,0.0000
29.0,-0.3412,0.5915,-0.5277,0.7924,0.0000,0.0000,0.0000,0.2167,-0.4616,-2.1160,1.0328,0.0000,0.0000,0.0000
29.1,-0.2522,0.5327,-0.0817,0.8901,0.0000,0.0000,0.0000,0.2773,-0.4542,-2.2148,1.1106,0.0000,0.0000,0.0000
29.2,-0.1877,0.4864,0.1901,0.9604,0.0000,0.0000,0.0000,0.3166,-0.4489,-2.3041,1.1665,0.0000,0.0000,0.0000
29.3,-0.1378,0.4473,0.3668,1.0162,0.0000,0.0000,0.0000,0.3377,-0.4440,-2.4456,1.2140,0.0000,0.0000,0.0000
29.4,-0.0966,0.4145,0.4930,1.0690,0.0000,0.0000,0.0000,0.3498,-0.4405,-2.6076,1.2465,0.0000,0.0000,0.0000
29.5,-0.0610,0.3911,0.6183,1.1127,0.0000,0.0000,0.0000,0.3587,-0.4404,-2.7148,1.2701,0.0000,0.0000,0.0000
29.6,-0.0238,0.3725,0.7757,1.1545,0.0000,0.0000,0.0000,0.3708,-0.4422,-2.7562,1.2927,0.0000,0.0000,0.0000
29.7,-0.0032,0.3604,0.9085,1.1881,0.0000,0.0000,0.0000,0.3692,-0.4438,-2.8439,1.3262,0.0000,0.0000,0.0000
29.8,0.0044,0.3678,1.0014,1.1962,0.0000,0.0000,0.0000,0.3577,-0.4466,-2.8487,1.3530,0.0000,0.0000,0.0000
29.9,0.0004,0.3765,1.0664,1.2060,0.0000,0.0000,0.0000,0.3408,-0.4489,-2.5191,1.3722,0.0000,0.0000,0.0000
30.0,-0.0284,0.3922,-0.4588,1.1983,0.0000,0.0000,0.0000,0.3211,-0.4528,-2.0636,1.3370,0.0000,0.0000,0.0000
30.1,-0.0787,0.4099,-1.5265,1.1663,0.0000,0.0000,0.0000,0.2839,-0.4471,-1.6409,1.2581,0.0000,0.0000,0.0000
