RuntimeTerror1001/Real-Steel/robot_motion_20250501-004636.csv
timestamp,left_shoulder_pitch_joint,left_shoulder_roll_joint,left_shoulder_yaw_joint,left_elbow_joint,left_wrist_roll_joint,left_wrist_pitch_joint,left_wrist_yaw_joint,right_shoulder_pitch_joint,right_shoulder_roll_joint,right_shoulder_yaw_joint,right_elbow_joint,right_wrist_roll_joint,right_wrist_pitch_joint,right_wrist_yaw_joint
0.0,0.7272,-0.0380,-1.3149,1.2101,0.0000,0.0000,0.0000,0.1956,-0.3152,-0.6075,1.3371,0.0000,0.0000,0.0000
0.1,0.7115,-0.0293,-1.3171,1.1882,0.0000,0.0000,0.0000,0.1902,-0.3147,-0.6435,1.3323,0.0000,0.0000,0.0000
0.2,0.7146,-0.0188,-1.2575,1.1852,0.0000,0.0000,0.0000,0.1826,-0.3140,-0.6618,1.3426,0.0000,0.0000,0.0000
0.3,0.7404,0.0034,-1.1875,1.1965,0.0000,0.0000,0.0000,0.1711,-0.3088,-0.6547,1.3422,0.0000,0.0000,0.0000
0.4,0.8052,0.0388,-1.0955,1.2295,0.0000,0.0000,0.0000,0.2763,-0.3335,0.8334,1.3900,0.0000,0.0000,0.0000
0.5,0.8067,0.0897,-1.2569,1.2764,0.0000,0.0000,0.0000,0.3765,-0.3629,1.6918,1.3791,0.0000,0.0000,0.0000
0.6,0.7070,0.1322,0.9343,1.2741,0.0000,0.0000,0.0000,0.3828,-0.3839,2.0759,1.3836,0.0000,0.0000,0.0000
0.7,0.6665,0.1645,2.1778,1.2605,0.0000,0.0000,0.0000,0.3815,-0.3934,2.5403,1.3910,0.0000,0.0000,0.0000
0.8,0.6253,0.1837,2.8669,1.2411,0.0000,0.0000,0.0000,0.3835,-0.3958,2.6956,1.3897,0.0000,0.0000,0.0000
0.9,0.5992,0.1923,3.2712,1.2758,0.0000,0.0000,0.0000,0.3756,-0.3970,2.8332,1.3856,0.0000,0.0000,0.0000
1.0,0.5944,0.1938,3.4770,1.2923,0.0000,0.0000,0.0000,0.3652,-0.3998,2.9090,1.3799,0.0000,0.0000,0.0000
1.1,0.5591,0.1934,3.5978,1.2958,0.0000,0.0000,0.0000,0.3395,-0.4007,2.9483,1.3706,0.0000,0.0000,0.0000
1.2,0.5716,0.1861,3.6692,1.2753,0.0000,0.0000,0.0000,0.3343,-0.4016,3.0045,1.3631,0.0000,0.0000,0.0000
1.3,0.5846,0.1800,3.7110,1.2723,0.0000,0.0000,0.0000,0.3493,-0.4019,3.0367,1.3575,0.0000,0.0000,0.0000
1.4,0.6241,0.1744,1.4588,1.2740,0.0000,0.0000,0.0000,0.3617,-0.4027,3.0248,1.3537,0.0000,0.0000,0.0000
1.5,0.6324,0.1680,0.1752,1.2831,0.0000,0.0000,0.0000,0.3534,-0.4031,3.0127,1.3500,0.0000,0.0000,0.0000
1.6,0.6339,0.1672,1.5723,1.2855,0.0000,0.0000,0.0000,0.3474,-0.4053,2.9931,1.3462,0.0000,0.0000,0.0000
1.7,0.6385,0.1683,2.4851,1.2966,0.0000,0.0000,0.0000,0.3466,-0.4076,2.9677,1.3440,0.0000,0.0000,0.0000
1.8,0.6375,0.1658,3.0131,1.2966,0.0000,0.0000,0.0000,0.3551,-0.4132,2.9011,1.3412,0.0000,0.0000,0.0000
1.9,0.6342,0.1592,3.3240,1.2989,0.0000,0.0000,0.0000,0.3568,-0.4143,2.8809,1.3428,0.0000,0.0000,0.0000
2.0,0.6267,0.1542,3.5079,1.3061,0.0000,0.0000,0.0000,0.3602,-0.4150,2.8458,1.3421,0.0000,0.0000,0.0000
2.1,0.6078,0.1511,3.6137,1.3154,0.0000,0.0000,0.0000,0.3553,-0.4163,2.7744,1.3387,0.0000,0.0000,0.0000
2.2,0.5784,0.1532,3.6110,1.3316,0.0000,0.0000,0.0000,0.3506,-0.4159,2.6517,1.3264,0.0000,0.0000,0.0000
2.3,0.5559,0.1520,3.6749,1.3311,0.0000,0.0000,0.0000,0.3430,-0.4145,2.5729,1.3197,0.0000,0.0000,0.0000
2.4,0.5450,0.1499,3.7134,1.3245,0.0000,0.0000,0.0000,0.3274,-0.4160,2.5011,1.3217,0.0000,0.0000,0.0000
2.5,0.5591,0.1464,3.7365,1.3286,0.0000,0.0000,0.0000,0.3229,-0.4192,2.4378,1.3225,0.0000,0.0000,0.0000
2.6,0.5560,0.1440,3.7503,1.3464,0.0000,0.0000,0.0000,0.3146,-0.4286,2.4005,1.3163,0.0000,0.0000,0.0000
2.7,0.5402,0.1401,3.6360,1.3641,0.0000,0.0000,0.0000,0.2948,-0.4383,2.4237,1.3176,0.0000,0.0000,0.0000
2.8,0.5318,0.1341,3.5821,1.3781,0.0000,0.0000,0.0000,0.2997,-0.4535,2.5037,1.3107,0.0000,0.0000,0.0000
2.9,0.5217,0.1315,3.6561,1.3651,0.0000,0.0000,0.0000,0.2907,-0.4984,2.4990,1.2790,0.0000,0.0000,0.0000
3.0,0.5167,0.1353,3.7016,1.3386,0.0000,0.0000,0.0000,0.3847,-0.6367,2.8745,1.1956,0.0000,0.0000,0.0000
3.1,0.5211,0.1357,2.6703,1.3639,0.0000,0.0000,0.0000,0.0604,-0.7016,2.4380,1.0702,0.0000,0.0000,0.0000
3.2,0.5341,0.1445,2.0193,1.3618,0.0000,0.0000,0.0000,-0.1956,-0.6863,2.3027,0.9922,0.0000,0.0000,0.0000
3.3,0.5771,0.1563,1.6165,1.3491,0.0000,0.0000,0.0000,-0.4203,-0.6830,2.0665,0.9579,0.0000,0.0000,0.0000
3.4,0.5912,0.1610,1.0902,1.3476,0.0000,0.0000,0.0000,-0.6052,-0.7635,1.9193,0.8815,0.0000,0.0000,0.0000
3.5,0.6110,0.1640,0.7028,1.3385,0.0000,0.0000,0.0000,-0.8137,-1.1635,1.8412,0.8317,0.0000,0.0000,0.0000
3.6,0.6169,0.1656,0.4602,1.3380,0.0000,0.0000,0.0000,-1.0166,-1.6877,1.7938,0.8464,0.0000,0.0000,0.0000
3.7,0.6080,0.1664,0.1450,1.3435,0.0000,0.0000,0.0000,-1.2101,-2.0322,1.7760,0.8771,0.0000,0.0000,0.0000
3.8,0.6195,0.1721,0.1478,1.3478,0.0000,0.0000,0.0000,-1.4046,-2.2347,2.7890,0.9454,0.0000,0.0000,0.0000
3.9,0.6377,0.1795,0.2200,1.3514,0.0000,0.0000,0.0000,-1.5529,-2.3512,3.3795,0.9537,0.0000,0.0000,0.0000
4.0,0.6575,0.1910,0.4020,1.3652,0.0000,0.0000,0.0000,-1.6812,-2.4207,1.5090,0.9579,0.0000,0.0000,0.0000
4.1,0.6790,0.2030,1.8420,1.3702,0.0000,0.0000,0.0000,-1.7488,-2.4614,0.4056,0.9615,0.0000,0.0000,0.0000
4.2,0.7039,0.2145,2.5767,1.3807,0.0000,0.0000,0.0000,-1.8157,-2.4851,-0.2070,0.9644,0.0000,0.0000,0.0000
4.3,0.7095,0.2226,3.0144,1.3782,0.0000,0.0000,0.0000,-1.8995,-2.4994,-0.5541,1.0004,0.0000,0.0000,0.0000
4.4,0.7025,0.2272,3.3317,1.3687,0.0000,0.0000,0.0000,-1.9362,-2.5081,-0.7545,1.0250,0.0000,0.0000,0.0000
4.5,0.6993,0.2308,3.5146,1.3493,0.0000,0.0000,0.0000,-1.9663,-2.5134,1.3585,1.0448,0.0000,0.0000,0.0000
4.6,0.6960,0.2341,3.6190,1.3137,0.0000,0.0000,0.0000,-2.0354,-2.5165,2.5906,1.0557,0.0000,0.0000,0.0000
4.7,0.6852,0.2362,3.6814,1.2822,0.0000,0.0000,0.0000,-2.0662,-2.5185,3.2938,1.0639,0.0000,0.0000,0.0000
4.8,0.6710,0.2380,3.7176,1.2661,0.0000,0.0000,0.0000,-2.0763,-2.5196,3.6793,1.0610,0.0000,0.0000,0.0000
4.9,0.6587,0.2388,3.7313,1.2652,0.0000,0.0000,0.0000,-2.0759,-2.5203,3.8971,1.0678,0.0000,0.0000,0.0000
5.0,0.6536,0.2396,3.7116,1.2670,0.0000,0.0000,0.0000,-2.0715,-2.5207,4.0199,1.0748,0.0000,0.0000,0.0000
5.1,0.6631,0.2377,3.6990,1.2724,0.0000,0.0000,0.0000,-2.0494,-2.5210,1.8656,1.0939,0.0000,0.0000,0.0000
5.2,0.6689,0.2320,3.7045,1.2870,0.0000,0.0000,0.0000,-1.9992,-2.5212,0.5885,1.1135,0.0000,0.0000,0.0000
5.3,0.6828,0.2255,3.7349,1.3011,0.0000,0.0000,0.0000,-1.8879,-2.5213,-0.2021,1.0776,0.0000,0.0000,0.0000
5.4,0.7051,0.2218,3.6949,1.3202,0.0000,0.0000,0.0000,-1.8425,-2.5213,-0.5530,1.0480,0.0000,0.0000,0.0000
5.5,0.7052,0.2171,3.7258,1.3249,0.0000,0.0000,0.0000,-1.7735,-2.5214,1.4600,0.9823,0.0000,0.0000,0.0000
5.6,0.6848,0.2126,3.7443,1.3206,0.0000,0.0000,0.0000,-1.6767,-2.5214,1.5970,0.9080,0.0000,0.0000,0.0000
5.7,0.6591,0.2041,3.7553,1.3327,0.0000,0.0000,0.0000,-1.3116,-1.7870,1.6127,0.7723,0.0000,0.0000,0.0000
5.8,0.5777,0.1907,3.7657,1.3109,0.0000,0.0000,0.0000,-0.4822,-1.0598,2.7097,0.6952,0.0000,0.0000,0.0000
5.9,0.5287,0.1835,3.7681,1.2397,0.0000,0.0000,0.0000,-0.0581,-0.9051,3.3226,0.6470,0.0000,0.0000,0.0000
6.0,0.5721,0.1638,3.7697,1.2672,0.0000,0.0000,0.0000,0.1695,-0.7336,2.3787,0.9648,0.0000,0.0000,0.0000
6.1,0.6001,0.1520,3.7668,1.3052,0.0000,0.0000,0.0000,0.3309,-0.6172,2.1066,1.0766,0.0000,0.0000,0.0000
6.2,0.5957,0.1433,3.7336,1.3319,0.0000,0.0000,0.0000,0.3796,-0.5422,2.0688,1.1621,0.0000,0.0000,0.0000
6.3,0.6122,0.1375,3.6860,1.3546,0.0000,0.0000,0.0000,0.3892,-0.4925,2.1356,1.2141,0.0000,0.0000,0.0000
6.4,0.6172,0.1347,3.6566,1.3632,0.0000,0.0000,0.0000,0.3743,-0.4604,2.2291,1.2523,0.0000,0.0000,0.0000
6.5,0.6145,0.1337,3.5327,1.3683,0.0000,0.0000,0.0000,0.3537,-0.4479,2.3121,1.2876,0.0000,0.0000,0.0000
6.6,0.6093,0.1376,3.5148,1.3669,0.0000,0.0000,0.0000,0.3393,-0.4422,2.3464,1.3119,0.0000,0.0000,0.0000
6.7,0.5990,0.1419,3.3091,1.3696,0.0000,0.0000,0.0000,0.3437,-0.4383,2.3848,1.3311,0.0000,0.0000,0.0000
6.8,0.5972,0.1479,3.2106,1.3668,0.0000,0.0000,0.0000,0.3620,-0.4351,2.3887,1.3402,0.0000,0.0000,0.0000
6.9,0.5991,0.1544,3.1329,1.3619,0.0000,0.0000,0.0000,0.3740,-0.4322,2.3984,1.3452,0.0000,0.0000,0.0000
7.0,0.6025,0.1605,3.0413,1.3543,0.0000,0.0000,0.0000,0.3770,-0.4302,2.4124,1.3500,0.0000,0.0000,0.0000
7.1,0.6055,0.1689,3.0214,1.3415,0.0000,0.0000,0.0000,0.3807,-0.4293,2.4099,1.3551,0.0000,0.0000,0.0000
7.2,0.5935,0.1770,3.0528,1.3304,0.0000,0.0000,0.0000,0.3810,-0.4284,2.4075,1.3600,0.0000,0.0000,0.0000
7.3,0.5817,0.1955,3.0008,1.3121,0.0000,0.0000,0.0000,0.3843,-0.4287,2.4201,1.3629,0.0000,0.0000,0.0000
7.4,0.5688,0.2217,2.9325,1.2920,0.0000,0.0000,0.0000,0.3895,-0.4291,2.4119,1.3645,0.0000,0.0000,0.0000
7.5,0.5337,0.2717,2.8018,1.2669,0.0000,0.0000,0.0000,0.3886,-0.4296,2.4110,1.3694,0.0000,0.0000,0.0000
7.6,0.5052,0.3741,2.7138,1.2078,0.0000,0.0000,0.0000,0.3850,-0.4336,2.3707,1.3690,0.0000,0.0000,0.0000
7.7,0.3423,0.4708,2.2017,1.0631,0.0000,0.0000,0.0000,0.3824,-0.4424,2.2893,1.3617,0.0000,0.0000,0.0000
7.8,0.0492,0.5963,1.7831,0.8937,0.0000,0.0000,0.0000,0.3517,-0.4480,2.2993,1.3733,0.0000,0.0000,0.0000
7.9,-0.2540,0.7103,1.2704,0.7125,0.0000,0.0000,0.0000,0.3329,-0.4506,2.3261,1.3770,0.0000,0.0000,0.0000
8.0,-0.5137,0.8322,0.8143,0.5777,0.0000,0.0000,0.0000,0.3176,-0.4521,2.3707,1.3802,0.0000,0.0000,0.0000
8.1,-0.8240,1.2111,0.2488,0.5403,0.0000,0.0000,0.0000,0.3130,-0.4534,2.4512,1.3819,0.0000,0.0000,0.0000
8.2,-1.1652,1.5687,-0.2923,0.5901,0.0000,0.0000,0.0000,0.3136,-0.4509,2.5858,1.3849,0.0000,0.0000,0.0000
8.3,-1.4541,1.7770,-0.6064,0.6826,0.0000,0.0000,0.0000,0.3035,-0.4476,2.7753,1.3873,0.0000,0.0000,0.0000
8.4,-1.7078,1.9006,-0.9594,0.6941,0.0000,0.0000,0.0000,0.2900,-0.4480,2.9293,1.3909,0.0000,0.0000,0.0000
8.5,-1.9699,1.9754,-1.1710,0.7053,0.0000,0.0000,0.0000,0.2739,-0.4479,2.9208,1.3881,0.0000,0.0000,0.0000
8.6,-2.1188,2.0179,-1.2890,0.7692,0.0000,0.0000,0.0000,0.2634,-0.4485,2.9477,1.3873,0.0000,0.0000,0.0000
8.7,-2.2140,2.0436,-1.3592,0.8308,0.0000,0.0000,0.0000,0.2584,-0.4477,2.9570,1.3842,0.0000,0.0000,0.0000
8.8,-2.2647,2.0595,-1.4019,0.8617,0.0000,0.0000,0.0000,0.2495,-0.4474,2.9264,1.3814,0.0000,0.0000,0.0000
8.9,-2.2932,2.0687,-1.4264,0.8581,0.0000,0.0000,0.0000,0.2416,-0.4464,2.9059,1.3763,0.0000,0.0000,0.0000
9.0,-2.3287,2.0742,-1.4412,0.8298,0.0000,0.0000,0.0000,0.2296,-0.4451,2.9065,1.3740,0.0000,0.0000,0.0000
9.1,-2.3376,2.0776,-1.4502,0.8346,0.0000,0.0000,0.0000,0.2215,-0.4447,2.9282,1.3733,0.0000,0.0000,0.0000
9.2,-2.3471,2.0797,-1.4556,0.8379,0.0000,0.0000,0.0000,0.2173,-0.4442,2.9418,1.3724,0.0000,0.0000,0.0000
9.3,-2.3458,2.0810,-1.4590,0.8485,0.0000,0.0000,0.0000,0.2209,-0.4438,2.9639,1.3718,0.0000,0.0000,0.0000
9.4,-2.3433,2.0817,-1.4610,0.8377,0.0000,0.0000,0.0000,0.2237,-0.4415,2.9758,1.3689,0.0000,0.0000,0.0000
9.5,-2.3376,2.0822,-1.4622,0.8252,0.0000,0.0000,0.0000,0.2253,-0.4387,2.9732,1.3663,0.0000,0.0000,0.0000
9.6,-2.3140,2.0825,-1.4630,0.8083,0.0000,0.0000,0.0000,0.2226,-0.4356,2.9988,1.3650,0.0000,0.0000,0.0000
9.7,-2.2907,2.0826,-1.4634,0.8123,0.0000,0.0000,0.0000,0.2212,-0.4312,3.0085,1.3607,0.0000,0.0000,0.0000
9.8,-2.2741,2.0827,-1.4636,0.8017,0.0000,0.0000,0.0000,0.2215,-0.4296,3.0277,1.3637,0.0000,0.0000,0.0000
9.9,-2.2587,2.0828,-1.4614,0.8043,0.0000,0.0000,0.0000,0.2230,-0.4301,3.0411,1.3646,0.0000,0.0000,0.0000
10.0,-2.2283,2.0828,-1.4353,0.8080,0.0000,0.0000,0.0000,0.2214,-0.4310,3.0342,1.3613,0.0000,0.0000,0.0000
10.1,-2.1448,2.0828,-1.3230,0.7997,0.0000,0.0000,0.0000,0.2270,-0.4301,3.0223,1.3623,0.0000,0.0000,0.0000
10.2,-1.8159,1.9714,-1.0130,0.6560,0.0000,0.0000,0.0000,0.2178,-0.4233,3.0424,1.3697,0.0000,0.0000,0.0000
10.3,-1.4670,1.6584,-0.4787,0.5825,0.0000,0.0000,0.0000,0.2409,-0.4170,3.0807,1.3775,0.0000,0.0000,0.0000
10.4,-0.9634,1.1893,0.3240,0.5726,0.0000,0.0000,0.0000,0.2402,-0.4110,3.1597,1.3872,0.0000,0.0000,0.0000
10.5,-0.4160,0.8750,1.5652,0.7246,0.0000,0.0000,0.0000,0.2455,-0.4074,3.0980,1.4023,0.0000,0.0000,0.0000
10.6,-0.0600,0.6487,2.2754,0.8796,0.0000,0.0000,0.0000,0.2600,-0.4020,2.8796,1.3986,0.0000,0.0000,0.0000
10.7,0.2065,0.4991,2.4297,1.0051,0.0000,0.0000,0.0000,0.2870,-0.3997,2.7061,1.3926,0.0000,0.0000,0.0000
10.8,0.3932,0.3967,2.2827,1.0713,0.0000,0.0000,0.0000,0.3045,-0.4000,2.6014,1.3889,0.0000,0.0000,0.0000
10.9,0.5038,0.3353,2.3385,1.1416,0.0000,0.0000,0.0000,0.3205,-0.4002,2.5092,1.3796,0.0000,0.0000,0.0000
11.0,0.5541,0.3033,2.4399,1.1802,0.0000,0.0000,0.0000,0.3273,-0.4000,2.4978,1.3814,0.0000,0.0000,0.0000
11.1,0.5763,0.2788,2.6231,1.2081,0.0000,0.0000,0.0000,0.3344,-0.4001,2.4947,1.3836,0.0000,0.0000,0.0000
11.2,0.5754,0.2594,2.7911,1.2277,0.0000,0.0000,0.0000,0.3331,-0.4008,2.4970,1.3871,0.0000,0.0000,0.0000
11.3,0.5792,0.2460,2.9084,1.2451,0.0000,0.0000,0.0000,0.3340,-0.4016,2.4922,1.3875,0.0000,0.0000,0.0000
11.4,0.5851,0.2423,2.9922,1.2558,0.0000,0.0000,0.0000,0.3381,-0.4018,2.4987,1.3882,0.0000,0.0000,0.0000
11.5,0.5825,0.2464,3.1080,1.2567,0.0000,0.0000,0.0000,0.3400,-0.4028,2.4740,1.3859,0.0000,0.0000,0.0000
11.6,0.5752,0.2470,3.2172,1.2560,0.0000,0.0000,0.0000,0.3377,-0.4030,2.4722,1.3873,0.0000,0.0000,0.0000
11.7,0.5786,0.2463,3.2789,1.2606,0.0000,0.0000,0.0000,0.3327,-0.4045,2.5088,1.3899,0.0000,0.0000,0.0000
11.8,0.5706,0.2440,3.2972,1.2664,0.0000,0.0000,0.0000,0.3263,-0.4116,2.5989,1.3795,0.0000,0.0000,0.0000
11.9,0.5523,0.2387,3.3412,1.2688,0.0000,0.0000,0.0000,0.3095,-0.4346,2.7127,1.3611,0.0000,0.0000,0.0000
12.0,0.5336,0.2346,3.3758,1.2714,0.0000,0.0000,0.0000,0.2962,-0.4723,2.7530,1.3353,0.0000,0.0000,0.0000
12.1,0.5262,0.2280,3.4342,1.2758,0.0000,0.0000,0.0000,0.2803,-0.5192,2.8170,1.2826,0.0000,0.0000,0.0000
12.2,0.5217,0.2205,3.4718,1.2825,0.0000,0.0000,0.0000,0.2683,-0.5900,2.8574,1.2378,0.0000,0.0000,0.0000
12.3,0.5219,0.2093,3.5520,1.2936,0.0000,0.0000,0.0000,0.2560,-0.6621,2.8812,1.2017,0.0000,0.0000,0.0000
12.4,0.5199,0.2004,3.6393,1.3027,0.0000,0.0000,0.0000,0.2286,-0.7313,2.9041,1.1621,0.0000,0.0000,0.0000
12.5,0.5307,0.1890,3.6917,1.3241,0.0000,0.0000,0.0000,0.2094,-0.8098,2.9103,1.1125,0.0000,0.0000,0.0000
12.6,0.5381,0.1786,3.7237,1.3388,0.0000,0.0000,0.0000,0.1909,-0.8857,2.9042,1.0864,0.0000,0.0000,0.0000
12.7,0.5492,0.1732,3.7428,1.3441,0.0000,0.0000,0.0000,0.1571,-0.9824,2.9009,1.0932,0.0000,0.0000,0.0000
12.8,0.5551,0.1681,3.7544,1.3510,0.0000,0.0000,0.0000,0.1111,-1.0679,2.9143,1.1087,0.0000,0.0000,0.0000
12.9,0.5581,0.1656,3.7529,1.3568,0.0000,0.0000,0.0000,0.0673,-1.1465,2.9366,1.1143,0.0000,0.0000,0.0000
13.0,0.5608,0.1648,3.6487,1.3696,0.0000,0.0000,0.0000,0.0543,-1.2094,2.9277,1.1091,0.0000,0.0000,0.0000
13.1,0.5719,0.1656,3.4665,1.3799,0.0000,0.0000,0.0000,0.0486,-1.2606,2.9150,1.1061,0.0000,0.0000,0.0000
13.2,0.5757,0.1658,3.5854,1.3775,0.0000,0.0000,0.0000,0.0341,-1.3000,2.9097,1.1105,0.0000,0.0000,0.0000
13.3,0.5810,0.1661,3.6579,1.3751,0.0000,0.0000,0.0000,0.0178,-1.3286,2.9160,1.1201,0.0000,0.0000,0.0000
13.4,0.5909,0.1646,3.7030,1.3635,0.0000,0.0000,0.0000,0.0070,-1.3479,2.9235,1.1316,0.0000,0.0000,0.0000
13.5,0.5955,0.1640,3.7303,1.3675,0.0000,0.0000,0.0000,0.0163,-1.3537,2.9192,1.1384,0.0000,0.0000,0.0000
13.6,0.5958,0.1646,3.7469,1.3715,0.0000,0.0000,0.0000,0.0329,-1.3479,2.9147,1.1491,0.0000,0.0000,0.0000
13.7,0.5861,0.1652,3.7570,1.3667,0.0000,0.0000,0.0000,0.0431,-1.3408,2.9183,1.1562,0.0000,0.0000,0.0000
13.8,0.5804,0.1654,3.7628,1.3667,0.0000,0.0000,0.0000,0.0791,-1.2986,2.9021,1.1593,0.0000,0.0000,0.0000
13.9,0.5811,0.1651,3.7664,1.3706,0.0000,0.0000,0.0000,0.1356,-1.2210,2.8573,1.1386,0.0000,0.0000,0.0000
14.0,0.5814,0.1663,3.7688,1.3714,0.0000,0.0000,0.0000,0.1831,-1.1199,2.8407,1.1068,0.0000,0.0000,0.0000
14.1,0.5887,0.1687,3.7701,1.3662,0.0000,0.0000,0.0000,0.2113,-1.0283,2.8232,1.1157,0.0000,0.0000,0.0000
14.2,0.5936,0.1723,3.7708,1.3595,0.0000,0.0000,0.0000,0.2321,-0.9504,2.8227,1.1326,0.0000,0.0000,0.0000
14.3,0.5858,0.1786,3.7713,1.3467,0.0000,0.0000,0.0000,0.2473,-0.8801,2.7965,1.1795,0.0000,0.0000,0.0000
14.4,0.5835,0.1855,3.7716,1.3397,0.0000,0.0000,0.0000,0.2608,-0.7886,2.7874,1.2007,0.0000,0.0000,0.0000
14.5,0.5786,0.1958,3.7717,1.3343,0.0000,0.0000,0.0000,0.2718,-0.7054,2.7638,1.2309,0.0000,0.0000,0.0000
14.6,0.5747,0.2053,3.7605,1.3287,0.0000,0.0000,0.0000,0.2907,-0.6412,2.7467,1.2656,0.0000,0.0000,0.0000
14.7,0.5866,0.2142,3.6637,1.3289,0.0000,0.0000,0.0000,0.3151,-0.5858,2.6830,1.3017,0.0000,0.0000,0.0000
14.8,0.5969,0.2220,3.5226,1.3304,0.0000,0.0000,0.0000,0.3324,-0.5390,2.6341,1.3238,0.0000,0.0000,0.0000
14.9,0.6008,0.2298,3.4308,1.3281,0.0000,0.0000,0.0000,0.3398,-0.4980,2.5812,1.3485,0.0000,0.0000,0.0000
15.0,0.6037,0.2368,3.3461,1.3244,0.0000,0.0000,0.0000,0.3462,-0.4665,2.5764,1.3709,0.0000,0.0000,0.0000
15.1,0.6081,0.2405,3.2760,1.3245,0.0000,0.0000,0.0000,0.3544,-0.4448,2.5454,1.3840,0.0000,0.0000,0.0000
15.2,0.6098,0.2415,3.2477,1.3255,0.0000,0.0000,0.0000,0.3604,-0.4301,2.5347,1.3967,0.0000,0.0000,0.0000
15.3,0.6123,0.2421,3.2345,1.3247,0.0000,0.0000,0.0000,0.3675,-0.4222,2.5217,1.4048,0.0000,0.0000,0.0000
15.4,0.6135,0.2448,3.2183,1.3245,0.0000,0.0000,0.0000,0.3713,-0.4153,2.5174,1.4088,0.0000,0.0000,0.0000
15.5,0.6073,0.2503,3.2988,1.3325,0.0000,0.0000,0.0000,0.3744,-0.4110,2.5420,1.4101,0.0000,0.0000,0.0000
15.6,0.6043,0.2870,1.2444,1.3471,0.0000,0.0000,0.0000,0.3754,-0.4075,2.5778,1.4060,0.0000,0.0000,0.0000
15.7,0.6049,0.3529,0.3259,1.3655,0.0000,0.0000,0.0000,0.3768,-0.4021,2.5944,1.3935,0.0000,0.0000,0.0000
15.8,0.5952,0.4757,1.4411,1.3577,0.0000,0.0000,0.0000,0.3797,-0.4002,2.6222,1.3865,0.0000,0.0000,0.0000
15.9,0.6073,0.6042,2.2603,1.3394,0.0000,0.0000,0.0000,0.3766,-0.4003,2.6494,1.3826,0.0000,0.0000,0.0000
16.0,0.6208,0.7119,2.7705,1.3107,0.0000,0.0000,0.0000,0.3764,-0.4011,2.6578,1.3790,0.0000,0.0000,0.0000
16.1,0.6500,0.8108,3.1213,1.2875,0.0000,0.0000,0.0000,0.3826,-0.4044,2.6443,1.3770,0.0000,0.0000,0.0000
16.2,0.7841,0.9166,3.4199,1.2433,0.0000,0.0000,0.0000,0.3890,-0.4132,2.6147,1.3804,0.0000,0.0000,0.0000
16.3,0.7865,0.9903,3.4874,1.2718,0.0000,0.0000,0.0000,0.3882,-0.4186,2.5399,1.3690,0.0000,0.0000,0.0000
16.4,0.8744,1.0640,3.6031,1.2591,0.0000,0.0000,0.0000,0.3696,-0.4271,2.5564,1.3698,0.0000,0.0000,0.0000
16.5,1.0536,1.1378,1.4132,1.2339,0.0000,0.0000,0.0000,0.3582,-0.4388,2.5425,1.3694,0.0000,0.0000,0.0000
16.6,1.2936,1.2132,2.3502,1.2075,0.0000,0.0000,0.0000,0.3536,-0.4456,2.5180,1.3680,0.0000,0.0000,0.0000
16.7,1.5339,1.2774,2.9207,1.1976,0.0000,0.0000,0.0000,0.3507,-0.4491,2.5194,1.3705,0.0000,0.0000,0.0000
16.8,1.7545,1.3295,3.2685,1.1903,0.0000,0.0000,0.0000,0.3463,-0.4514,2.5237,1.3734,0.0000,0.0000,0.0000
16.9,1.9297,1.3692,3.4728,1.1841,0.0000,0.0000,0.0000,0.3444,-0.4542,2.5352,1.3771,0.0000,0.0000,0.0000
17.0,2.0570,1.3970,3.5923,1.1806,0.0000,0.0000,0.0000,0.3421,-0.4556,2.5302,1.3774,0.0000,0.0000,0.0000
17.1,2.1218,1.4116,3.6635,1.1811,0.0000,0.0000,0.0000,0.3367,-0.4557,2.5481,1.3804,0.0000,0.0000,0.0000
17.2,2.1500,1.4186,3.7066,1.1825,0.0000,0.0000,0.0000,0.3313,-0.4555,2.5513,1.3810,0.0000,0.0000,0.0000
17.3,2.1817,1.4255,3.7322,1.1785,0.0000,0.0000,0.0000,0.3334,-0.4555,2.5647,1.3822,0.0000,0.0000,0.0000
17.4,2.1871,1.4260,3.7479,1.1806,0.0000,0.0000,0.0000,0.3310,-0.4544,2.5725,1.3811,0.0000,0.0000,0.0000
17.5,2.1711,1.4235,3.7573,1.1776,0.0000,0.0000,0.0000,0.3295,-0.4535,2.5775,1.3802,0.0000,0.0000,0.0000
17.6,2.1486,1.4197,3.7631,1.1752,0.0000,0.0000,0.0000,0.3267,-0.4539,2.5798,1.3818,0.0000,0.0000,0.0000
17.7,1.9344,1.3823,3.7665,1.1779,0.0000,0.0000,0.0000,0.3300,-0.4552,2.5516,1.3813,0.0000,0.0000,0.0000
17.8,1.3993,1.3018,3.5079,1.2391,0.0000,0.0000,0.0000,0.3312,-0.4551,2.5205,1.3790,0.0000,0.0000,0.0000
17.9,1.0031,1.2091,3.5132,1.2707,0.0000,0.0000,0.0000,0.3337,-0.4555,2.4935,1.3792,0.0000,0.0000,0.0000
18.0,0.8140,1.0939,3.2143,1.2897,0.0000,0.0000,0.0000,0.3356,-0.4561,2.4970,1.3849,0.0000,0.0000,0.0000
18.1,0.6890,0.9502,3.1310,1.2934,0.0000,0.0000,0.0000,0.3408,-0.4552,2.5052,1.3904,0.0000,0.0000,0.0000
18.2,0.5910,0.8006,3.1126,1.3071,0.0000,0.0000,0.0000,0.3531,-0.4526,2.4859,1.3866,0.0000,0.0000,0.0000
18.3,0.5335,0.6471,3.3718,1.3159,0.0000,0.0000,0.0000,0.3584,-0.4477,2.4927,1.3834,0.0000,0.0000,0.0000
18.4,0.5043,0.5068,3.5474,1.3124,0.0000,0.0000,0.0000,0.3587,-0.4396,2.5216,1.3796,0.0000,0.0000,0.0000
18.5,0.5043,0.4221,3.4944,1.2946,0.0000,0.0000,0.0000,0.3495,-0.4315,2.5638,1.3859,0.0000,0.0000,0.0000
18.6,0.5155,0.3603,3.4787,1.2840,0.0000,0.0000,0.0000,0.3375,-0.4223,2.6311,1.3955,0.0000,0.0000,0.0000
18.7,0.5229,0.3151,3.4572,1.2728,0.0000,0.0000,0.0000,0.3290,-0.4185,2.6565,1.4085,0.0000,0.0000,0.0000
18.8,0.5378,0.2827,3.4547,1.2734,0.0000,0.0000,0.0000,0.3275,-0.4157,2.6488,1.4184,0.0000,0.0000,0.0000
18.9,0.5421,0.2567,3.5168,1.2831,0.0000,0.0000,0.0000,0.3275,-0.4141,2.6693,1.4245,0.0000,0.0000,0.0000
19.0,0.5439,0.2449,3.5217,1.2850,0.0000,0.0000,0.0000,0.3286,-0.4142,2.6661,1.4265,0.0000,0.0000,0.0000
19.1,0.5480,0.2376,3.5292,1.2858,0.0000,0.0000,0.0000,0.3330,-0.4150,2.6496,1.4261,0.0000,0.0000,0.0000
19.2,0.5492,0.2348,3.5513,1.2876,0.0000,0.0000,0.0000,0.3360,-0.4177,2.6436,1.4291,0.0000,0.0000,0.0000
19.3,0.5528,0.2319,3.5506,1.2916,0.0000,0.0000,0.0000,0.3381,-0.4195,2.6483,1.4310,0.0000,0.0000,0.0000
19.4,0.5581,0.2307,3.5287,1.2949,0.0000,0.0000,0.0000,0.3412,-0.4213,2.6271,1.4301,0.0000,0.0000,0.0000
19.5,0.5584,0.2287,3.5364,1.2994,0.0000,0.0000,0.0000,0.3402,-0.4233,2.6135,1.4306,0.0000,0.0000,0.0000
19.6,0.5543,0.2248,3.5624,1.3079,0.0000,0.0000,0.0000,0.3390,-0.4243,2.6105,1.4297,0.0000,0.0000,0.0000
19.7,0.5371,0.2203,3.5685,1.3134,0.0000,0.0000,0.0000,0.3388,-0.4246,2.6188,1.4237,0.0000,0.0000,0.0000
19.8,0.5280,0.2182,3.5612,1.3184,0.0000,0.0000,0.0000,0.3411,-0.4244,2.6317,1.4113,0.0000,0.0000,0.0000
19.9,0.5216,0.2177,3.5961,1.3175,0.0000,0.0000,0.0000,0.3378,-0.4248,2.6738,1.3849,0.0000,0.0000,0.0000
20.0,0.5098,0.2172,3.6494,1.3135,0.0000,0.0000,0.0000,0.3244,-0.4260,2.7041,1.3601,0.0000,0.0000,0.0000
20.1,0.4958,0.2160,3.6978,1.3092,0.0000,0.0000,0.0000,0.3088,-0.4282,2.7356,1.3375,0.0000,0.0000,0.0000
20.2,0.4833,0.2160,3.7269,1.3042,0.0000,0.0000,0.0000,0.2933,-0.4309,2.7716,1.3141,0.0000,0.0000,0.0000
20.3,0.4740,0.2150,3.7447,1.3024,0.0000,0.0000,0.0000,0.2784,-0.4354,2.8103,1.2935,0.0000,0.0000,0.0000
20.4,0.4669,0.2131,3.7554,1.3013,0.0000,0.0000,0.0000,0.2671,-0.4389,2.8391,1.2772,0.0000,0.0000,0.0000
20.5,0.4620,0.2121,3.7619,1.3011,0.0000,0.0000,0.0000,0.2539,-0.4423,2.8727,1.2653,0.0000,0.0000,0.0000
20.6,0.4563,0.2115,3.7685,1.3017,0.0000,0.0000,0.0000,0.2390,-0.4482,2.9132,1.2474,0.0000,0.0000,0.0000
20.7,0.4537,0.2114,3.7699,1.3013,0.0000,0.0000,0.0000,0.2341,-0.4504,2.9250,1.2421,0.0000,0.0000,0.0000
20.8,0.4507,0.2114,3.7707,1.3004,0.0000,0.0000,0.0000,0.2317,-0.4521,2.9370,1.2391,0.0000,0.0000,0.0000
20.9,0.4500,0.2113,3.7712,1.2989,0.0000,0.0000,0.0000,0.2316,-0.4532,2.9416,1.2369,0.0000,0.0000,0.0000
21.0,0.4494,0.2111,3.7715,1.2980,0.0000,0.0000,0.0000,0.2308,-0.4545,2.9479,1.2366,0.0000,0.0000,0.0000
21.1,0.4500,0.2115,3.7717,1.2978,0.0000,0.0000,0.0000,0.2307,-0.4559,2.9495,1.2358,0.0000,0.0000,0.0000
21.2,0.4515,0.2117,3.7718,1.2987,0.0000,0.0000,0.0000,0.2331,-0.4569,2.9564,1.2359,0.0000,0.0000,0.0000
21.3,0.4555,0.2112,3.7719,1.3011,0.0000,0.0000,0.0000,0.2370,-0.4575,2.9547,1.2361,0.0000,0.0000,0.0000
21.4,0.4630,0.2104,3.7719,1.3001,0.0000,0.0000,0.0000,0.2425,-0.4576,2.9542,1.2449,0.0000,0.0000,0.0000
21.5,0.4745,0.2094,3.7719,1.3049,0.0000,0.0000,0.0000,0.2517,-0.4572,2.9534,1.2629,0.0000,0.0000,0.0000
21.6,0.4864,0.2090,3.7720,1.3009,0.0000,0.0000,0.0000,0.2647,-0.4549,2.9536,1.2854,0.0000,0.0000,0.0000
21.7,0.4978,0.2071,3.7720,1.3010,0.0000,0.0000,0.0000,0.2889,-0.4515,2.9168,1.3093,0.0000,0.0000,0.0000
21.8,0.5079,0.2053,3.7720,1.3035,0.0000,0.0000,0.0000,0.3096,-0.4470,2.8600,1.3231,0.0000,0.0000,0.0000
21.9,0.5210,0.2048,3.7720,1.3119,0.0000,0.0000,0.0000,0.3295,-0.4443,2.7930,1.3304,0.0000,0.0000,0.0000
22.0,0.5369,0.2046,3.7720,1.3261,0.0000,0.0000,0.0000,0.3520,-0.4423,2.7169,1.3305,0.0000,0.0000,0.0000
22.1,0.5479,0.2054,3.7720,1.3349,0.0000,0.0000,0.0000,0.3658,-0.4409,2.6782,1.3313,0.0000,0.0000,0.0000
22.2,0.5540,0.2059,3.7720,1.3404,0.0000,0.0000,0.0000,0.3727,-0.4399,2.6626,1.3331,0.0000,0.0000,0.0000
22.3,0.5566,0.2066,3.7720,1.3448,0.0000,0.0000,0.0000,0.3812,-0.4394,2.6430,1.3325,0.0000,0.0000,0.0000
22.4,0.5467,0.2080,3.7720,1.3499,0.0000,0.0000,0.0000,0.3847,-0.4390,2.6216,1.3315,0.0000,0.0000,0.0000
22.5,0.5343,0.2138,1.4915,1.3497,0.0000,0.0000,0.0000,0.3882,-0.4403,2.6152,1.3357,0.0000,0.0000,0.0000
22.6,0.5037,0.2219,0.3769,1.3562,0.0000,0.0000,0.0000,0.3863,-0.4418,2.6206,1.3411,0.0000,0.0000,0.0000
22.7,0.4707,0.2310,-0.3250,1.3388,0.0000,0.0000,0.0000,0.3795,-0.4447,2.6439,1.3503,0.0000,0.0000,0.0000
22.8,0.4491,0.2352,-0.5319,1.3102,0.0000,0.0000,0.0000,0.3796,-0.4472,2.6281,1.3517,0.0000,0.0000,0.0000
22.9,0.4359,0.2413,-0.6314,1.2863,0.0000,0.0000,0.0000,0.3792,-0.4498,2.6144,1.3538,0.0000,0.0000,0.0000
23.0,0.4293,0.2469,-0.6839,1.2653,0.0000,0.0000,0.0000,0.3789,-0.4516,2.6054,1.3549,0.0000,0.0000,0.0000
23.1,0.4234,0.2508,-0.7088,1.2479,0.0000,0.0000,0.0000,0.3791,-0.4533,2.6166,1.3582,0.0000,0.0000,0.0000
23.2,0.4201,0.2542,-0.7297,1.2331,0.0000,0.0000,0.0000,0.3774,-0.4547,2.6303,1.3603,0.0000,0.0000,0.0000
23.3,0.4181,0.2572,-0.7280,1.2235,0.0000,0.0000,0.0000,0.3740,-0.4559,2.6435,1.3626,0.0000,0.0000,0.0000
23.4,0.4144,0.2621,-0.7271,1.2189,0.0000,0.0000,0.0000,0.3715,-0.4571,2.6444,1.3624,0.0000,0.0000,0.0000
23.5,0.4112,0.2673,-0.7352,1.2158,0.0000,0.0000,0.0000,0.3693,-0.4577,2.6502,1.3608,0.0000,0.0000,0.0000
23.6,0.4132,0.2716,-0.7258,1.2155,0.0000,0.0000,0.0000,0.3672,-0.4579,2.6405,1.3577,0.0000,0.0000,0.0000
23.7,0.4206,0.2762,-0.6895,1.2194,0.0000,0.0000,0.0000,0.3718,-0.4583,2.6091,1.3517,0.0000,0.0000,0.0000
23.8,0.4227,0.2810,-0.6516,1.2253,0.0000,0.0000,0.0000,0.3774,-0.4587,2.5811,1.3450,0.0000,0.0000,0.0000
23.9,0.4221,0.2861,-0.6314,1.2306,0.0000,0.0000,0.0000,0.3782,-0.4590,2.5677,1.3420,0.0000,0.0000,0.0000
24.0,0.4213,0.2911,-0.6329,1.2384,0.0000,0.0000,0.0000,0.3786,-0.4590,2.5598,1.3399,0.0000,0.0000,0.0000
24.1,0.4140,0.2949,-0.6421,1.2457,0.0000,0.0000,0.0000,0.3781,-0.4592,2.5552,1.3401,0.0000,0.0000,0.0000
24.2,0.4142,0.2979,-0.7205,1.2638,0.0000,0.0000,0.0000,0.3768,-0.4589,2.5599,1.3412,0.0000,0.0000,0.0000
24.3,0.4346,0.3002,-1.0119,1.2701,0.0000,0.0000,0.0000,0.3779,-0.4584,2.5737,1.3430,0.0000,0.0000,0.0000
24.4,0.4666,0.2974,-1.1931,1.2929,0.0000,0.0000,0.0000,0.3793,-0.4572,2.5855,1.3444,0.0000,0.0000,0.0000
24.5,0.5022,0.2935,0.9709,1.3204,0.0000,0.0000,0.0000,0.3796,-0.4557,2.6150,1.3483,0.0000,0.0000,0.0000
24.6,0.5230,0.2837,2.0454,1.3356,0.0000,0.0000,0.0000,0.3772,-0.4541,2.6457,1.3528,0.0000,0.0000,0.0000
24.7,0.5423,0.2744,2.5420,1.3490,0.0000,0.0000,0.0000,0.3786,-0.4522,2.6630,1.3555,0.0000,0.0000,0.0000
24.8,0.5568,0.2663,2.8747,1.3584,0.0000,0.0000,0.0000,0.3793,-0.4504,2.6737,1.3574,0.0000,0.0000,0.0000
24.9,0.5720,0.2541,3.2639,1.3698,0.0000,0.0000,0.0000,0.3748,-0.4461,2.7099,1.3602,0.0000,0.0000,0.0000
25.0,0.5746,0.2492,3.3312,1.3728,0.0000,0.0000,0.0000,0.3740,-0.4437,2.7198,1.3601,0.0000,0.0000,0.0000
25.1,0.5765,0.2459,3.3740,1.3780,0.0000,0.0000,0.0000,0.3732,-0.4420,2.7312,1.3606,0.0000,0.0000,0.0000
25.2,0.5781,0.2440,3.4231,1.3806,0.0000,0.0000,0.0000,0.3735,-0.4403,2.7364,1.3601,0.0000,0.0000,0.0000
25.3,0.5778,0.2425,3.5065,1.3795,0.0000,0.0000,0.0000,0.3752,-0.4389,2.7391,1.3597,0.0000,0.0000,0.0000
25.4,0.5816,0.2414,3.5630,1.3784,0.0000,0.0000,0.0000,0.3793,-0.4380,2.7290,1.3592,0.0000,0.0000,0.0000
25.5,0.5827,0.2406,3.5279,1.3705,0.0000,0.0000,0.0000,0.3872,-0.4378,2.7022,1.3583,0.0000,0.0000,0.0000
25.6,0.5839,0.2404,3.5440,1.3582,0.0000,0.0000,0.0000,0.3927,-0.4386,2.6717,1.3631,0.0000,0.0000,0.0000
25.7,0.5847,0.2500,3.4185,1.3426,0.0000,0.0000,0.0000,0.3943,-0.4411,2.6024,1.3786,0.0000,0.0000,0.0000
25.8,0.4604,0.2721,2.7383,1.2356,0.0000,0.0000,0.0000,0.3597,-0.4439,2.2663,1.3224,0.0000,0.0000,0.0000
25.9,0.3420,0.2931,2.1433,0.9082,0.0000,0.0000,0.0000,0.2969,-0.4464,1.9610,1.0382,0.0000,0.0000,0.0000
26.0,0.1788,0.3581,1.7432,0.6929,0.0000,0.0000,0.0000,0.2002,-0.4385,1.6908,0.8513,0.0000,0.0000,0.0000
26.1,0.0739,0.4245,1.4329,0.5653,0.0000,0.0000,0.0000,0.0823,-0.4050,1.4929,0.7401,0.0000,0.0000,0.0000
26.2,-0.1071,0.5552,1.1142,0.4886,0.0000,0.0000,0.0000,-0.0835,-0.3835,1.4234,0.6731,0.0000,0.0000,0.0000
26.3,-0.2983,0.7290,0.8168,0.4423,0.0000,0.0000,0.0000,-0.2392,-0.3857,1.4239,0.6325,0.0000,0.0000,0.0000
26.4,-0.5366,0.8862,0.5821,0.4144,0.0000,0.0000,0.0000,-0.3612,-0.3878,1.4356,0.6080,0.0000,0.0000,0.0000
26.5,-0.7443,1.0686,0.3405,0.3976,0.0000,0.0000,0.0000,-0.4544,-0.4035,1.4620,0.5932,0.0000,0.0000,0.0000
26.6,-0.8619,1.1697,0.2006,0.3872,0.0000,0.0000,0.0000,-0.5067,-0.4174,1.4801,0.5841,0.0000,0.0000,0.0000
26.7,-0.9218,1.2167,0.1304,0.3810,0.0000,0.0000,0.0000,-0.5436,-0.4244,1.4885,0.5786,0.0000,0.0000,0.0000
26.8,-0.9703,1.2621,0.0664,0.3773,0.0000,0.0000,0.0000,-0.5744,-0.4336,1.5031,0.5753,0.0000,0.0000,0.0000
26.9,-0.9981,1.2872,0.0350,0.3750,0.0000,0.0000,0.0000,-0.5909,-0.4426,1.5123,0.5733,0.0000,0.0000,0.0000
27.0,-1.0480,1.3428,-0.0539,0.3735,0.0000,0.0000,0.0000,-0.6140,-0.4553,1.5272,0.5720,0.0000,0.0000,0.0000
27.1,-1.0642,1.3608,-0.0818,0.3727,0.0000,0.0000,0.0000,-0.6235,-0.4647,1.5387,0.5713,0.0000,0.0000,0.0000
27.2,-1.0682,1.3652,-0.0883,0.3723,0.0000,0.0000,0.0000,-0.6245,-0.4697,1.5410,0.5709,0.0000,0.0000,0.0000
27.3,-1.0675,1.3644,-0.0908,0.3720,0.0000,0.0000,0.0000,-0.6247,-0.4729,1.5423,0.5706,0.0000,0.0000,0.0000
27.4,-1.0557,1.3471,-0.0515,0.3718,0.0000,0.0000,0.0000,-0.6219,-0.4738,1.5415,0.5705,0.0000,0.0000,0.0000
27.5,-1.0573,1.3479,-0.0413,0.3717,0.0000,0.0000,0.0000,-0.6207,-0.4764,1.5449,0.5704,0.0000,0.0000,0.0000
27.6,-1.0543,1.3421,-0.0164,0.3716,0.0000,0.0000,0.0000,-0.6199,-0.4766,1.5418,0.5703,0.0000,0.0000,0.0000
27.7,-1.0502,1.3326,0.0184,0.3716,0.0000,0.0000,0.0000,-0.6232,-0.4765,1.5356,0.5703,0.0000,0.0000,0.0000
27.8,-1.0455,1.3235,0.0443,0.3716,0.0000,0.0000,0.0000,-0.6275,-0.4759,1.5259,0.5703,0.0000,0.0000,0.0000
27.9,-1.0400,1.3130,0.0691,0.3716,0.0000,0.0000,0.0000,-0.6310,-0.4743,1.5184,0.5703,0.0000,0.0000,0.0000
28.0,-1.0295,1.2960,0.0921,0.3716,0.0000,0.0000,0.0000,-0.6299,-0.4736,1.5138,0.5703,0.0000,0.0000,0.0000
28.1,-1.0206,1.2828,0.1062,0.3716,0.0000,0.0000,0.0000,-0.6289,-0.4744,1.5120,0.5703,0.0000,0.0000,0.0000
28.2,-1.0133,1.2728,0.1142,0.3715,0.0000,0.0000,0.0000,-0.6279,-0.4757,1.5120,0.5703,0.0000,0.0000,0.0000
28.3,-1.0081,1.2660,0.1197,0.3715,0.0000,0.0000,0.0000,-0.6224,-0.4739,1.5109,0.5703,0.0000,0.0000,0.0000
28.4,-1.0048,1.2607,0.1304,0.3715,0.0000,0.0000,0.0000,-0.6179,-0.4732,1.5110,0.5703,0.0000,0.0000,0.0000
28.5,-1.0023,1.2575,0.1364,0.3715,0.0000,0.0000,0.0000,-0.6122,-0.4741,1.5114,0.5703,0.0000,0.0000,0.0000
28.6,-1.0019,1.2550,0.1430,0.3715,0.0000,0.0000,0.0000,-0.6138,-0.4727,1.5111,0.5703,0.0000,0.0000,0.0000
28.7,-1.0012,1.2435,0.1686,0.3715,0.0000,0.0000,0.0000,-0.6126,-0.4612,1.5041,0.5703,0.0000,0.0000,0.0000
28.8,-0.9680,1.1855,0.2196,0.3715,0.0000,0.0000,0.0000,-0.5970,-0.4264,1.4798,0.5703,0.0000,0.0000,0.0000
28.9,-0.8057,0.9915,0.4147,0.3715,0.0000,0.0000,0.0000,-0.5459,-0.3970,1.4463,0.5703,0.0000,0.0000,0.0000
29.0,-0.6241,0.8194,0.6112,0.3715,0.0000,0.0000,0.0000,-0.4282,-0.3621,1.3983,0.5703,0.0000,0.0000,0.0000
29.1,-0.3614,0.6453,0.9092,0.3715,0.0000,0.0000,0.0000,-0.2410,-0.3853,1.4201,0.5703,0.0000,0.0000,0.0000
29.2,-0.1551,0.4943,1.2442,0.5748,0.0000,0.0000,0.0000,-0.1044,-0.4132,1.4349,0.6567,0.0000,0.0000,0.0000
29.3,0.0956,0.4019,1.7085,0.8012,0.0000,0.0000,0.0000,0.0697,-0.4355,1.4132,0.9324,0.0000,0.0000,0.0000
29.4,0.2845,0.3352,2.0205,0.9688,0.0000,0.0000,0.0000,0.1999,-0.4437,1.4851,1.1260,0.0000,0.0000,0.0000
29.5,0.3929,0.2896,2.4627,1.0759,0.0000,0.0000,0.0000,0.2815,-0.4414,1.7548,1.2577,0.0000,0.0000,0.0000
29.6,0.4703,0.2557,2.6936,1.1450,0.0000,0.0000,0.0000,0.3378,-0.4356,1.9882,1.3283,0.0000,0.0000,0.0000
29.7,0.5164,0.2302,2.8204,1.1937,0.0000,0.0000,0.0000,0.3714,-0.4308,2.1076,1.3605,0.0000,0.0000,0.0000
29.8,0.5499,0.2144,2.8821,1.2296,0.0000,0.0000,0.0000,0.3931,-0.4266,2.1787,1.3745,0.0000,0.0000,0.0000
29.9,0.5625,0.2040,2.9871,1.2485,0.0000,0.0000,0.0000,0.4017,-0.4274,2.2136,1.3969,0.0000,0.0000,0.0000
30.0,0.5713,0.1997,3.0809,1.2548,0.0000,0.0000,0.0000,0.4050,-0.4295,2.1846,1.4197,0.0000,0.0000,0.0000
30.1,0.5624,0.2011,2.9913,1.2505,0.0000,0.0000,0.0000,0.3908,-0.4366,2.1062,1.4287,0.0000,0.0000,0.0000
30.2,0.5238,0.1996,2.7634,1.2436,0.0000,0.0000,0.0000,0.3737,-0.4463,1.8980,1.4226,0.0000,0.0000,0.0000
30.3,0.4839,0.2080,2.6691,1.2071,0.0000,0.0000,0.0000,0.3620,-0.4541,1.5875,1.4048,0.0000,0.0000,0.0000
30.4,0.4270,0.2138,2.5464,1.1524,0.0000,0.0000,0.0000,0.3507,-0.4617,1.3122,1.3540,0.0000,0.0000,0.0000
30.5,0.3650,0.2188,2.3516,1.0728,0.0000,0.0000,0.0000,0.3035,-0.4668,1.0699,1.2355,0.0000,0.0000,0.0000
30.6,0.3044,0.2149,2.1725,1.0007,0.0000,0.0000,0.0000,0.2424,-0.4575,0.8877,1.1253,0.0000,0.0000,0.0000
