RuntimeTerror1001/Real-Steel/robot_motion_20250430-235447.csv
timestamp,left_shoulder_pitch_joint,left_shoulder_roll_joint,left_shoulder_yaw_joint,left_elbow_joint,left_wrist_roll_joint,left_wrist_pitch_joint,left_wrist_yaw_joint,right_shoulder_pitch_joint,right_shoulder_roll_joint,right_shoulder_yaw_joint,right_elbow_joint,right_wrist_roll_joint,right_wrist_pitch_joint,right_wrist_yaw_joint
0.0,0.3472,0.3741,0.0000,1.5112,0.0000,0.0000,0.0000,0.0560,-0.1682,0.0000,1.1445,0.0000,0.0000,0.0000
0.1,0.3793,0.3421,0.0000,1.4862,0.0000,0.0000,0.0000,0.0503,-0.1187,0.0000,1.1466,0.0000,0.0000,0.0000
0.2,0.4523,0.3189,0.0000,1.5001,0.0000,0.0000,0.0000,0.0520,-0.0787,0.0000,1.1606,0.0000,0.0000,0.0000
0.3,0.4851,0.3011,0.0000,1.4863,0.0000,0.0000,0.0000,0.0497,-0.0474,0.0000,1.1833,0.0000,0.0000,0.0000
0.4,0.4893,0.2913,0.0000,1.5079,0.0000,0.0000,0.0000,0.1056,-0.0609,0.0000,1.2173,0.0000,0.0000,0.0000
0.5,0.4830,0.2824,0.0000,1.5293,0.0000,0.0000,0.0000,0.1490,-0.0866,0.0000,1.2203,0.0000,0.0000,0.0000
0.6,0.4876,0.2751,0.0000,1.5367,0.0000,0.0000,0.0000,0.2127,-0.1244,0.0000,1.2452,0.0000,0.0000,0.0000
0.7,0.4839,0.2697,0.0000,1.5457,0.0000,0.0000,0.0000,0.2183,-0.1320,0.0000,1.2481,0.0000,0.0000,0.0000
0.8,0.4819,0.2656,0.0000,1.5492,0.0000,0.0000,0.0000,0.2156,-0.1368,0.0000,1.2470,0.0000,0.0000,0.0000
0.9,0.5045,0.2636,0.0000,1.5287,0.0000,0.0000,0.0000,0.2120,-0.1430,0.0000,1.2562,0.0000,0.0000,0.0000
1.0,0.5243,0.2619,0.0000,1.5273,0.0000,0.0000,0.0000,0.2133,-0.1476,0.0000,1.2571,0.0000,0.0000,0.0000
1.1,0.5285,0.2618,0.0000,1.5251,0.0000,0.0000,0.0000,0.2112,-0.1505,0.0000,1.2550,0.0000,0.0000,0.0000
1.2,0.5222,0.2612,0.0000,1.5242,0.0000,0.0000,0.0000,0.2001,-0.1517,0.0000,1.2527,0.0000,0.0000,0.0000
1.3,0.5219,0.2595,0.0000,1.5140,0.0000,0.0000,0.0000,0.1949,-0.1533,0.0000,1.2520,0.0000,0.0000,0.0000
1.4,0.5240,0.2575,0.0000,1.5068,0.0000,0.0000,0.0000,0.1925,-0.1553,0.0000,1.2542,0.0000,0.0000,0.0000
1.5,0.5247,0.2543,0.0000,1.5012,0.0000,0.0000,0.0000,0.1933,-0.1580,0.0000,1.2578,0.0000,0.0000,0.0000
1.6,0.5293,0.2489,0.0000,1.5047,0.0000,0.0000,0.0000,0.1902,-0.1609,0.0000,1.2610,0.0000,0.0000,0.0000
1.7,0.5216,0.2453,0.0000,1.5096,0.0000,0.0000,0.0000,0.1904,-0.1630,0.0000,1.2628,0.0000,0.0000,0.0000
1.8,0.5105,0.2410,0.0000,1.5074,0.0000,0.0000,0.0000,0.1919,-0.1643,0.0000,1.2578,0.0000,0.0000,0.0000
1.9,0.5012,0.2369,0.0000,1.5027,0.0000,0.0000,0.0000,0.1906,-0.1652,0.0000,1.2551,0.0000,0.0000,0.0000
2.0,0.4930,0.2336,0.0000,1.4950,0.0000,0.0000,0.0000,0.1915,-0.1653,0.0000,1.2518,0.0000,0.0000,0.0000
2.1,0.4883,0.2321,0.0000,1.4896,0.0000,0.0000,0.0000,0.1922,-0.1646,0.0000,1.2499,0.0000,0.0000,0.0000
2.2,0.4842,0.2310,0.0000,1.4859,0.0000,0.0000,0.0000,0.1902,-0.1636,0.0000,1.2482,0.0000,0.0000,0.0000
2.3,0.4806,0.2299,0.0000,1.4841,0.0000,0.0000,0.0000,0.1872,-0.1622,0.0000,1.2473,0.0000,0.0000,0.0000
2.4,0.4786,0.2289,0.0000,1.4843,0.0000,0.0000,0.0000,0.1818,-0.1598,0.0000,1.2464,0.0000,0.0000,0.0000
2.5,0.4765,0.2270,0.0000,1.4847,0.0000,0.0000,0.0000,0.1700,-0.1576,0.0000,1.2485,0.0000,0.0000,0.0000
2.6,0.4754,0.2260,0.0000,1.4849,0.0000,0.0000,0.0000,0.1587,-0.1559,0.0000,1.2486,0.0000,0.0000,0.0000
2.7,0.4804,0.2248,0.0000,1.4847,0.0000,0.0000,0.0000,0.1547,-0.1540,0.0000,1.2479,0.0000,0.0000,0.0000
2.8,0.4859,0.2241,0.0000,1.4810,0.0000,0.0000,0.0000,0.1532,-0.1520,0.0000,1.2469,0.0000,0.0000,0.0000
2.9,0.4903,0.2229,0.0000,1.4815,0.0000,0.0000,0.0000,0.1515,-0.1503,0.0000,1.2468,0.0000,0.0000,0.0000
3.0,0.4998,0.2221,0.0000,1.4876,0.0000,0.0000,0.0000,0.1582,-0.1483,0.0000,1.2433,0.0000,0.0000,0.0000
3.1,0.5047,0.2223,0.0000,1.5085,0.0000,0.0000,0.0000,0.1736,-0.1436,0.0000,1.2295,0.0000,0.0000,0.0000
3.2,0.5070,0.2260,0.0000,1.5121,0.0000,0.0000,0.0000,0.1702,-0.1425,0.0000,1.2214,0.0000,0.0000,0.0000
3.3,0.4798,0.2311,0.0000,1.5094,0.0000,0.0000,0.0000,0.1471,-0.1481,0.0000,1.2313,0.0000,0.0000,0.0000
3.4,0.4466,0.2341,0.0000,1.5078,0.0000,0.0000,0.0000,0.1269,-0.1613,0.0000,1.2393,0.0000,0.0000,0.0000
3.5,0.4298,0.2394,0.0000,1.5086,0.0000,0.0000,0.0000,0.1165,-0.1790,0.0000,1.2500,0.0000,0.0000,0.0000
3.6,0.4230,0.2436,0.0000,1.5125,0.0000,0.0000,0.0000,0.1038,-0.2035,0.0000,1.2427,0.0000,0.0000,0.0000
3.7,0.4191,0.2450,0.0000,1.5089,0.0000,0.0000,0.0000,0.1369,-0.2468,0.0000,1.2410,0.0000,0.0000,0.0000
3.8,0.4370,0.2482,0.0000,1.5247,0.0000,0.0000,0.0000,0.1171,-0.3165,0.0000,1.0374,0.0000,0.0000,0.0000
3.9,0.4309,0.2483,0.0000,1.5293,0.0000,0.0000,0.0000,0.0240,-0.3770,0.0000,0.8793,0.0000,0.0000,0.0000
4.0,0.4377,0.2477,0.0000,1.5513,0.0000,0.0000,0.0000,-0.1919,-0.3977,0.0000,0.8362,0.0000,0.0000,0.0000
4.1,0.4465,0.2476,0.0000,1.5706,0.0000,0.0000,0.0000,-0.4177,-0.4647,0.0000,0.7870,0.0000,0.0000,0.0000
4.2,0.4528,0.2481,0.0000,1.5833,0.0000,0.0000,0.0000,-0.6223,-0.6178,0.0000,0.7102,0.0000,0.0000,0.0000
4.3,0.4583,0.2483,0.0000,1.5885,0.0000,0.0000,0.0000,-0.8355,-0.9390,0.0000,0.6866,0.0000,0.0000,0.0000
4.4,0.4617,0.2499,0.0000,1.5953,0.0000,0.0000,0.0000,-1.0559,-1.3273,0.0000,0.7031,0.0000,0.0000,0.0000
4.5,0.4658,0.2535,0.0000,1.6144,0.0000,0.0000,0.0000,-1.2743,-1.6027,0.0000,0.6772,0.0000,0.0000,0.0000
4.6,0.4838,0.2607,0.0000,1.6192,0.0000,0.0000,0.0000,-1.5005,-1.7954,0.0000,0.6835,0.0000,0.0000,0.0000
4.7,0.5185,0.2712,0.0000,1.6110,0.0000,0.0000,0.0000,-1.6737,-1.9303,0.0000,0.7336,0.0000,0.0000,0.0000
4.8,0.5775,0.2942,0.0000,1.5880,0.0000,0.0000,0.0000,-1.9347,-2.0909,0.0000,0.8090,0.0000,0.0000,0.0000
4.9,0.6155,0.3046,0.0000,1.5539,0.0000,0.0000,0.0000,-2.0762,-2.1371,0.0000,0.8581,0.0000,0.0000,0.0000
5.0,0.6428,0.3145,0.0000,1.5287,0.0000,0.0000,0.0000,-2.1811,-2.1695,0.0000,0.8899,0.0000,0.0000,0.0000
5.1,0.6586,0.3210,0.0000,1.5157,0.0000,0.0000,0.0000,-2.1756,-2.1922,0.0000,0.8767,0.0000,0.0000,0.0000
5.2,0.6616,0.3251,0.0000,1.5068,0.0000,0.0000,0.0000,-2.1746,-2.2081,0.0000,0.8642,0.0000,0.0000,0.0000
5.3,0.6581,0.3268,0.0000,1.4982,0.0000,0.0000,0.0000,-2.1882,-2.2192,0.0000,0.8612,0.0000,0.0000,0.0000
5.4,0.6470,0.3281,0.0000,1.4893,0.0000,0.0000,0.0000,-2.2259,-2.2270,0.0000,0.8654,0.0000,0.0000,0.0000
5.5,0.6244,0.3306,0.0000,1.4704,0.0000,0.0000,0.0000,-2.2618,-2.2324,0.0000,0.8657,0.0000,0.0000,0.0000
5.6,0.6160,0.3313,0.0000,1.4400,0.0000,0.0000,0.0000,-2.2838,-2.2362,0.0000,0.8571,0.0000,0.0000,0.0000
5.7,0.6298,0.3308,0.0000,1.4179,0.0000,0.0000,0.0000,-2.2860,-2.2389,0.0000,0.8566,0.0000,0.0000,0.0000
5.8,0.6409,0.3277,0.0000,1.4170,0.0000,0.0000,0.0000,-2.2375,-2.2408,0.0000,0.8520,0.0000,0.0000,0.0000
5.9,0.5935,0.3163,0.0000,1.4507,0.0000,0.0000,0.0000,-2.1774,-2.2430,0.0000,0.8727,0.0000,0.0000,0.0000
6.0,0.5953,0.3062,0.0000,1.4681,0.0000,0.0000,0.0000,-2.1641,-2.2436,0.0000,0.8800,0.0000,0.0000,0.0000
6.1,0.5981,0.2960,0.0000,1.4625,0.0000,0.0000,0.0000,-2.1594,-2.2441,0.0000,0.8846,0.0000,0.0000,0.0000
6.2,0.6006,0.2887,0.0000,1.4493,0.0000,0.0000,0.0000,-2.1556,-2.2444,0.0000,0.8798,0.0000,0.0000,0.0000
6.3,0.6013,0.2835,0.0000,1.4437,0.0000,0.0000,0.0000,-2.1559,-2.2446,0.0000,0.8827,0.0000,0.0000,0.0000
6.4,0.5848,0.2824,0.0000,1.4564,0.0000,0.0000,0.0000,-2.0084,-2.2448,0.0000,0.8425,0.0000,0.0000,0.0000
6.5,0.5738,0.2839,0.0000,1.4861,0.0000,0.0000,0.0000,-1.8291,-2.2035,0.0000,0.7379,0.0000,0.0000,0.0000
6.6,0.5511,0.2833,0.0000,1.5115,0.0000,0.0000,0.0000,-1.5651,-1.6627,0.0000,0.6677,0.0000,0.0000,0.0000
6.7,0.5143,0.2791,0.0000,1.5235,0.0000,0.0000,0.0000,-1.3156,-1.2396,0.0000,0.6571,0.0000,0.0000,0.0000
6.8,0.4576,0.2601,0.0000,1.5396,0.0000,0.0000,0.0000,-0.7175,-0.7745,0.0000,0.8893,0.0000,0.0000,0.0000
6.9,0.4359,0.2505,0.0000,1.5418,0.0000,0.0000,0.0000,-0.5105,-0.6179,0.0000,1.0286,0.0000,0.0000,0.0000
7.0,0.4312,0.2427,0.0000,1.5312,0.0000,0.0000,0.0000,-0.3532,-0.5020,0.0000,1.1253,0.0000,0.0000,0.0000
7.1,0.4299,0.2385,0.0000,1.5225,0.0000,0.0000,0.0000,-0.2177,-0.4148,0.0000,1.1864,0.0000,0.0000,0.0000
7.2,0.4374,0.2366,0.0000,1.5128,0.0000,0.0000,0.0000,-0.1042,-0.3498,0.0000,1.2270,0.0000,0.0000,0.0000
7.3,0.4383,0.2348,0.0000,1.5096,0.0000,0.0000,0.0000,-0.0255,-0.3044,0.0000,1.2512,0.0000,0.0000,0.0000
7.4,0.4503,0.2337,0.0000,1.5138,0.0000,0.0000,0.0000,0.0361,-0.2704,0.0000,1.2637,0.0000,0.0000,0.0000
7.5,0.4614,0.2329,0.0000,1.5185,0.0000,0.0000,0.0000,0.0753,-0.2437,0.0000,1.2741,0.0000,0.0000,0.0000
7.6,0.4721,0.2323,0.0000,1.5206,0.0000,0.0000,0.0000,0.1026,-0.2216,0.0000,1.2775,0.0000,0.0000,0.0000
7.7,0.4860,0.2321,0.0000,1.5274,0.0000,0.0000,0.0000,0.1247,-0.2064,0.0000,1.2812,0.0000,0.0000,0.0000
7.8,0.4950,0.2310,0.0000,1.5327,0.0000,0.0000,0.0000,0.1411,-0.1973,0.0000,1.2902,0.0000,0.0000,0.0000
7.9,0.4980,0.2301,0.0000,1.5365,0.0000,0.0000,0.0000,0.1499,-0.1890,0.0000,1.2998,0.0000,0.0000,0.0000
8.0,0.4974,0.2289,0.0000,1.5373,0.0000,0.0000,0.0000,0.1619,-0.1833,0.0000,1.3053,0.0000,0.0000,0.0000
8.1,0.5024,0.2276,0.0000,1.5397,0.0000,0.0000,0.0000,0.1713,-0.1775,0.0000,1.3068,0.0000,0.0000,0.0000
8.2,0.5075,0.2264,0.0000,1.5436,0.0000,0.0000,0.0000,0.1765,-0.1724,0.0000,1.3079,0.0000,0.0000,0.0000
8.3,0.5094,0.2258,0.0000,1.5434,0.0000,0.0000,0.0000,0.1849,-0.1674,0.0000,1.3074,0.0000,0.0000,0.0000
8.4,0.5117,0.2265,0.0000,1.5430,0.0000,0.0000,0.0000,0.1930,-0.1641,0.0000,1.3081,0.0000,0.0000,0.0000
8.5,0.5125,0.2329,0.0000,1.5420,0.0000,0.0000,0.0000,0.1945,-0.1622,0.0000,1.3115,0.0000,0.0000,0.0000
8.6,0.5029,0.2456,0.0000,1.5386,0.0000,0.0000,0.0000,0.1897,-0.1598,0.0000,1.3144,0.0000,0.0000,0.0000
8.7,0.4817,0.3782,0.0000,1.5380,0.0000,0.0000,0.0000,0.1879,-0.1639,0.0000,1.3096,0.0000,0.0000,0.0000
8.8,0.3078,0.5001,0.0000,1.3661,0.0000,0.0000,0.0000,0.1797,-0.1654,0.0000,1.3102,0.0000,0.0000,0.0000
8.9,-0.0319,0.6623,0.0000,1.1827,0.0000,0.0000,0.0000,0.1667,-0.1659,0.0000,1.3068,0.0000,0.0000,0.0000
9.0,-0.4123,0.9869,0.0000,1.0605,0.0000,0.0000,0.0000,0.1596,-0.1636,0.0000,1.2972,0.0000,0.0000,0.0000
9.1,-0.7928,1.3448,0.0000,1.0231,0.0000,0.0000,0.0000,0.1582,-0.1604,0.0000,1.2830,0.0000,0.0000,0.0000
9.2,-1.1710,1.5953,0.0000,1.0557,0.0000,0.0000,0.0000,0.1560,-0.1585,0.0000,1.2762,0.0000,0.0000,0.0000
9.3,-1.5205,1.7706,0.0000,1.0771,0.0000,0.0000,0.0000,0.1462,-0.1581,0.0000,1.2716,0.0000,0.0000,0.0000
9.4,-1.7974,1.8934,0.0000,1.0936,0.0000,0.0000,0.0000,0.1394,-0.1580,0.0000,1.2686,0.0000,0.0000,0.0000
9.5,-1.9920,1.9793,0.0000,1.1198,0.0000,0.0000,0.0000,0.1345,-0.1565,0.0000,1.2611,0.0000,0.0000,0.0000
9.6,-2.1369,2.0394,0.0000,1.1485,0.0000,0.0000,0.0000,0.1312,-0.1538,0.0000,1.2526,0.0000,0.0000,0.0000
9.7,-2.2384,2.0815,0.0000,1.1519,0.0000,0.0000,0.0000,0.1215,-0.1525,0.0000,1.2506,0.0000,0.0000,0.0000
9.8,-2.3032,2.1110,0.0000,1.1641,0.0000,0.0000,0.0000,0.1164,-0.1519,0.0000,1.2465,0.0000,0.0000,0.0000
9.9,-2.3408,2.1316,0.0000,1.1777,0.0000,0.0000,0.0000,0.1231,-0.1530,0.0000,1.2409,0.0000,0.0000,0.0000
10.0,-2.3686,2.1461,0.0000,1.1792,0.0000,0.0000,0.0000,0.1247,-0.1549,0.0000,1.2375,0.0000,0.0000,0.0000
10.1,-2.3793,2.1562,0.0000,1.1741,0.0000,0.0000,0.0000,0.1212,-0.1569,0.0000,1.2334,0.0000,0.0000,0.0000
10.2,-2.3917,2.1633,0.0000,1.1829,0.0000,0.0000,0.0000,0.1196,-0.1584,0.0000,1.2308,0.0000,0.0000,0.0000
10.3,-2.3917,2.1682,0.0000,1.1800,0.0000,0.0000,0.0000,0.1151,-0.1598,0.0000,1.2312,0.0000,0.0000,0.0000
10.4,-2.3827,2.1717,0.0000,1.1735,0.0000,0.0000,0.0000,0.1109,-0.1603,0.0000,1.2315,0.0000,0.0000,0.0000
10.5,-2.3786,2.1741,0.0000,1.1653,0.0000,0.0000,0.0000,0.1076,-0.1609,0.0000,1.2332,0.0000,0.0000,0.0000
10.6,-2.3872,2.1758,0.0000,1.1152,0.0000,0.0000,0.0000,0.0980,-0.1606,0.0000,1.2340,0.0000,0.0000,0.0000
10.7,-2.3902,2.1770,0.0000,1.0916,0.0000,0.0000,0.0000,0.0937,-0.1601,0.0000,1.2338,0.0000,0.0000,0.0000
10.8,-2.3957,2.1778,0.0000,1.0787,0.0000,0.0000,0.0000,0.0913,-0.1603,0.0000,1.2339,0.0000,0.0000,0.0000
10.9,-2.3963,2.1784,0.0000,1.0648,0.0000,0.0000,0.0000,0.0878,-0.1606,0.0000,1.2323,0.0000,0.0000,0.0000
11.0,-2.4037,2.1788,0.0000,1.0434,0.0000,0.0000,0.0000,0.0837,-0.1608,0.0000,1.2288,0.0000,0.0000,0.0000
11.1,-2.4034,2.1791,0.0000,1.0305,0.0000,0.0000,0.0000,0.0844,-0.1627,0.0000,1.2257,0.0000,0.0000,0.0000
11.2,-2.3985,2.1793,0.0000,1.0557,0.0000,0.0000,0.0000,0.0876,-0.1647,0.0000,1.2235,0.0000,0.0000,0.0000
11.3,-2.3920,2.1794,0.0000,1.0609,0.0000,0.0000,0.0000,0.0880,-0.1681,0.0000,1.2276,0.0000,0.0000,0.0000
11.4,-2.3859,2.1795,0.0000,1.0594,0.0000,0.0000,0.0000,0.0890,-0.1664,0.0000,1.2296,0.0000,0.0000,0.0000
11.5,-2.1116,2.1371,0.0000,0.9847,0.0000,0.0000,0.0000,0.0911,-0.1613,0.0000,1.2300,0.0000,0.0000,0.0000
11.6,-1.7456,1.7986,0.0000,0.9184,0.0000,0.0000,0.0000,0.0978,-0.1502,0.0000,1.2338,0.0000,0.0000,0.0000
11.7,-1.3698,1.5003,0.0000,0.8855,0.0000,0.0000,0.0000,0.1191,-0.1408,0.0000,1.2425,0.0000,0.0000,0.0000
11.8,-1.0357,1.2164,0.0000,0.9942,0.0000,0.0000,0.0000,0.1270,-0.1320,0.0000,1.2501,0.0000,0.0000,0.0000
11.9,-0.5869,0.9706,0.0000,1.0954,0.0000,0.0000,0.0000,0.1335,-0.1251,0.0000,1.2585,0.0000,0.0000,0.0000
12.0,-0.2481,0.7892,0.0000,1.1878,0.0000,0.0000,0.0000,0.1346,-0.1147,0.0000,1.2665,0.0000,0.0000,0.0000
12.1,-0.0224,0.6571,0.0000,1.2652,0.0000,0.0000,0.0000,0.1349,-0.1075,0.0000,1.2705,0.0000,0.0000,0.0000
12.2,0.1298,0.5587,0.0000,1.3221,0.0000,0.0000,0.0000,0.1383,-0.1022,0.0000,1.2759,0.0000,0.0000,0.0000
12.3,0.2308,0.4879,0.0000,1.3628,0.0000,0.0000,0.0000,0.1413,-0.0995,0.0000,1.2865,0.0000,0.0000,0.0000
12.4,0.2999,0.4378,0.0000,1.3958,0.0000,0.0000,0.0000,0.1412,-0.0979,0.0000,1.2961,0.0000,0.0000,0.0000
12.5,0.3547,0.3980,0.0000,1.4247,0.0000,0.0000,0.0000,0.1416,-0.0976,0.0000,1.3016,0.0000,0.0000,0.0000
12.6,0.4007,0.3670,0.0000,1.4467,0.0000,0.0000,0.0000,0.1507,-0.0989,0.0000,1.3053,0.0000,0.0000,0.0000
12.7,0.4235,0.3435,0.0000,1.4524,0.0000,0.0000,0.0000,0.1537,-0.1013,0.0000,1.3093,0.0000,0.0000,0.0000
12.8,0.4557,0.3266,0.0000,1.4678,0.0000,0.0000,0.0000,0.1542,-0.1034,0.0000,1.3116,0.0000,0.0000,0.0000
12.9,0.4747,0.3129,0.0000,1.4793,0.0000,0.0000,0.0000,0.1536,-0.1057,0.0000,1.3115,0.0000,0.0000,0.0000
13.0,0.4931,0.2994,0.0000,1.4918,0.0000,0.0000,0.0000,0.1544,-0.1083,0.0000,1.3136,0.0000,0.0000,0.0000
13.1,0.5046,0.2882,0.0000,1.5034,0.0000,0.0000,0.0000,0.1571,-0.1105,0.0000,1.3136,0.0000,0.0000,0.0000
13.2,0.5112,0.2801,0.0000,1.5155,0.0000,0.0000,0.0000,0.1589,-0.1137,0.0000,1.3062,0.0000,0.0000,0.0000
13.3,0.5141,0.2751,0.0000,1.5275,0.0000,0.0000,0.0000,0.1601,-0.1274,0.0000,1.2884,0.0000,0.0000,0.0000
13.4,0.5127,0.2720,0.0000,1.5384,0.0000,0.0000,0.0000,0.1587,-0.1532,0.0000,1.2615,0.0000,0.0000,0.0000
13.5,0.5153,0.2674,0.0000,1.5442,0.0000,0.0000,0.0000,0.1492,-0.1953,0.0000,1.2174,0.0000,0.0000,0.0000
13.6,0.5137,0.2641,0.0000,1.5481,0.0000,0.0000,0.0000,0.1354,-0.2486,0.0000,1.1837,0.0000,0.0000,0.0000
13.7,0.5161,0.2612,0.0000,1.5515,0.0000,0.0000,0.0000,0.1197,-0.3169,0.0000,1.1437,0.0000,0.0000,0.0000
13.8,0.5215,0.2589,0.0000,1.5511,0.0000,0.0000,0.0000,0.0947,-0.3846,0.0000,1.1107,0.0000,0.0000,0.0000
13.9,0.5207,0.2544,0.0000,1.5599,0.0000,0.0000,0.0000,0.0623,-0.4563,0.0000,1.0658,0.0000,0.0000,0.0000
14.0,0.5181,0.2502,0.0000,1.5675,0.0000,0.0000,0.0000,0.0309,-0.5333,0.0000,1.0296,0.0000,0.0000,0.0000
14.1,0.5175,0.2465,0.0000,1.5732,0.0000,0.0000,0.0000,0.0023,-0.6121,0.0000,1.0101,0.0000,0.0000,0.0000
14.2,0.5199,0.2442,0.0000,1.5778,0.0000,0.0000,0.0000,-0.0365,-0.7023,0.0000,1.0057,0.0000,0.0000,0.0000
14.3,0.5270,0.2429,0.0000,1.5847,0.0000,0.0000,0.0000,-0.0764,-0.7923,0.0000,1.0214,0.0000,0.0000,0.0000
14.4,0.5281,0.2424,0.0000,1.5779,0.0000,0.0000,0.0000,-0.1214,-0.8776,0.0000,1.0418,0.0000,0.0000,0.0000
14.5,0.5386,0.2423,0.0000,1.5850,0.0000,0.0000,0.0000,-0.1581,-0.9456,0.0000,1.0562,0.0000,0.0000,0.0000
14.6,0.5512,0.2421,0.0000,1.5997,0.0000,0.0000,0.0000,-0.1935,-0.9969,0.0000,1.0611,0.0000,0.0000,0.0000
14.7,0.5483,0.2415,0.0000,1.6090,0.0000,0.0000,0.0000,-0.2286,-1.0346,0.0000,1.0654,0.0000,0.0000,0.0000
14.8,0.5436,0.2414,0.0000,1.6105,0.0000,0.0000,0.0000,-0.2550,-1.0615,0.0000,1.0684,0.0000,0.0000,0.0000
14.9,0.5402,0.2417,0.0000,1.6121,0.0000,0.0000,0.0000,-0.2770,-1.0836,0.0000,1.0701,0.0000,0.0000,0.0000
15.0,0.5230,0.2433,0.0000,1.6046,0.0000,0.0000,0.0000,-0.2843,-1.0986,0.0000,1.0684,0.0000,0.0000,0.0000
15.1,0.5131,0.2441,0.0000,1.6048,0.0000,0.0000,0.0000,-0.2830,-1.0965,0.0000,1.0716,0.0000,0.0000,0.0000
15.2,0.5097,0.2452,0.0000,1.5974,0.0000,0.0000,0.0000,-0.2875,-1.0932,0.0000,1.0702,0.0000,0.0000,0.0000
15.3,0.5127,0.2459,0.0000,1.5900,0.0000,0.0000,0.0000,-0.2581,-1.0617,0.0000,1.0699,0.0000,0.0000,0.0000
15.4,0.5121,0.2459,0.0000,1.5906,0.0000,0.0000,0.0000,-0.1943,-0.9973,0.0000,1.0616,0.0000,0.0000,0.0000
15.5,0.5193,0.2442,0.0000,1.5960,0.0000,0.0000,0.0000,-0.1417,-0.9221,0.0000,1.0555,0.0000,0.0000,0.0000
15.6,0.5260,0.2443,0.0000,1.5886,0.0000,0.0000,0.0000,-0.0992,-0.8363,0.0000,1.0740,0.0000,0.0000,0.0000
15.7,0.5308,0.2445,0.0000,1.5841,0.0000,0.0000,0.0000,-0.0589,-0.7510,0.0000,1.0856,0.0000,0.0000,0.0000
15.8,0.5275,0.2449,0.0000,1.5888,0.0000,0.0000,0.0000,-0.0231,-0.6716,0.0000,1.1192,0.0000,0.0000,0.0000
15.9,0.5268,0.2460,0.0000,1.5861,0.0000,0.0000,0.0000,0.0078,-0.5823,0.0000,1.1304,0.0000,0.0000,0.0000
16.0,0.5248,0.2469,0.0000,1.5823,0.0000,0.0000,0.0000,0.0349,-0.4936,0.0000,1.1516,0.0000,0.0000,0.0000
16.1,0.5272,0.2497,0.0000,1.5743,0.0000,0.0000,0.0000,0.0568,-0.4231,0.0000,1.1875,0.0000,0.0000,0.0000
16.2,0.5279,0.2531,0.0000,1.5671,0.0000,0.0000,0.0000,0.0753,-0.3582,0.0000,1.2188,0.0000,0.0000,0.0000
16.3,0.5299,0.2565,0.0000,1.5649,0.0000,0.0000,0.0000,0.0941,-0.3090,0.0000,1.2483,0.0000,0.0000,0.0000
16.4,0.5342,0.2594,0.0000,1.5669,0.0000,0.0000,0.0000,0.1181,-0.2692,0.0000,1.2679,0.0000,0.0000,0.0000
16.5,0.5386,0.2614,0.0000,1.5705,0.0000,0.0000,0.0000,0.1381,-0.2343,0.0000,1.2865,0.0000,0.0000,0.0000
16.6,0.5499,0.2622,0.0000,1.5788,0.0000,0.0000,0.0000,0.1552,-0.2075,0.0000,1.2993,0.0000,0.0000,0.0000
16.7,0.5574,0.2627,0.0000,1.5821,0.0000,0.0000,0.0000,0.1710,-0.1887,0.0000,1.3095,0.0000,0.0000,0.0000
16.8,0.5602,0.2632,0.0000,1.5811,0.0000,0.0000,0.0000,0.1851,-0.1729,0.0000,1.3147,0.0000,0.0000,0.0000
16.9,0.5571,0.2631,0.0000,1.5754,0.0000,0.0000,0.0000,0.1997,-0.1549,0.0000,1.3178,0.0000,0.0000,0.0000
17.0,0.5457,0.2649,0.0000,1.5771,0.0000,0.0000,0.0000,0.2011,-0.1501,0.0000,1.3222,0.0000,0.0000,0.0000
17.1,0.5392,0.2841,0.0000,1.5798,0.0000,0.0000,0.0000,0.2021,-0.1457,0.0000,1.3189,0.0000,0.0000,0.0000
17.2,0.5403,0.3290,0.0000,1.5828,0.0000,0.0000,0.0000,0.2065,-0.1411,0.0000,1.3136,0.0000,0.0000,0.0000
17.3,0.5355,0.4151,0.0000,1.5819,0.0000,0.0000,0.0000,0.2077,-0.1417,0.0000,1.3195,0.0000,0.0000,0.0000
17.4,0.5194,0.5210,0.0000,1.5701,0.0000,0.0000,0.0000,0.2067,-0.1443,0.0000,1.3279,0.0000,0.0000,0.0000
17.5,0.5155,0.6417,0.0000,1.5581,0.0000,0.0000,0.0000,0.2092,-0.1469,0.0000,1.3282,0.0000,0.0000,0.0000
17.6,0.5168,0.7532,0.0000,1.5472,0.0000,0.0000,0.0000,0.2101,-0.1515,0.0000,1.3249,0.0000,0.0000,0.0000
17.7,0.4996,0.8739,0.0000,1.5282,0.0000,0.0000,0.0000,0.2099,-0.1582,0.0000,1.3182,0.0000,0.0000,0.0000
17.8,0.4776,0.9836,0.0000,1.5135,0.0000,0.0000,0.0000,0.2097,-0.1659,0.0000,1.3047,0.0000,0.0000,0.0000
17.9,0.4519,1.0820,0.0000,1.4999,0.0000,0.0000,0.0000,0.2043,-0.1723,0.0000,1.2978,0.0000,0.0000,0.0000
18.0,0.3981,1.2380,0.0000,1.4808,0.0000,0.0000,0.0000,0.1926,-0.1798,0.0000,1.2871,0.0000,0.0000,0.0000
18.1,0.2251,1.3098,0.0000,1.4710,0.0000,0.0000,0.0000,0.1901,-0.1813,0.0000,1.2832,0.0000,0.0000,0.0000
18.2,-0.2496,1.3680,0.0000,1.4628,0.0000,0.0000,0.0000,0.1964,-0.1808,0.0000,1.2778,0.0000,0.0000,0.0000
18.3,-0.8203,1.4158,0.0000,1.4569,0.0000,0.0000,0.0000,0.2073,-0.1797,0.0000,1.2701,0.0000,0.0000,0.0000
18.4,-1.3783,1.4557,0.0000,1.4538,0.0000,0.0000,0.0000,0.2178,-0.1789,0.0000,1.2645,0.0000,0.0000,0.0000
18.5,-1.7589,1.4858,0.0000,1.4525,0.0000,0.0000,0.0000,0.2253,-0.1782,0.0000,1.2597,0.0000,0.0000,0.0000
18.6,-2.0222,1.5066,0.0000,1.4530,0.0000,0.0000,0.0000,0.2312,-0.1770,0.0000,1.2544,0.0000,0.0000,0.0000
18.7,-2.1922,1.5225,0.0000,1.4513,0.0000,0.0000,0.0000,0.2357,-0.1752,0.0000,1.2490,0.0000,0.0000,0.0000
18.8,-2.2927,1.5338,0.0000,1.4501,0.0000,0.0000,0.0000,0.2388,-0.1732,0.0000,1.2436,0.0000,0.0000,0.0000
18.9,-2.3119,1.5395,0.0000,1.4508,0.0000,0.0000,0.0000,0.2381,-0.1717,0.0000,1.2409,0.0000,0.0000,0.0000
19.0,-2.2539,1.5401,0.0000,1.4507,0.0000,0.0000,0.0000,0.2366,-0.1707,0.0000,1.2380,0.0000,0.0000,0.0000
19.1,-2.1842,1.5377,0.0000,1.4510,0.0000,0.0000,0.0000,0.2355,-0.1703,0.0000,1.2360,0.0000,0.0000,0.0000
19.2,-2.1924,1.5333,0.0000,1.4503,0.0000,0.0000,0.0000,0.2345,-0.1709,0.0000,1.2340,0.0000,0.0000,0.0000
19.3,-1.4692,1.4959,0.0000,1.4518,0.0000,0.0000,0.0000,0.2304,-0.1741,0.0000,1.2352,0.0000,0.0000,0.0000
19.4,-0.9187,1.4391,0.0000,1.4562,0.0000,0.0000,0.0000,0.2274,-0.1789,0.0000,1.2375,0.0000,0.0000,0.0000
19.5,-0.5266,1.3663,0.0000,1.4569,0.0000,0.0000,0.0000,0.2267,-0.1827,0.0000,1.2391,0.0000,0.0000,0.0000
19.6,-0.2439,1.2697,0.0000,1.4573,0.0000,0.0000,0.0000,0.2281,-0.1863,0.0000,1.2422,0.0000,0.0000,0.0000
19.7,-0.0419,1.1742,0.0000,1.4587,0.0000,0.0000,0.0000,0.2286,-0.1882,0.0000,1.2480,0.0000,0.0000,0.0000
19.8,0.0936,1.0609,0.0000,1.4569,0.0000,0.0000,0.0000,0.2255,-0.1887,0.0000,1.2557,0.0000,0.0000,0.0000
19.9,0.1901,0.9352,0.0000,1.4683,0.0000,0.0000,0.0000,0.2226,-0.1891,0.0000,1.2649,0.0000,0.0000,0.0000
20.0,0.2615,0.8099,0.0000,1.4926,0.0000,0.0000,0.0000,0.2281,-0.1889,0.0000,1.2719,0.0000,0.0000,0.0000
20.1,0.3189,0.7029,0.0000,1.5136,0.0000,0.0000,0.0000,0.2332,-0.1853,0.0000,1.2825,0.0000,0.0000,0.0000
20.2,0.3601,0.6151,0.0000,1.5069,0.0000,0.0000,0.0000,0.2285,-0.1819,0.0000,1.2920,0.0000,0.0000,0.0000
20.3,0.3896,0.5351,0.0000,1.5105,0.0000,0.0000,0.0000,0.2229,-0.1787,0.0000,1.3039,0.0000,0.0000,0.0000
20.4,0.4101,0.4724,0.0000,1.5136,0.0000,0.0000,0.0000,0.2177,-0.1739,0.0000,1.3146,0.0000,0.0000,0.0000
20.5,0.4246,0.4193,0.0000,1.5173,0.0000,0.0000,0.0000,0.2129,-0.1684,0.0000,1.3235,0.0000,0.0000,0.0000
20.6,0.4343,0.3765,0.0000,1.5230,0.0000,0.0000,0.0000,0.2077,-0.1630,0.0000,1.3311,0.0000,0.0000,0.0000
20.7,0.4468,0.3425,0.0000,1.5244,0.0000,0.0000,0.0000,0.2061,-0.1578,0.0000,1.3344,0.0000,0.0000,0.0000
20.8,0.4589,0.3160,0.0000,1.5316,0.0000,0.0000,0.0000,0.2053,-0.1519,0.0000,1.3350,0.0000,0.0000,0.0000
20.9,0.4715,0.2932,0.0000,1.5396,0.0000,0.0000,0.0000,0.2052,-0.1477,0.0000,1.3348,0.0000,0.0000,0.0000
21.0,0.4841,0.2753,0.0000,1.5470,0.0000,0.0000,0.0000,0.2032,-0.1449,0.0000,1.3353,0.0000,0.0000,0.0000
21.1,0.4929,0.2649,0.0000,1.5531,0.0000,0.0000,0.0000,0.2017,-0.1442,0.0000,1.3365,0.0000,0.0000,0.0000
21.2,0.4997,0.2579,0.0000,1.5531,0.0000,0.0000,0.0000,0.1946,-0.1457,0.0000,1.3402,0.0000,0.0000,0.0000
21.3,0.5036,0.2533,0.0000,1.5546,0.0000,0.0000,0.0000,0.1904,-0.1449,0.0000,1.3395,0.0000,0.0000,0.0000
21.4,0.5112,0.2519,0.0000,1.5493,0.0000,0.0000,0.0000,0.1839,-0.1442,0.0000,1.3364,0.0000,0.0000,0.0000
21.5,0.5134,0.2521,0.0000,1.5458,0.0000,0.0000,0.0000,0.1759,-0.1438,0.0000,1.3301,0.0000,0.0000,0.0000
21.6,0.5112,0.2539,0.0000,1.5413,0.0000,0.0000,0.0000,0.1675,-0.1431,0.0000,1.3155,0.0000,0.0000,0.0000
21.7,0.5088,0.2554,0.0000,1.5384,0.0000,0.0000,0.0000,0.1649,-0.1452,0.0000,1.2960,0.0000,0.0000,0.0000
21.8,0.5033,0.2568,0.0000,1.5341,0.0000,0.0000,0.0000,0.1609,-0.1483,0.0000,1.2765,0.0000,0.0000,0.0000
21.9,0.4983,0.2568,0.0000,1.5329,0.0000,0.0000,0.0000,0.1579,-0.1515,0.0000,1.2602,0.0000,0.0000,0.0000
22.0,0.4911,0.2576,0.0000,1.5298,0.0000,0.0000,0.0000,0.1534,-0.1544,0.0000,1.2424,0.0000,0.0000,0.0000
22.1,0.4833,0.2579,0.0000,1.5290,0.0000,0.0000,0.0000,0.1470,-0.1566,0.0000,1.2278,0.0000,0.0000,0.0000
22.2,0.4768,0.2586,0.0000,1.5283,0.0000,0.0000,0.0000,0.1404,-0.1584,0.0000,1.2150,0.0000,0.0000,0.0000
22.3,0.4727,0.2602,0.0000,1.5290,0.0000,0.0000,0.0000,0.1353,-0.1596,0.0000,1.2020,0.0000,0.0000,0.0000
22.4,0.4700,0.2614,0.0000,1.5293,0.0000,0.0000,0.0000,0.1315,-0.1592,0.0000,1.1908,0.0000,0.0000,0.0000
22.5,0.4686,0.2626,0.0000,1.5303,0.0000,0.0000,0.0000,0.1287,-0.1581,0.0000,1.1804,0.0000,0.0000,0.0000
22.6,0.4668,0.2645,0.0000,1.5318,0.0000,0.0000,0.0000,0.1230,-0.1571,0.0000,1.1732,0.0000,0.0000,0.0000
22.7,0.4636,0.2668,0.0000,1.5342,0.0000,0.0000,0.0000,0.1166,-0.1564,0.0000,1.1683,0.0000,0.0000,0.0000
22.8,0.4609,0.2685,0.0000,1.5366,0.0000,0.0000,0.0000,0.1109,-0.1559,0.0000,1.1648,0.0000,0.0000,0.0000
22.9,0.4593,0.2697,0.0000,1.5393,0.0000,0.0000,0.0000,0.1067,-0.1558,0.0000,1.1621,0.0000,0.0000,0.0000
23.0,0.4577,0.2709,0.0000,1.5422,0.0000,0.0000,0.0000,0.1024,-0.1558,0.0000,1.1604,0.0000,0.0000,0.0000
23.1,0.4555,0.2720,0.0000,1.5436,0.0000,0.0000,0.0000,0.1003,-0.1558,0.0000,1.1582,0.0000,0.0000,0.0000
23.2,0.4539,0.2734,0.0000,1.5440,0.0000,0.0000,0.0000,0.0978,-0.1557,0.0000,1.1568,0.0000,0.0000,0.0000
23.3,0.4544,0.2746,0.0000,1.5433,0.0000,0.0000,0.0000,0.0960,-0.1552,0.0000,1.1554,0.0000,0.0000,0.0000
23.4,0.4588,0.2756,0.0000,1.5421,0.0000,0.0000,0.0000,0.0948,-0.1547,0.0000,1.1555,0.0000,0.0000,0.0000
23.5,0.4662,0.2776,0.0000,1.5422,0.0000,0.0000,0.0000,0.0973,-0.1556,0.0000,1.1569,0.0000,0.0000,0.0000
23.6,0.4774,0.2810,0.0000,1.5386,0.0000,0.0000,0.0000,0.1096,-0.1570,0.0000,1.1604,0.0000,0.0000,0.0000
23.7,0.4875,0.2830,0.0000,1.5371,0.0000,0.0000,0.0000,0.1229,-0.1580,0.0000,1.1717,0.0000,0.0000,0.0000
23.8,0.4953,0.2838,0.0000,1.5354,0.0000,0.0000,0.0000,0.1384,-0.1591,0.0000,1.1885,0.0000,0.0000,0.0000
23.9,0.4964,0.2840,0.0000,1.5364,0.0000,0.0000,0.0000,0.1507,-0.1603,0.0000,1.2104,0.0000,0.0000,0.0000
24.0,0.4965,0.2839,0.0000,1.5360,0.0000,0.0000,0.0000,0.1638,-0.1614,0.0000,1.2311,0.0000,0.0000,0.0000
24.1,0.4996,0.2837,0.0000,1.5368,0.0000,0.0000,0.0000,0.1763,-0.1622,0.0000,1.2459,0.0000,0.0000,0.0000
24.2,0.5069,0.2831,0.0000,1.5385,0.0000,0.0000,0.0000,0.1872,-0.1627,0.0000,1.2582,0.0000,0.0000,0.0000
24.3,0.5172,0.2825,0.0000,1.5401,0.0000,0.0000,0.0000,0.1981,-0.1632,0.0000,1.2672,0.0000,0.0000,0.0000
24.4,0.5227,0.2817,0.0000,1.5408,0.0000,0.0000,0.0000,0.2038,-0.1632,0.0000,1.2736,0.0000,0.0000,0.0000
24.5,0.5275,0.2810,0.0000,1.5419,0.0000,0.0000,0.0000,0.2076,-0.1635,0.0000,1.2785,0.0000,0.0000,0.0000
24.6,0.5295,0.2805,0.0000,1.5407,0.0000,0.0000,0.0000,0.2108,-0.1642,0.0000,1.2813,0.0000,0.0000,0.0000
24.7,0.5315,0.2802,0.0000,1.5398,0.0000,0.0000,0.0000,0.2130,-0.1647,0.0000,1.2822,0.0000,0.0000,0.0000
24.8,0.5325,0.2802,0.0000,1.5412,0.0000,0.0000,0.0000,0.2165,-0.1651,0.0000,1.2808,0.0000,0.0000,0.0000
24.9,0.5154,0.2771,0.0000,1.5421,0.0000,0.0000,0.0000,0.2119,-0.1650,0.0000,1.2817,0.0000,0.0000,0.0000
25.0,0.4989,0.2745,0.0000,1.5454,0.0000,0.0000,0.0000,0.2067,-0.1650,0.0000,1.2813,0.0000,0.0000,0.0000
25.1,0.4751,0.2743,0.0000,1.5398,0.0000,0.0000,0.0000,0.1988,-0.1654,0.0000,1.2815,0.0000,0.0000,0.0000
25.2,0.4627,0.2745,0.0000,1.5302,0.0000,0.0000,0.0000,0.1951,-0.1660,0.0000,1.2816,0.0000,0.0000,0.0000
25.3,0.4568,0.2742,0.0000,1.5155,0.0000,0.0000,0.0000,0.1930,-0.1667,0.0000,1.2816,0.0000,0.0000,0.0000
25.4,0.4525,0.2748,0.0000,1.4995,0.0000,0.0000,0.0000,0.1962,-0.1673,0.0000,1.2799,0.0000,0.0000,0.0000
25.5,0.4423,0.2754,0.0000,1.4864,0.0000,0.0000,0.0000,0.1963,-0.1673,0.0000,1.2784,0.0000,0.0000,0.0000
25.6,0.4352,0.2762,0.0000,1.4751,0.0000,0.0000,0.0000,0.1971,-0.1676,0.0000,1.2773,0.0000,0.0000,0.0000
25.7,0.4271,0.2782,0.0000,1.4650,0.0000,0.0000,0.0000,0.1985,-0.1673,0.0000,1.2759,0.0000,0.0000,0.0000
25.8,0.4205,0.2798,0.0000,1.4548,0.0000,0.0000,0.0000,0.1947,-0.1676,0.0000,1.2781,0.0000,0.0000,0.0000
25.9,0.4151,0.2819,0.0000,1.4466,0.0000,0.0000,0.0000,0.1909,-0.1680,0.0000,1.2805,0.0000,0.0000,0.0000
26.0,0.4093,0.2842,0.0000,1.4395,0.0000,0.0000,0.0000,0.1879,-0.1684,0.0000,1.2825,0.0000,0.0000,0.0000
26.1,0.4034,0.2870,0.0000,1.4348,0.0000,0.0000,0.0000,0.1849,-0.1682,0.0000,1.2831,0.0000,0.0000,0.0000
26.2,0.4000,0.2896,0.0000,1.4335,0.0000,0.0000,0.0000,0.1848,-0.1682,0.0000,1.2837,0.0000,0.0000,0.0000
26.3,0.4002,0.2917,0.0000,1.4337,0.0000,0.0000,0.0000,0.1881,-0.1683,0.0000,1.2832,0.0000,0.0000,0.0000
26.4,0.3991,0.2933,0.0000,1.4343,0.0000,0.0000,0.0000,0.1890,-0.1685,0.0000,1.2834,0.0000,0.0000,0.0000
26.5,0.3992,0.2941,0.0000,1.4350,0.0000,0.0000,0.0000,0.1912,-0.1687,0.0000,1.2838,0.0000,0.0000,0.0000
26.6,0.3992,0.2949,0.0000,1.4358,0.0000,0.0000,0.0000,0.1918,-0.1691,0.0000,1.2846,0.0000,0.0000,0.0000
26.7,0.3977,0.2947,0.0000,1.4373,0.0000,0.0000,0.0000,0.1913,-0.1690,0.0000,1.2856,0.0000,0.0000,0.0000
26.8,0.3958,0.2933,0.0000,1.4382,0.0000,0.0000,0.0000,0.1878,-0.1691,0.0000,1.2876,0.0000,0.0000,0.0000
26.9,0.3946,0.2924,0.0000,1.4390,0.0000,0.0000,0.0000,0.1855,-0.1692,0.0000,1.2888,0.0000,0.0000,0.0000
27.0,0.3947,0.2919,0.0000,1.4397,0.0000,0.0000,0.0000,0.1833,-0.1691,0.0000,1.2899,0.0000,0.0000,0.0000
27.1,0.3981,0.2916,0.0000,1.4435,0.0000,0.0000,0.0000,0.1816,-0.1681,0.0000,1.2888,0.0000,0.0000,0.0000
27.2,0.4006,0.2915,0.0000,1.4534,0.0000,0.0000,0.0000,0.1799,-0.1673,0.0000,1.2898,0.0000,0.0000,0.0000
27.3,0.4045,0.2912,0.0000,1.4704,0.0000,0.0000,0.0000,0.1790,-0.1660,0.0000,1.2913,0.0000,0.0000,0.0000
27.4,0.4102,0.2904,0.0000,1.4881,0.0000,0.0000,0.0000,0.1767,-0.1641,0.0000,1.2918,0.0000,0.0000,0.0000
27.5,0.4489,0.2844,0.0000,1.5353,0.0000,0.0000,0.0000,0.1816,-0.1610,0.0000,1.2898,0.0000,0.0000,0.0000
27.6,0.4619,0.2821,0.0000,1.5527,0.0000,0.0000,0.0000,0.1827,-0.1598,0.0000,1.2898,0.0000,0.0000,0.0000
27.7,0.4722,0.2802,0.0000,1.5624,0.0000,0.0000,0.0000,0.1819,-0.1590,0.0000,1.2915,0.0000,0.0000,0.0000
27.8,0.4802,0.2781,0.0000,1.5674,0.0000,0.0000,0.0000,0.1794,-0.1586,0.0000,1.2937,0.0000,0.0000,0.0000
27.9,0.4880,0.2766,0.0000,1.5711,0.0000,0.0000,0.0000,0.1771,-0.1584,0.0000,1.2952,0.0000,0.0000,0.0000
28.0,0.4934,0.2753,0.0000,1.5699,0.0000,0.0000,0.0000,0.1749,-0.1585,0.0000,1.2962,0.0000,0.0000,0.0000
28.1,0.4973,0.2735,0.0000,1.5647,0.0000,0.0000,0.0000,0.1729,-0.1588,0.0000,1.2976,0.0000,0.0000,0.0000
28.2,0.4993,0.2717,0.0000,1.5605,0.0000,0.0000,0.0000,0.1717,-0.1597,0.0000,1.2978,0.0000,0.0000,0.0000
28.3,0.4986,0.2696,0.0000,1.5572,0.0000,0.0000,0.0000,0.1708,-0.1604,0.0000,1.2984,0.0000,0.0000,0.0000
28.4,0.4969,0.2683,0.0000,1.5549,0.0000,0.0000,0.0000,0.1701,-0.1610,0.0000,1.2987,0.0000,0.0000,0.0000
28.5,0.4949,0.2674,0.0000,1.5519,0.0000,0.0000,0.0000,0.1693,-0.1613,0.0000,1.2986,0.0000,0.0000,0.0000
28.6,0.4916,0.2667,0.0000,1.5496,0.0000,0.0000,0.0000,0.1683,-0.1615,0.0000,1.2985,0.0000,0.0000,0.0000
28.7,0.4889,0.2668,0.0000,1.5480,0.0000,0.0000,0.0000,0.1668,-0.1617,0.0000,1.2986,0.0000,0.0000,0.0000
28.8,0.4895,0.2674,0.0000,1.5473,0.0000,0.0000,0.0000,0.1668,-0.1619,0.0000,1.2992,0.0000,0.0000,0.0000
28.9,0.4925,0.2697,0.0000,1.5483,0.0000,0.0000,0.0000,0.1723,-0.1622,0.0000,1.3016,0.0000,0.0000,0.0000
29.0,0.4931,0.2768,0.0000,1.5488,0.0000,0.0000,0.0000,0.1761,-0.1638,0.0000,1.3100,0.0000,0.0000,0.0000
29.1,0.4956,0.2881,0.0000,1.5336,0.0000,0.0000,0.0000,0.1807,-0.1814,0.0000,1.3077,0.0000,0.0000,0.0000
29.2,0.4655,0.3136,0.0000,1.4722,0.0000,0.0000,0.0000,0.1806,-0.1947,0.0000,1.2622,0.0000,0.0000,0.0000
29.3,0.3591,0.3537,0.0000,1.2297,0.0000,0.0000,0.0000,0.1670,-0.2029,0.0000,1.0535,0.0000,0.0000,0.0000
29.4,0.2739,0.3910,0.0000,1.0463,0.0000,0.0000,0.0000,0.1324,-0.1934,0.0000,0.8653,0.0000,0.0000,0.0000
29.5,0.1643,0.4294,0.0000,0.9180,0.0000,0.0000,0.0000,0.0653,-0.1726,0.0000,0.7336,0.0000,0.0000,0.0000
29.6,0.0499,0.4894,0.0000,0.8282,0.0000,0.0000,0.0000,-0.0423,-0.1395,0.0000,0.6414,0.0000,0.0000,0.0000
29.7,-0.0493,0.5937,0.0000,0.7653,0.0000,0.0000,0.0000,-0.1611,-0.1112,0.0000,0.5769,0.0000,0.0000,0.0000
29.8,-0.1871,0.7490,0.0000,0.7213,0.0000,0.0000,0.0000,-0.2853,-0.0859,0.0000,0.5317,0.0000,0.0000,0.0000
29.9,-0.2856,0.8595,0.0000,0.6905,0.0000,0.0000,0.0000,-0.3786,-0.0792,0.0000,0.5001,0.0000,0.0000,0.0000
30.0,-0.3372,0.9135,0.0000,0.6689,0.0000,0.0000,0.0000,-0.4284,-0.0746,0.0000,0.4779,0.0000,0.0000,0.0000
30.1,-0.3801,0.9422,0.0000,0.6538,0.0000,0.0000,0.0000,-0.4620,-0.0699,0.0000,0.4624,0.0000,0.0000,0.0000
30.2,-0.4191,0.9607,0.0000,0.6432,0.0000,0.0000,0.0000,-0.4932,-0.0679,0.0000,0.4516,0.0000,0.0000,0.0000
30.3,-0.4669,0.9706,0.0000,0.6358,0.0000,0.0000,0.0000,-0.5155,-0.0705,0.0000,0.4440,0.0000,0.0000,0.0000
30.4,-0.5676,0.9782,0.0000,0.6270,0.0000,0.0000,0.0000,-0.5530,-0.0718,0.0000,0.4349,0.0000,0.0000,0.0000
30.5,-0.6005,0.9771,0.0000,0.6245,0.0000,0.0000,0.0000,-0.5700,-0.0723,0.0000,0.4323,0.0000,0.0000,0.0000
30.6,-0.6274,0.9804,0.0000,0.6227,0.0000,0.0000,0.0000,-0.5815,-0.0723,0.0000,0.4305,0.0000,0.0000,0.0000
30.7,-0.6422,0.9815,0.0000,0.6215,0.0000,0.0000,0.0000,-0.5890,-0.0700,0.0000,0.4292,0.0000,0.0000,0.0000
30.8,-0.6510,0.9802,0.0000,0.6206,0.0000,0.0000,0.0000,-0.5914,-0.0693,0.0000,0.4283,0.0000,0.0000,0.0000
30.9,-0.6568,0.9864,0.0000,0.6200,0.0000,0.0000,0.0000,-0.5892,-0.0698,0.0000,0.4277,0.0000,0.0000,0.0000
31.0,-0.6608,0.9862,0.0000,0.6196,0.0000,0.0000,0.0000,-0.5860,-0.0695,0.0000,0.4273,0.0000,0.0000,0.0000
31.1,-0.6675,0.9833,0.0000,0.6193,0.0000,0.0000,0.0000,-0.5918,-0.0683,0.0000,0.4270,0.0000,0.0000,0.0000
31.2,-0.6736,0.9797,0.0000,0.6191,0.0000,0.0000,0.0000,-0.5954,-0.0677,0.0000,0.4268,0.0000,0.0000,0.0000
31.3,-0.6807,0.9804,0.0000,0.6189,0.0000,0.0000,0.0000,-0.5980,-0.0676,0.0000,0.4266,0.0000,0.0000,0.0000
31.4,-0.6810,0.9836,0.0000,0.6188,0.0000,0.0000,0.0000,-0.5961,-0.0685,0.0000,0.4265,0.0000,0.0000,0.0000
31.5,-0.6851,0.9891,0.0000,0.6187,0.0000,0.0000,0.0000,-0.5955,-0.0706,0.0000,0.4264,0.0000,0.0000,0.0000
31.6,-0.6877,0.9914,0.0000,0.6187,0.0000,0.0000,0.0000,-0.5966,-0.0718,0.0000,0.4264,0.0000,0.0000,0.0000
31.7,-0.6883,0.9874,0.0000,0.6187,0.0000,0.0000,0.0000,-0.5968,-0.0722,0.0000,0.4263,0.0000,0.0000,0.0000
31.8,-0.6906,0.9780,0.0000,0.6186,0.0000,0.0000,0.0000,-0.6020,-0.0696,0.0000,0.4263,0.0000,0.0000,0.0000
31.9,-0.6929,0.9856,0.0000,0.6186,0.0000,0.0000,0.0000,-0.5978,-0.0697,0.0000,0.4263,0.0000,0.0000,0.0000
32.0,-0.6605,0.9794,0.0000,0.6186,0.0000,0.0000,0.0000,-0.5906,-0.0684,0.0000,0.4263,0.0000,0.0000,0.0000
32.1,-0.5148,0.8777,0.0000,0.6186,0.0000,0.0000,0.0000,-0.5466,-0.0609,0.0000,0.4263,0.0000,0.0000,0.0000
32.2,-0.3715,0.7691,0.0000,0.6186,0.0000,0.0000,0.0000,-0.4402,-0.0622,0.0000,0.4263,0.0000,0.0000,0.0000
32.3,-0.2234,0.6874,0.0000,0.6186,0.0000,0.0000,0.0000,-0.3263,-0.0792,0.0000,0.4263,0.0000,0.0000,0.0000
32.4,-0.0730,0.6176,0.0000,0.6722,0.0000,0.0000,0.0000,-0.2123,-0.1081,0.0000,0.4263,0.0000,0.0000,0.0000
32.5,0.0631,0.5591,0.0000,0.8791,0.0000,0.0000,0.0000,-0.1320,-0.1301,0.0000,0.5048,0.0000,0.0000,0.0000
32.6,0.1729,0.5123,0.0000,1.0473,0.0000,0.0000,0.0000,-0.0425,-0.1512,0.0000,0.6935,0.0000,0.0000,0.0000
32.7,0.2757,0.4714,0.0000,1.1929,0.0000,0.0000,0.0000,0.0557,-0.1611,0.0000,0.8478,0.0000,0.0000,0.0000
32.8,0.3451,0.4381,0.0000,1.2966,0.0000,0.0000,0.0000,0.1223,-0.1654,0.0000,0.9658,0.0000,0.0000,0.0000
32.9,0.3922,0.4124,0.0000,1.3661,0.0000,0.0000,0.0000,0.1644,-0.1660,0.0000,1.0551,0.0000,0.0000,0.0000
33.0,0.4290,0.3900,0.0000,1.4188,0.0000,0.0000,0.0000,0.1927,-0.1657,0.0000,1.1167,0.0000,0.0000,0.0000
33.1,0.4413,0.3725,0.0000,1.4405,0.0000,0.0000,0.0000,0.2068,-0.1651,0.0000,1.1644,0.0000,0.0000,0.0000
33.2,0.4475,0.3576,0.0000,1.4556,0.0000,0.0000,0.0000,0.2161,-0.1645,0.0000,1.1978,0.0000,0.0000,0.0000
33.3,0.4658,0.3373,0.0000,1.4927,0.0000,0.0000,0.0000,0.2266,-0.1650,0.0000,1.2434,0.0000,0.0000,0.0000
33.4,0.4800,0.3203,0.0000,1.5123,0.0000,0.0000,0.0000,0.2260,-0.1685,0.0000,1.2765,0.0000,0.0000,0.0000
33.5,0.4887,0.3135,0.0000,1.5252,0.0000,0.0000,0.0000,0.2263,-0.1710,0.0000,1.2865,0.0000,0.0000,0.0000
33.6,0.4924,0.3068,0.0000,1.5354,0.0000,0.0000,0.0000,0.2236,-0.1738,0.0000,1.2929,0.0000,0.0000,0.0000
33.7,0.4947,0.2950,0.0000,1.5528,0.0000,0.0000,0.0000,0.2241,-0.1789,0.0000,1.2987,0.0000,0.0000,0.0000
33.8,0.4984,0.2903,0.0000,1.5607,0.0000,0.0000,0.0000,0.2241,-0.1807,0.0000,1.2999,0.0000,0.0000,0.0000
33.9,0.5018,0.2867,0.0000,1.5621,0.0000,0.0000,0.0000,0.2272,-0.1820,0.0000,1.3007,0.0000,0.0000,0.0000
34.0,0.5142,0.2839,0.0000,1.5641,0.0000,0.0000,0.0000,0.2364,-0.1832,0.0000,1.2984,0.0000,0.0000,0.0000
34.1,0.5212,0.2817,0.0000,1.5643,0.0000,0.0000,0.0000,0.2427,-0.1841,0.0000,1.2966,0.0000,0.0000,0.0000
34.2,0.5243,0.2802,0.0000,1.5613,0.0000,0.0000,0.0000,0.2491,-0.1844,0.0000,1.2917,0.0000,0.0000,0.0000
34.3,0.5246,0.2766,0.0000,1.5605,0.0000,0.0000,0.0000,0.2484,-0.1835,0.0000,1.2903,0.0000,0.0000,0.0000
34.4,0.5242,0.2736,0.0000,1.5595,0.0000,0.0000,0.0000,0.2469,-0.1826,0.0000,1.2883,0.0000,0.0000,0.0000
34.5,0.5238,0.2714,0.0000,1.5557,0.0000,0.0000,0.0000,0.2456,-0.1811,0.0000,1.2867,0.0000,0.0000,0.0000
34.6,0.5257,0.2698,0.0000,1.5501,0.0000,0.0000,0.0000,0.2406,-0.1795,0.0000,1.2896,0.0000,0.0000,0.0000
34.7,0.5034,0.2769,0.0000,1.5356,0.0000,0.0000,0.0000,0.2240,-0.1791,0.0000,1.3032,0.0000,0.0000,0.0000
34.8,0.4838,0.2867,0.0000,1.5163,0.0000,0.0000,0.0000,0.2117,-0.1798,0.0000,1.3218,0.0000,0.0000,0.0000
34.9,0.4463,0.3011,0.0000,1.4875,0.0000,0.0000,0.0000,0.1907,-0.1824,0.0000,1.3378,0.0000,0.0000,0.0000
35.0,0.4078,0.3230,0.0000,1.4451,0.0000,0.0000,0.0000,0.1777,-0.1925,0.0000,1.3254,0.0000,0.0000,0.0000
35.1,0.3310,0.3341,0.0000,1.4120,0.0000,0.0000,0.0000,0.1532,-0.1978,0.0000,1.2772,0.0000,0.0000,0.0000
