RuntimeTerror1001/Real-Steel/robot_motion_20250501-131533.csv
timestamp,left_shoulder_pitch_joint,left_shoulder_roll_joint,left_shoulder_yaw_joint,left_elbow_joint,left_wrist_roll_joint,left_wrist_pitch_joint,left_wrist_yaw_joint,right_shoulder_pitch_joint,right_shoulder_roll_joint,right_shoulder_yaw_joint,right_elbow_joint,right_wrist_roll_joint,right_wrist_pitch_joint,right_wrist_yaw_joint
0.0,0.1999,0.7851,0.1438,1.2495,0.0000,0.0000,0.0000,0.1543,-0.2435,0.2569,1.2872,0.0000,0.0000,0.0000
0.1,0.2000,0.7688,0.1439,1.2496,0.0000,0.0000,0.0000,0.1621,-0.2450,0.2233,1.2861,0.0000,0.0000,0.0000
0.2,0.2000,0.7121,0.1439,1.2524,0.0000,0.0000,0.0000,0.1679,-0.2458,0.2035,1.2847,0.0000,0.0000,0.0000
0.3,0.2000,0.6535,0.1439,1.2519,0.0000,0.0000,0.0000,0.1756,-0.2462,0.1758,1.2822,0.0000,0.0000,0.0000
0.4,0.2000,0.6178,0.1439,1.2522,0.0000,0.0000,0.0000,0.1801,-0.2456,0.1568,1.2796,0.0000,0.0000,0.0000
0.5,0.2000,0.5900,0.1439,1.2536,0.0000,0.0000,0.0000,0.1833,-0.2450,0.1261,1.2749,0.0000,0.0000,0.0000
0.6,0.2000,0.5613,0.1439,1.2552,0.0000,0.0000,0.0000,0.1868,-0.2444,0.0957,1.2694,0.0000,0.0000,0.0000
0.7,0.2000,0.5375,0.1439,1.2562,0.0000,0.0000,0.0000,0.1903,-0.2438,0.0679,1.2621,0.0000,0.0000,0.0000
0.8,0.2000,0.4816,0.1439,1.2581,0.0000,0.0000,0.0000,0.1935,-0.2431,0.0346,1.2535,0.0000,0.0000,0.0000
0.9,0.2000,0.4860,0.1439,1.2570,0.0000,0.0000,0.0000,0.1926,-0.2433,0.0241,1.2518,0.0000,0.0000,0.0000
1.0,0.2000,0.5094,0.1439,1.2554,0.0000,0.0000,0.0000,0.1902,-0.2443,0.0306,1.2544,0.0000,0.0000,0.0000
1.1,0.2000,0.5374,0.1439,1.2517,0.0000,0.0000,0.0000,0.1871,-0.2451,0.0459,1.2582,0.0000,0.0000,0.0000
1.2,0.2000,0.5723,0.1439,1.2477,0.0000,0.0000,0.0000,0.1843,-0.2468,0.0508,1.2627,0.0000,0.0000,0.0000
1.3,0.2000,0.5865,0.1439,1.2449,0.0000,0.0000,0.0000,0.1825,-0.2484,0.0503,1.2665,0.0000,0.0000,0.0000
1.4,0.2000,0.5878,0.1439,1.2435,0.0000,0.0000,0.0000,0.1803,-0.2500,0.0498,1.2701,0.0000,0.0000,0.0000
1.5,0.2000,0.5782,0.1439,1.2421,0.0000,0.0000,0.0000,0.1781,-0.2509,0.0494,1.2726,0.0000,0.0000,0.0000
1.6,0.2000,0.5718,0.1439,1.2388,0.0000,0.0000,0.0000,0.1757,-0.2516,0.0508,1.2746,0.0000,0.0000,0.0000
1.7,0.2000,0.5771,0.1439,1.2349,0.0000,0.0000,0.0000,0.1743,-0.2523,0.0500,1.2765,0.0000,0.0000,0.0000
1.8,0.2000,0.5835,0.1439,1.2330,0.0000,0.0000,0.0000,0.1687,-0.2535,0.0477,1.2787,0.0000,0.0000,0.0000
1.9,0.2000,0.6130,0.1439,1.2293,0.0000,0.0000,0.0000,0.1616,-0.2557,0.0435,1.2798,0.0000,0.0000,0.0000
2.0,0.2000,0.6521,0.1439,1.2294,0.0000,0.0000,0.0000,0.1523,-0.2608,0.0301,1.2753,0.0000,0.0000,0.0000
2.1,-2.3549,0.6970,0.1439,1.2306,0.0000,0.0000,0.0000,0.1374,-0.2693,0.0317,1.2420,0.0000,0.0000,0.0000
2.2,-3.7952,0.7549,0.1439,1.2319,0.0000,0.0000,0.0000,0.1181,-0.2849,0.0591,1.1993,0.0000,0.0000,0.0000
2.3,-4.5768,0.7895,0.1439,1.2356,0.0000,0.0000,0.0000,0.1028,-0.3185,0.0683,1.1638,0.0000,0.0000,0.0000
2.4,-5.0089,0.8068,0.1439,1.2401,0.0000,0.0000,0.0000,0.0865,-0.3710,0.0678,1.1383,0.0000,0.0000,0.0000
2.5,-2.6379,0.7396,0.1439,1.2552,0.0000,0.0000,0.0000,-0.0279,-0.4454,-0.0834,1.0841,0.0000,0.0000,0.0000
2.6,-3.8473,0.8744,0.1439,1.2701,0.0000,0.0000,0.0000,-0.2178,-0.4889,-0.1442,1.0457,0.0000,0.0000,0.0000
2.7,-2.1351,1.4242,0.1439,1.2970,0.0000,0.0000,0.0000,-0.3745,-0.5343,-0.2589,1.0007,0.0000,0.0000,0.0000
2.8,-2.2644,1.7192,-1.0974,1.2993,0.0000,0.0000,0.0000,-0.5096,-0.5939,-0.3296,0.9256,0.0000,0.0000,0.0000
2.9,-2.3386,1.8724,-1.8067,1.2794,0.0000,0.0000,0.0000,-0.6308,-0.6873,-0.2880,0.7756,0.0000,0.0000,0.0000
3.0,-2.3829,2.1204,-2.2094,1.2645,0.0000,0.0000,0.0000,-0.7609,-0.8322,-0.1791,0.6651,0.0000,0.0000,0.0000
3.1,-2.4045,2.3013,-2.4397,1.2488,0.0000,0.0000,0.0000,-0.9748,-1.1376,0.0568,0.6501,0.0000,0.0000,0.0000
3.2,-2.4227,2.5093,-2.5712,1.2430,0.0000,0.0000,0.0000,-1.2208,-1.4900,0.3349,0.6730,0.0000,0.0000,0.0000
3.3,-2.3858,2.5665,-2.6966,1.2405,0.0000,0.0000,0.0000,-1.4193,-1.7627,0.6014,0.6653,0.0000,0.0000,0.0000
3.4,-2.2835,2.6493,-2.8580,1.2447,0.0000,0.0000,0.0000,-1.5926,-1.9762,0.8942,0.7172,0.0000,0.0000,0.0000
3.5,-2.1722,2.7090,-3.0072,1.2518,0.0000,0.0000,0.0000,-1.6957,-2.1017,1.1142,0.7397,0.0000,0.0000,0.0000
3.6,-1.1878,2.6562,-1.7045,1.2685,0.0000,0.0000,0.0000,-1.7989,-2.1755,1.3088,0.7584,0.0000,0.0000,0.0000
3.7,-0.6073,2.2741,-0.9260,1.2641,0.0000,0.0000,0.0000,-1.8614,-2.2197,1.4557,0.7371,0.0000,0.0000,0.0000
3.8,-0.2708,1.9410,-0.4758,1.2525,0.0000,0.0000,0.0000,-1.9453,-2.2462,1.5524,0.7477,0.0000,0.0000,0.0000
3.9,-0.0769,1.6686,-0.2183,1.2437,0.0000,0.0000,0.0000,-2.0522,-2.2621,1.5830,0.7885,0.0000,0.0000,0.0000
4.0,0.0363,1.4991,-0.0692,1.2338,0.0000,0.0000,0.0000,-2.1711,-2.2718,1.5613,0.8236,0.0000,0.0000,0.0000
4.1,0.1023,1.3576,0.0173,1.2388,0.0000,0.0000,0.0000,-2.2156,-2.2775,1.5142,0.8418,0.0000,0.0000,0.0000
4.2,0.1418,1.2502,0.0687,1.2445,0.0000,0.0000,0.0000,-2.2098,-2.2811,1.4868,0.8225,0.0000,0.0000,0.0000
4.3,0.1655,1.1204,0.0993,1.2590,0.0000,0.0000,0.0000,-2.1880,-2.2832,1.4779,0.7899,0.0000,0.0000,0.0000
4.4,0.1790,1.0677,0.1169,1.2621,0.0000,0.0000,0.0000,-2.1688,-2.2844,1.4568,0.7839,0.0000,0.0000,0.0000
4.5,0.1874,1.0786,0.1276,1.2508,0.0000,0.0000,0.0000,-2.1573,-2.2852,1.4471,0.7827,0.0000,0.0000,0.0000
4.6,0.1924,1.1201,0.1341,1.2215,0.0000,0.0000,0.0000,-2.1919,-2.2857,1.4651,0.7698,0.0000,0.0000,0.0000
4.7,0.1957,1.1525,0.1383,1.2085,0.0000,0.0000,0.0000,-2.2551,-2.2860,1.4940,0.7713,0.0000,0.0000,0.0000
4.8,0.1973,1.1890,0.1405,1.2078,0.0000,0.0000,0.0000,-2.2616,-2.2861,1.4958,0.7882,0.0000,0.0000,0.0000
4.9,0.1984,1.2116,0.1418,1.2051,0.0000,0.0000,0.0000,-2.2568,-2.2862,1.4967,0.8014,0.0000,0.0000,0.0000
5.0,0.1990,1.2100,0.1426,1.2134,0.0000,0.0000,0.0000,-2.2293,-2.2863,1.4841,0.8192,0.0000,0.0000,0.0000
5.1,0.1994,1.1868,0.1431,1.2319,0.0000,0.0000,0.0000,-2.1864,-2.2863,1.4722,0.8403,0.0000,0.0000,0.0000
5.2,0.1996,1.1887,0.1434,1.2402,0.0000,0.0000,0.0000,-2.1512,-2.2864,1.4770,0.8516,0.0000,0.0000,0.0000
5.3,0.1998,1.1805,0.1436,1.2512,0.0000,0.0000,0.0000,-2.1221,-2.2864,1.4801,0.8641,0.0000,0.0000,0.0000
5.4,0.1999,1.2014,0.1437,1.2554,0.0000,0.0000,0.0000,-2.1065,-2.2864,1.4899,0.8643,0.0000,0.0000,0.0000
5.5,0.1999,1.2007,0.1438,1.2683,0.0000,0.0000,0.0000,-2.0897,-2.2864,1.4952,0.8693,0.0000,0.0000,0.0000
5.6,0.2000,1.2572,0.1438,1.2721,0.0000,0.0000,0.0000,-2.0840,-2.2864,1.5130,0.8739,0.0000,0.0000,0.0000
5.7,0.2000,1.2976,0.1439,1.2733,0.0000,0.0000,0.0000,-2.0767,-2.2864,1.5362,0.8716,0.0000,0.0000,0.0000
5.8,0.2000,1.3206,0.1439,1.2692,0.0000,0.0000,0.0000,-2.0412,-2.2864,1.5375,0.8447,0.0000,0.0000,0.0000
5.9,0.2000,1.3065,0.1439,1.2761,0.0000,0.0000,0.0000,-1.9837,-2.2864,1.4828,0.8106,0.0000,0.0000,0.0000
6.0,0.2000,1.4525,0.1439,1.2949,0.0000,0.0000,0.0000,-1.7705,-2.1493,0.3840,0.7405,0.0000,0.0000,0.0000
6.1,-0.9005,1.4731,-1.0993,1.3090,0.0000,0.0000,0.0000,-1.4877,-1.7445,0.2643,0.6249,0.0000,0.0000,0.0000
6.2,-2.9608,1.4193,-0.6082,1.3058,0.0000,0.0000,0.0000,-1.1253,-1.2487,0.0135,0.5562,0.0000,0.0000,0.0000
6.3,-4.1108,1.5138,-0.3127,1.3091,0.0000,0.0000,0.0000,-0.7959,-0.9217,-0.2062,0.5710,0.0000,0.0000,0.0000
6.4,-4.7490,1.4471,-0.1292,1.3009,0.0000,0.0000,0.0000,-0.4609,-0.7296,-0.1910,0.7473,0.0000,0.0000,0.0000
6.5,-5.0958,1.2020,-0.0201,1.2929,0.0000,0.0000,0.0000,-0.2270,-0.5829,-0.0975,0.9833,0.0000,0.0000,0.0000
6.6,-5.2893,1.0959,0.0450,1.2746,0.0000,0.0000,0.0000,-0.1212,-0.4685,-0.0525,1.1264,0.0000,0.0000,0.0000
6.7,-2.9305,0.9549,0.0847,1.2591,0.0000,0.0000,0.0000,-0.0396,-0.3868,-0.0632,1.2101,0.0000,0.0000,0.0000
6.8,-1.5658,0.8364,0.1080,1.2482,0.0000,0.0000,0.0000,0.0253,-0.3345,-0.1836,1.2508,0.0000,0.0000,0.0000
6.9,-0.7211,0.6614,0.1238,1.2493,0.0000,0.0000,0.0000,0.0762,-0.2947,-0.2463,1.2618,0.0000,0.0000,0.0000
7.0,-0.3276,0.5277,0.1318,1.2500,0.0000,0.0000,0.0000,0.1022,-0.2724,-0.2866,1.2720,0.0000,0.0000,0.0000
7.1,-0.1066,0.4475,0.1366,1.2453,0.0000,0.0000,0.0000,0.1207,-0.2578,-0.3227,1.2801,0.0000,0.0000,0.0000
7.2,0.0190,0.4053,0.1394,1.2404,0.0000,0.0000,0.0000,0.1330,-0.2445,-0.3458,1.2833,0.0000,0.0000,0.0000
7.3,0.0927,0.4001,0.1412,1.2311,0.0000,0.0000,0.0000,0.1383,-0.2339,-0.3673,1.2864,0.0000,0.0000,0.0000
7.4,0.1359,0.3487,0.1423,1.2260,0.0000,0.0000,0.0000,0.1422,-0.2247,-0.3849,1.2881,0.0000,0.0000,0.0000
7.5,0.1617,0.3600,0.1429,1.2197,0.0000,0.0000,0.0000,0.1498,-0.2175,-0.4201,1.2826,0.0000,0.0000,0.0000
7.6,0.1771,0.3535,0.1433,1.2168,0.0000,0.0000,0.0000,0.1542,-0.2122,-0.4462,1.2789,0.0000,0.0000,0.0000
7.7,0.1862,0.3409,0.1435,1.2127,0.0000,0.0000,0.0000,0.1609,-0.2095,-0.4592,1.2758,0.0000,0.0000,0.0000
7.8,0.1916,0.3365,0.1437,1.2093,0.0000,0.0000,0.0000,0.1708,-0.2078,-0.4690,1.2744,0.0000,0.0000,0.0000
7.9,0.1949,0.2987,0.1438,1.1954,0.0000,0.0000,0.0000,0.1704,-0.2063,-0.4151,1.2921,0.0000,0.0000,0.0000
8.0,0.1969,0.2112,0.0625,1.1854,0.0000,0.0000,0.0000,0.1719,-0.2060,-0.4064,1.3005,0.0000,0.0000,0.0000
8.1,-0.9666,0.4537,-1.3138,1.0687,0.0000,0.0000,0.0000,0.1813,-0.2058,-0.4580,1.2812,0.0000,0.0000,0.0000
8.2,-1.8374,0.9414,-2.1081,0.9388,0.0000,0.0000,0.0000,0.1813,-0.2070,-0.4762,1.2774,0.0000,0.0000,0.0000
8.3,-2.5822,1.4090,-2.3460,0.8185,0.0000,0.0000,0.0000,0.1794,-0.2043,-0.4438,1.2756,0.0000,0.0000,0.0000
8.4,-3.4158,1.5897,-2.0630,0.6845,0.0000,0.0000,0.0000,0.1651,-0.2004,-0.3478,1.2769,0.0000,0.0000,0.0000
8.5,-4.0269,1.5159,-1.8474,0.6611,0.0000,0.0000,0.0000,0.1480,-0.1962,-0.2395,1.2793,0.0000,0.0000,0.0000
8.6,-4.4153,1.3871,-1.7403,0.6813,0.0000,0.0000,0.0000,0.1368,-0.1936,-0.1474,1.2824,0.0000,0.0000,0.0000
8.7,-4.6163,1.1160,-1.6302,0.6837,0.0000,0.0000,0.0000,0.1318,-0.1930,-0.0637,1.2738,0.0000,0.0000,0.0000
8.8,-4.7096,0.8393,-1.5499,0.6860,0.0000,0.0000,0.0000,0.1290,-0.1940,0.0080,1.2558,0.0000,0.0000,0.0000
8.9,-4.6949,0.6427,-1.4348,0.7012,0.0000,0.0000,0.0000,0.1268,-0.1956,0.0523,1.2386,0.0000,0.0000,0.0000
9.0,-4.6672,0.5079,-1.3535,0.7261,0.0000,0.0000,0.0000,0.1323,-0.1997,0.1004,1.2337,0.0000,0.0000,0.0000
9.1,-4.7134,0.4266,-1.3739,0.7575,0.0000,0.0000,0.0000,0.1515,-0.2031,0.1574,1.2229,0.0000,0.0000,0.0000
9.2,-4.7888,0.4098,-1.4430,0.7739,0.0000,0.0000,0.0000,0.1547,-0.2067,0.1526,1.2127,0.0000,0.0000,0.0000
9.3,-4.9020,0.4235,-1.5585,0.7777,0.0000,0.0000,0.0000,0.1544,-0.2101,0.1376,1.2071,0.0000,0.0000,0.0000
9.4,-5.0108,0.4617,-1.6692,0.7607,0.0000,0.0000,0.0000,0.1534,-0.2123,0.1138,1.2039,0.0000,0.0000,0.0000
9.5,-5.1283,0.5535,-1.7924,0.7572,0.0000,0.0000,0.0000,0.1486,-0.2140,0.0899,1.2047,0.0000,0.0000,0.0000
9.6,-5.1896,0.5966,-1.8585,0.7608,0.0000,0.0000,0.0000,0.1453,-0.2146,0.0739,1.2052,0.0000,0.0000,0.0000
9.7,-5.2186,0.6116,-1.8910,0.7644,0.0000,0.0000,0.0000,0.1410,-0.2148,0.0639,1.2056,0.0000,0.0000,0.0000
9.8,-5.2616,0.6628,-1.9360,0.7654,0.0000,0.0000,0.0000,0.1399,-0.2147,0.0952,1.2126,0.0000,0.0000,0.0000
9.9,-5.2652,0.6545,-1.9420,0.7704,0.0000,0.0000,0.0000,0.1391,-0.2122,0.1027,1.2175,0.0000,0.0000,0.0000
10.0,-5.2495,0.6189,-1.9249,0.7628,0.0000,0.0000,0.0000,0.1388,-0.2099,0.1239,1.2224,0.0000,0.0000,0.0000
10.1,-5.2496,0.6049,-1.9280,0.7778,0.0000,0.0000,0.0000,0.1405,-0.2082,0.1345,1.2278,0.0000,0.0000,0.0000
10.2,-5.1044,0.4879,-1.7756,0.7656,0.0000,0.0000,0.0000,0.1327,-0.2075,0.1731,1.2368,0.0000,0.0000,0.0000
10.3,-4.8908,0.3945,-1.5529,0.7765,0.0000,0.0000,0.0000,0.1307,-0.2073,0.1792,1.2408,0.0000,0.0000,0.0000
10.4,-4.7544,0.3543,-1.4105,0.8085,0.0000,0.0000,0.0000,0.1301,-0.2083,0.2111,1.2471,0.0000,0.0000,0.0000
10.5,-4.7778,0.4388,-1.4272,0.8505,0.0000,0.0000,0.0000,0.1358,-0.2093,0.2435,1.2510,0.0000,0.0000,0.0000
10.6,-4.7021,0.7193,-1.3552,0.8298,0.0000,0.0000,0.0000,0.1417,-0.2052,0.2768,1.2500,0.0000,0.0000,0.0000
10.7,-4.6447,1.0952,-1.4224,0.8024,0.0000,0.0000,0.0000,0.1282,-0.1966,0.2659,1.2490,0.0000,0.0000,0.0000
10.8,-4.2971,1.6284,-1.7656,0.6624,0.0000,0.0000,0.0000,0.1211,-0.1896,0.2430,1.2691,0.0000,0.0000,0.0000
10.9,-3.7500,1.6403,-2.3801,0.7084,0.0000,0.0000,0.0000,0.1277,-0.1826,0.0531,1.2663,0.0000,0.0000,0.0000
11.0,-3.3585,1.5218,-2.7429,0.6966,0.0000,0.0000,0.0000,0.1340,-0.1744,-0.0858,1.2524,0.0000,0.0000,0.0000
11.1,-1.8048,1.1501,-1.6964,0.7955,0.0000,0.0000,0.0000,0.1392,-0.1671,-0.0819,1.2773,0.0000,0.0000,0.0000
11.2,-0.9296,0.8607,-1.0553,0.9258,0.0000,0.0000,0.0000,0.1450,-0.1642,-0.0798,1.3002,0.0000,0.0000,0.0000
11.3,-1.4422,0.6842,-1.7549,1.0068,0.0000,0.0000,0.0000,0.1512,-0.1628,-0.1381,1.3123,0.0000,0.0000,0.0000
11.4,-1.3499,0.4111,-1.7348,1.0632,0.0000,0.0000,0.0000,0.1599,-0.1643,-0.2124,1.3173,0.0000,0.0000,0.0000
11.5,-0.7047,0.3828,-1.0379,1.0939,0.0000,0.0000,0.0000,0.1599,-0.1660,-0.2274,1.3312,0.0000,0.0000,0.0000
11.6,-0.3306,0.4320,-0.5793,1.1065,0.0000,0.0000,0.0000,0.1612,-0.1670,-0.2235,1.3423,0.0000,0.0000,0.0000
11.7,-0.1130,0.4951,-0.2889,1.1107,0.0000,0.0000,0.0000,0.1639,-0.1659,-0.1354,1.3562,0.0000,0.0000,0.0000
11.8,0.0157,0.5376,-0.1104,1.1147,0.0000,0.0000,0.0000,0.1647,-0.1658,-0.1184,1.3623,0.0000,0.0000,0.0000
11.9,0.0897,0.5682,-0.0114,1.1244,0.0000,0.0000,0.0000,0.1693,-0.1652,-0.1231,1.3631,0.0000,0.0000,0.0000
12.0,0.1334,0.5882,0.0503,1.1322,0.0000,0.0000,0.0000,0.1675,-0.1655,-0.1493,1.3604,0.0000,0.0000,0.0000
12.1,0.1601,0.6095,0.0879,1.1391,0.0000,0.0000,0.0000,0.1657,-0.1668,-0.1616,1.3555,0.0000,0.0000,0.0000
12.2,0.1759,0.6354,0.1102,1.1453,0.0000,0.0000,0.0000,0.1648,-0.1714,-0.0594,1.3316,0.0000,0.0000,0.0000
12.3,0.1857,0.6441,0.1238,1.1512,0.0000,0.0000,0.0000,0.1494,-0.1900,0.0811,1.3007,0.0000,0.0000,0.0000
12.4,0.1914,0.6862,0.1319,1.1564,0.0000,0.0000,0.0000,0.1307,-0.2234,0.2212,1.2355,0.0000,0.0000,0.0000
12.5,-2.3656,0.7157,0.1367,1.1649,0.0000,0.0000,0.0000,0.1100,-0.2752,0.2926,1.1655,0.0000,0.0000,0.0000
12.6,-3.7949,0.7200,0.1395,1.1793,0.0000,0.0000,0.0000,0.0963,-0.3598,0.3119,1.1354,0.0000,0.0000,0.0000
12.7,-2.2086,0.6833,0.1412,1.2003,0.0000,0.0000,0.0000,0.0988,-0.4589,0.3240,1.1087,0.0000,0.0000,0.0000
12.8,-1.2119,0.5456,0.1423,1.2189,0.0000,0.0000,0.0000,0.0988,-0.5461,0.3263,1.0638,0.0000,0.0000,0.0000
12.9,-0.6172,0.3234,0.1401,1.2333,0.0000,0.0000,0.0000,0.0906,-0.6308,0.3121,1.0261,0.0000,0.0000,0.0000
13.0,-0.2819,0.2084,0.0709,1.2408,0.0000,0.0000,0.0000,0.0655,-0.7193,0.3100,1.0195,0.0000,0.0000,0.0000
13.1,-0.0817,0.1505,0.0497,1.2452,0.0000,0.0000,0.0000,0.0364,-0.8136,0.3045,1.0324,0.0000,0.0000,0.0000
13.2,0.0335,0.1436,0.0870,1.2469,0.0000,0.0000,0.0000,0.0019,-0.9123,0.3059,1.0473,0.0000,0.0000,0.0000
13.3,-0.6406,0.0861,-0.7703,1.2482,0.0000,0.0000,0.0000,-0.0367,-1.0027,0.3054,1.0630,0.0000,0.0000,0.0000
13.4,-1.1728,0.0900,-1.4047,1.2487,0.0000,0.0000,0.0000,-0.0623,-1.0677,0.3082,1.0637,0.0000,0.0000,0.0000
13.5,-1.5226,0.1050,-1.8153,1.2468,0.0000,0.0000,0.0000,-0.0903,-1.1234,0.3069,1.0653,0.0000,0.0000,0.0000
13.6,-1.6983,0.1108,-2.0206,1.2464,0.0000,0.0000,0.0000,-0.1321,-1.1634,0.3118,1.0688,0.0000,0.0000,0.0000
13.7,-1.7532,0.0940,-2.0896,1.2499,0.0000,0.0000,0.0000,-0.1887,-1.1974,0.3319,1.0750,0.0000,0.0000,0.0000
13.8,-1.5174,0.0379,-1.8577,1.2518,0.0000,0.0000,0.0000,-0.2384,-1.2203,0.3649,1.0732,0.0000,0.0000,0.0000
13.9,-1.6329,0.0181,-1.9782,1.2557,0.0000,0.0000,0.0000,-0.2889,-1.2327,0.4157,1.0697,0.0000,0.0000,0.0000
14.0,-1.7716,0.0251,-2.1207,1.2615,0.0000,0.0000,0.0000,-0.3180,-1.2353,0.4586,1.0668,0.0000,0.0000,0.0000
14.1,-1.7709,0.0129,-2.1218,1.2638,0.0000,0.0000,0.0000,-0.3135,-1.2351,0.4573,1.0702,0.0000,0.0000,0.0000
14.2,-1.5422,0.0005,-1.8938,1.2646,0.0000,0.0000,0.0000,-0.2978,-1.2273,0.4523,1.0749,0.0000,0.0000,0.0000
14.3,-1.3880,-0.0080,-1.7406,1.2643,0.0000,0.0000,0.0000,-0.2714,-1.2031,0.4468,1.0866,0.0000,0.0000,0.0000
14.4,-0.7260,0.0187,-1.0580,1.2608,0.0000,0.0000,0.0000,-0.2089,-1.1398,0.4336,1.0892,0.0000,0.0000,0.0000
14.5,-0.3407,0.0814,-0.5890,1.2574,0.0000,0.0000,0.0000,-0.1455,-1.0526,0.4225,1.0870,0.0000,0.0000,0.0000
14.6,-0.1174,0.0944,-0.3368,1.2540,0.0000,0.0000,0.0000,-0.0691,-0.9501,0.4034,1.0679,0.0000,0.0000,0.0000
14.7,0.0117,0.1832,-0.1401,1.2492,0.0000,0.0000,0.0000,-0.0049,-0.8511,0.3950,1.0799,0.0000,0.0000,0.0000
14.8,0.0886,0.3378,-0.0234,1.2404,0.0000,0.0000,0.0000,0.0349,-0.7509,0.3728,1.1154,0.0000,0.0000,0.0000
14.9,-2.4035,0.4435,0.0448,1.2325,0.0000,0.0000,0.0000,0.0663,-0.6425,0.3602,1.1220,0.0000,0.0000,0.0000
15.0,-3.8126,0.5354,0.0845,1.2267,0.0000,0.0000,0.0000,0.0795,-0.5265,0.3551,1.1148,0.0000,0.0000,0.0000
15.1,-4.5782,0.6339,0.1081,1.2183,0.0000,0.0000,0.0000,0.0853,-0.4457,0.3341,1.1461,0.0000,0.0000,0.0000
15.2,-2.6439,0.6992,0.1222,1.2104,0.0000,0.0000,0.0000,0.0992,-0.3810,0.3373,1.1961,0.0000,0.0000,0.0000
15.3,-1.4354,0.7063,0.1308,1.2114,0.0000,0.0000,0.0000,0.1081,-0.3319,0.3245,1.2324,0.0000,0.0000,0.0000
15.4,-0.7321,0.6858,0.1360,1.2131,0.0000,0.0000,0.0000,0.1158,-0.2996,0.2852,1.2610,0.0000,0.0000,0.0000
15.5,-0.3267,0.6135,0.1392,1.2186,0.0000,0.0000,0.0000,0.1229,-0.2766,0.2251,1.2795,0.0000,0.0000,0.0000
15.6,-0.1081,0.5653,0.1411,1.2217,0.0000,0.0000,0.0000,0.1385,-0.2618,0.1451,1.2886,0.0000,0.0000,0.0000
15.7,0.0301,0.5373,0.1423,1.2286,0.0000,0.0000,0.0000,0.1533,-0.2498,0.0894,1.2913,0.0000,0.0000,0.0000
15.8,0.0994,0.5078,0.1429,1.2334,0.0000,0.0000,0.0000,0.1629,-0.2429,0.0485,1.2907,0.0000,0.0000,0.0000
15.9,0.1403,0.5122,0.1433,1.2345,0.0000,0.0000,0.0000,0.1759,-0.2384,0.0382,1.2879,0.0000,0.0000,0.0000
16.0,0.1643,0.5274,0.1435,1.2319,0.0000,0.0000,0.0000,0.1855,-0.2360,0.0303,1.2838,0.0000,0.0000,0.0000
16.1,0.1785,0.6163,0.1437,1.2370,0.0000,0.0000,0.0000,0.1921,-0.2333,0.0299,1.2764,0.0000,0.0000,0.0000
16.2,0.1872,0.7738,0.1438,1.2631,0.0000,0.0000,0.0000,0.2016,-0.2285,0.0202,1.2629,0.0000,0.0000,0.0000
16.3,0.1923,0.8098,0.0827,1.2853,0.0000,0.0000,0.0000,0.2087,-0.2252,-0.0023,1.2452,0.0000,0.0000,0.0000
16.4,0.1953,0.5783,-0.0699,1.2572,0.0000,0.0000,0.0000,0.2127,-0.2231,-0.0155,1.2320,0.0000,0.0000,0.0000
16.5,0.1972,0.5344,-0.1906,1.2487,0.0000,0.0000,0.0000,0.2154,-0.2221,-0.0191,1.2205,0.0000,0.0000,0.0000
16.6,0.1983,0.5328,-0.3152,1.2427,0.0000,0.0000,0.0000,0.2219,-0.2242,-0.0393,1.2067,0.0000,0.0000,0.0000
16.7,-2.3505,0.6402,-0.4186,1.2439,0.0000,0.0000,0.0000,0.2239,-0.2268,-0.0541,1.1932,0.0000,0.0000,0.0000
16.8,-3.8023,0.9157,-0.5147,1.2517,0.0000,0.0000,0.0000,0.2206,-0.2294,-0.0739,1.1791,0.0000,0.0000,0.0000
16.9,-4.5903,1.1075,-0.6096,1.2551,0.0000,0.0000,0.0000,0.2166,-0.2311,-0.1016,1.1632,0.0000,0.0000,0.0000
17.0,-5.0079,1.3362,-0.6837,1.2560,0.0000,0.0000,0.0000,0.2109,-0.2323,-0.1125,1.1533,0.0000,0.0000,0.0000
17.1,-5.2384,1.4430,-0.7430,1.2545,0.0000,0.0000,0.0000,0.2048,-0.2327,-0.1092,1.1482,0.0000,0.0000,0.0000
17.2,-5.3708,1.5716,-0.7808,1.2518,0.0000,0.0000,0.0000,0.1991,-0.2333,-0.1034,1.1471,0.0000,0.0000,0.0000
17.3,-5.4480,1.6360,-0.8030,1.2509,0.0000,0.0000,0.0000,0.1943,-0.2339,-0.0967,1.1468,0.0000,0.0000,0.0000
17.4,-5.4930,1.6801,-0.8169,1.2507,0.0000,0.0000,0.0000,0.1884,-0.2341,-0.0881,1.1473,0.0000,0.0000,0.0000
17.5,-5.5198,1.7326,-0.8251,1.2531,0.0000,0.0000,0.0000,0.1884,-0.2340,-0.0772,1.1473,0.0000,0.0000,0.0000
17.6,-5.5356,1.7789,-0.8281,1.2528,0.0000,0.0000,0.0000,0.1846,-0.2344,-0.0618,1.1495,0.0000,0.0000,0.0000
17.7,-5.5450,1.7870,-0.8323,1.2534,0.0000,0.0000,0.0000,0.1822,-0.2349,-0.0494,1.1513,0.0000,0.0000,0.0000
17.8,-5.5507,1.8039,-0.8316,1.2530,0.0000,0.0000,0.0000,0.1723,-0.2358,-0.0347,1.1559,0.0000,0.0000,0.0000
17.9,-5.5546,1.8250,-0.8301,1.2519,0.0000,0.0000,0.0000,0.1625,-0.2368,-0.0261,1.1598,0.0000,0.0000,0.0000
18.0,-5.5566,1.7987,-0.8280,1.2540,0.0000,0.0000,0.0000,0.1571,-0.2373,-0.0258,1.1611,0.0000,0.0000,0.0000
18.1,-5.5578,1.7499,-0.8251,1.2539,0.0000,0.0000,0.0000,0.1530,-0.2379,-0.0176,1.1637,0.0000,0.0000,0.0000
18.2,-5.5585,1.7192,-0.8190,1.2545,0.0000,0.0000,0.0000,0.1491,-0.2387,-0.0110,1.1670,0.0000,0.0000,0.0000
18.3,-5.5589,1.5843,-0.7821,1.2562,0.0000,0.0000,0.0000,0.1564,-0.2398,-0.0054,1.1701,0.0000,0.0000,0.0000
18.4,-5.5592,1.3161,-0.7156,1.2600,0.0000,0.0000,0.0000,0.1822,-0.2417,-0.0180,1.1696,0.0000,0.0000,0.0000
18.5,-5.5506,1.0313,-0.6244,1.2534,0.0000,0.0000,0.0000,0.1979,-0.2435,-0.0341,1.1693,0.0000,0.0000,0.0000
18.6,-5.5468,0.8496,-0.5090,1.2345,0.0000,0.0000,0.0000,0.2050,-0.2451,-0.0416,1.1717,0.0000,0.0000,0.0000
18.7,-5.5519,0.7513,-0.4045,1.2234,0.0000,0.0000,0.0000,0.2092,-0.2454,-0.0480,1.1724,0.0000,0.0000,0.0000
18.8,-5.5549,0.6666,-0.2951,1.2224,0.0000,0.0000,0.0000,0.2121,-0.2454,-0.0410,1.1824,0.0000,0.0000,0.0000
18.9,-3.0180,0.6730,-0.1905,1.2352,0.0000,0.0000,0.0000,0.2161,-0.2432,-0.0478,1.1917,0.0000,0.0000,0.0000
19.0,-1.5628,0.6321,-0.0894,1.2361,0.0000,0.0000,0.0000,0.2194,-0.2371,-0.0418,1.2029,0.0000,0.0000,0.0000
19.1,-0.7776,0.5306,-0.0094,1.2252,0.0000,0.0000,0.0000,0.2116,-0.2329,-0.0366,1.2193,0.0000,0.0000,0.0000
19.2,-0.3560,0.4836,0.0516,1.2164,0.0000,0.0000,0.0000,0.2017,-0.2305,-0.0188,1.2382,0.0000,0.0000,0.0000
19.3,-0.1237,0.5146,0.0878,1.2138,0.0000,0.0000,0.0000,0.1894,-0.2288,0.0036,1.2547,0.0000,0.0000,0.0000
19.4,0.0111,0.5598,0.1102,1.2106,0.0000,0.0000,0.0000,0.1793,-0.2267,0.0135,1.2653,0.0000,0.0000,0.0000
19.5,0.0889,0.5715,0.1237,1.2108,0.0000,0.0000,0.0000,0.1698,-0.2261,0.0365,1.2769,0.0000,0.0000,0.0000
19.6,0.1335,0.5621,0.1316,1.2077,0.0000,0.0000,0.0000,0.1645,-0.2260,0.0513,1.2823,0.0000,0.0000,0.0000
19.7,0.1601,0.5529,0.1365,1.2025,0.0000,0.0000,0.0000,0.1642,-0.2273,0.0520,1.2847,0.0000,0.0000,0.0000
19.8,0.1760,0.5891,0.1394,1.1880,0.0000,0.0000,0.0000,0.1684,-0.2289,0.0557,1.2840,0.0000,0.0000,0.0000
19.9,0.1857,0.5868,0.1412,1.1849,0.0000,0.0000,0.0000,0.1683,-0.2303,0.0682,1.2797,0.0000,0.0000,0.0000
20.0,0.1914,0.5809,0.1423,1.1824,0.0000,0.0000,0.0000,0.1673,-0.2314,0.0821,1.2688,0.0000,0.0000,0.0000
20.1,0.1952,0.5960,0.1430,1.1863,0.0000,0.0000,0.0000,0.1660,-0.2328,0.0875,1.2519,0.0000,0.0000,0.0000
20.2,0.1971,0.5960,0.1433,1.1867,0.0000,0.0000,0.0000,0.1602,-0.2360,0.0846,1.2309,0.0000,0.0000,0.0000
20.3,0.1982,0.6079,0.1436,1.1846,0.0000,0.0000,0.0000,0.1459,-0.2384,0.0708,1.2107,0.0000,0.0000,0.0000
20.4,-2.3560,0.6152,0.1437,1.1830,0.0000,0.0000,0.0000,0.1283,-0.2407,0.0891,1.1990,0.0000,0.0000,0.0000
20.5,-3.8078,0.5744,0.1438,1.1879,0.0000,0.0000,0.0000,0.1143,-0.2425,0.1121,1.1932,0.0000,0.0000,0.0000
20.6,-4.5873,0.5470,0.1438,1.1903,0.0000,0.0000,0.0000,0.1039,-0.2445,0.1382,1.1886,0.0000,0.0000,0.0000
20.7,-5.0106,0.5281,0.1438,1.1901,0.0000,0.0000,0.0000,0.0951,-0.2464,0.1666,1.1827,0.0000,0.0000,0.0000
20.8,-5.2462,0.5191,0.1439,1.1901,0.0000,0.0000,0.0000,0.0900,-0.2480,0.1912,1.1775,0.0000,0.0000,0.0000
20.9,-5.3749,0.5135,0.1439,1.1896,0.0000,0.0000,0.0000,0.0857,-0.2499,0.2127,1.1744,0.0000,0.0000,0.0000
21.0,-5.4492,0.5040,0.1439,1.1902,0.0000,0.0000,0.0000,0.0831,-0.2510,0.2216,1.1709,0.0000,0.0000,0.0000
21.1,-5.4932,0.4994,0.1439,1.1909,0.0000,0.0000,0.0000,0.0779,-0.2517,0.2458,1.1708,0.0000,0.0000,0.0000
21.2,-5.5197,0.4944,0.1439,1.1916,0.0000,0.0000,0.0000,0.0745,-0.2523,0.2591,1.1698,0.0000,0.0000,0.0000
21.3,-5.5357,0.4901,0.1439,1.1919,0.0000,0.0000,0.0000,0.0728,-0.2534,0.2729,1.1701,0.0000,0.0000,0.0000
21.4,-5.5454,0.4872,0.1439,1.1927,0.0000,0.0000,0.0000,0.0722,-0.2543,0.2810,1.1704,0.0000,0.0000,0.0000
21.5,-5.5510,0.4877,0.1439,1.1936,0.0000,0.0000,0.0000,0.0717,-0.2548,0.2667,1.1688,0.0000,0.0000,0.0000
21.6,-5.5544,0.4930,0.1439,1.1922,0.0000,0.0000,0.0000,0.0721,-0.2547,0.2684,1.1703,0.0000,0.0000,0.0000
21.7,-2.9916,0.4816,0.1439,1.1924,0.0000,0.0000,0.0000,0.0776,-0.2540,0.2635,1.1764,0.0000,0.0000,0.0000
21.8,-1.5415,0.4651,0.1439,1.1926,0.0000,0.0000,0.0000,0.0896,-0.2520,0.2929,1.1927,0.0000,0.0000,0.0000
21.9,-0.7546,0.4470,0.1439,1.1949,0.0000,0.0000,0.0000,0.1034,-0.2482,0.3233,1.2088,0.0000,0.0000,0.0000
22.0,-0.3478,0.4553,0.1439,1.1937,0.0000,0.0000,0.0000,0.1174,-0.2453,0.3131,1.2257,0.0000,0.0000,0.0000
22.1,-0.1174,0.4581,0.1439,1.1926,0.0000,0.0000,0.0000,0.1297,-0.2427,0.3064,1.2438,0.0000,0.0000,0.0000
22.2,0.0141,0.4619,0.1439,1.1916,0.0000,0.0000,0.0000,0.1421,-0.2397,0.2827,1.2539,0.0000,0.0000,0.0000
22.3,0.0971,0.4591,0.1439,1.1906,0.0000,0.0000,0.0000,0.1526,-0.2366,0.2446,1.2580,0.0000,0.0000,0.0000
22.4,0.1380,0.4570,0.1439,1.1904,0.0000,0.0000,0.0000,0.1581,-0.2343,0.2253,1.2601,0.0000,0.0000,0.0000
22.5,0.1627,0.4508,0.1439,1.1902,0.0000,0.0000,0.0000,0.1646,-0.2327,0.1894,1.2576,0.0000,0.0000,0.0000
22.6,0.1778,0.4502,0.1439,1.1899,0.0000,0.0000,0.0000,0.1678,-0.2320,0.1637,1.2560,0.0000,0.0000,0.0000
22.7,0.1867,0.4429,0.1439,1.1907,0.0000,0.0000,0.0000,0.1710,-0.2314,0.1361,1.2529,0.0000,0.0000,0.0000
22.8,0.1920,0.4638,0.1439,1.1949,0.0000,0.0000,0.0000,0.1753,-0.2313,0.1296,1.2533,0.0000,0.0000,0.0000
22.9,0.1952,0.4968,0.1439,1.2038,0.0000,0.0000,0.0000,0.1786,-0.2308,0.1233,1.2530,0.0000,0.0000,0.0000
23.0,0.1972,0.5722,0.1439,1.2129,0.0000,0.0000,0.0000,0.1792,-0.2305,0.1142,1.2522,0.0000,0.0000,0.0000
23.1,0.1983,0.6706,0.1439,1.2277,0.0000,0.0000,0.0000,0.1805,-0.2299,0.1011,1.2502,0.0000,0.0000,0.0000
23.2,-2.3100,0.8478,0.1439,1.2357,0.0000,0.0000,0.0000,0.1758,-0.2297,0.0948,1.2498,0.0000,0.0000,0.0000
23.3,-3.7646,1.2007,0.1439,1.2564,0.0000,0.0000,0.0000,0.1736,-0.2303,0.0775,1.2488,0.0000,0.0000,0.0000
23.4,-4.5661,1.6603,0.1439,1.2534,0.0000,0.0000,0.0000,0.1725,-0.2320,0.0571,1.2489,0.0000,0.0000,0.0000
23.5,-4.9843,1.9278,0.1439,1.2421,0.0000,0.0000,0.0000,0.1691,-0.2341,0.0312,1.2478,0.0000,0.0000,0.0000
23.6,-5.1996,2.1596,0.1439,1.2345,0.0000,0.0000,0.0000,0.1754,-0.2359,-0.0079,1.2415,0.0000,0.0000,0.0000
23.7,-5.3138,2.2909,0.1439,1.2264,0.0000,0.0000,0.0000,0.1778,-0.2372,-0.0359,1.2365,0.0000,0.0000,0.0000
23.8,-5.3807,2.3852,0.1439,1.2200,0.0000,0.0000,0.0000,0.1781,-0.2372,-0.0417,1.2335,0.0000,0.0000,0.0000
23.9,-5.3936,2.5053,0.1366,1.2181,0.0000,0.0000,0.0000,0.1784,-0.2370,-0.0508,1.2299,0.0000,0.0000,0.0000
24.0,-5.4028,2.5728,0.1343,1.2155,0.0000,0.0000,0.0000,0.1782,-0.2366,-0.0504,1.2276,0.0000,0.0000,0.0000
24.1,-5.4017,2.5791,0.1294,1.2128,0.0000,0.0000,0.0000,0.1788,-0.2363,-0.0529,1.2252,0.0000,0.0000,0.0000
24.2,-5.4017,2.5472,0.1301,1.2074,0.0000,0.0000,0.0000,0.1789,-0.2362,-0.0446,1.2248,0.0000,0.0000,0.0000
24.3,-5.4025,2.5301,0.1318,1.2024,0.0000,0.0000,0.0000,0.1781,-0.2360,-0.0352,1.2242,0.0000,0.0000,0.0000
24.4,-5.4002,2.5120,0.1319,1.1978,0.0000,0.0000,0.0000,0.1776,-0.2358,-0.0285,1.2240,0.0000,0.0000,0.0000
24.5,-5.4000,2.4683,0.1372,1.1911,0.0000,0.0000,0.0000,0.1744,-0.2363,-0.0193,1.2252,0.0000,0.0000,0.0000
24.6,-5.4023,2.4387,0.1399,1.1872,0.0000,0.0000,0.0000,0.1646,-0.2358,0.0077,1.2304,0.0000,0.0000,0.0000
24.7,-5.4050,2.4153,0.1414,1.1847,0.0000,0.0000,0.0000,0.1577,-0.2347,0.0157,1.2309,0.0000,0.0000,0.0000
24.8,-5.4034,2.3902,0.1424,1.1815,0.0000,0.0000,0.0000,0.1517,-0.2337,0.0367,1.2345,0.0000,0.0000,0.0000
24.9,-5.4048,2.3912,0.1430,1.1813,0.0000,0.0000,0.0000,0.1503,-0.2329,0.0445,1.2356,0.0000,0.0000,0.0000
25.0,-5.4072,2.4034,0.1433,1.1822,0.0000,0.0000,0.0000,0.1484,-0.2317,0.0400,1.2344,0.0000,0.0000,0.0000
25.1,-5.4161,2.4029,0.1436,1.1821,0.0000,0.0000,0.0000,0.1501,-0.2304,0.0367,1.2331,0.0000,0.0000,0.0000
25.2,-5.4269,2.4224,0.1437,1.1868,0.0000,0.0000,0.0000,0.1543,-0.2285,0.0299,1.2304,0.0000,0.0000,0.0000
25.3,-5.4627,2.3489,0.1438,1.1967,0.0000,0.0000,0.0000,0.1563,-0.2266,0.0531,1.2335,0.0000,0.0000,0.0000
25.4,-5.5013,2.1996,0.1438,1.2231,0.0000,0.0000,0.0000,0.1625,-0.2243,0.0679,1.2360,0.0000,0.0000,0.0000
25.5,-5.5245,1.9385,0.1438,1.2467,0.0000,0.0000,0.0000,0.1708,-0.2225,0.0700,1.2366,0.0000,0.0000,0.0000
25.6,-3.0222,1.6640,0.1439,1.2662,0.0000,0.0000,0.0000,0.1782,-0.2226,0.0608,1.2391,0.0000,0.0000,0.0000
25.7,-1.5694,1.3870,0.1439,1.2736,0.0000,0.0000,0.0000,0.1837,-0.2225,0.0500,1.2404,0.0000,0.0000,0.0000
25.8,-0.7886,1.2016,0.1439,1.2667,0.0000,0.0000,0.0000,0.1859,-0.2230,0.0459,1.2429,0.0000,0.0000,0.0000
25.9,-0.3609,1.0830,0.1439,1.2579,0.0000,0.0000,0.0000,0.1857,-0.2235,0.0583,1.2476,0.0000,0.0000,0.0000
26.0,-0.1243,1.0113,0.1439,1.2481,0.0000,0.0000,0.0000,0.1860,-0.2239,0.0628,1.2498,0.0000,0.0000,0.0000
26.1,0.0088,0.9635,0.1439,1.2394,0.0000,0.0000,0.0000,0.1846,-0.2240,0.0581,1.2500,0.0000,0.0000,0.0000
26.2,0.0867,0.8876,0.1439,1.2368,0.0000,0.0000,0.0000,0.1859,-0.2255,0.0633,1.2544,0.0000,0.0000,0.0000
26.3,0.1322,0.8155,0.1439,1.2379,0.0000,0.0000,0.0000,0.1880,-0.2266,0.0548,1.2569,0.0000,0.0000,0.0000
26.4,0.1592,0.7468,0.1439,1.2381,0.0000,0.0000,0.0000,0.1891,-0.2263,0.0434,1.2604,0.0000,0.0000,0.0000
26.5,0.1753,0.6233,0.1439,1.2316,0.0000,0.0000,0.0000,0.1894,-0.2277,-0.0130,1.2697,0.0000,0.0000,0.0000
26.6,0.1850,0.4480,0.1439,1.2115,0.0000,0.0000,0.0000,0.1886,-0.2269,-0.1187,1.2828,0.0000,0.0000,0.0000
26.7,0.1916,0.2475,0.1128,1.1533,0.0000,0.0000,0.0000,0.1863,-0.2246,-0.3520,1.2832,0.0000,0.0000,0.0000
26.8,-1.0778,0.4363,-1.2877,1.0112,0.0000,0.0000,0.0000,0.1044,-0.2154,-0.6068,1.0877,0.0000,0.0000,0.0000
26.9,-1.9160,0.7274,-2.1226,0.7544,0.0000,0.0000,0.0000,-0.0114,-0.2104,-0.7754,0.8274,0.0000,0.0000,0.0000
27.0,-2.3741,0.9716,-2.5571,0.5705,0.0000,0.0000,0.0000,-0.1142,-0.2160,-0.8879,0.6756,0.0000,0.0000,0.0000
27.1,-2.8274,1.3436,-2.6462,0.4608,0.0000,0.0000,0.0000,-0.3018,-0.2383,-0.9351,0.5849,0.0000,0.0000,0.0000
27.2,-3.2436,1.5999,-2.5458,0.3961,0.0000,0.0000,0.0000,-0.4757,-0.2939,-0.9121,0.5315,0.0000,0.0000,0.0000
27.3,-3.6650,1.7206,-2.3007,0.3572,0.0000,0.0000,0.0000,-0.6263,-0.3319,-0.8698,0.4992,0.0000,0.0000,0.0000
27.4,-3.9182,1.7736,-2.1260,0.3339,0.0000,0.0000,0.0000,-0.7201,-0.3306,-0.8726,0.4799,0.0000,0.0000,0.0000
27.5,-3.8154,1.7340,-2.6402,0.3201,0.0000,0.0000,0.0000,-0.7692,-0.3282,-0.8746,0.4684,0.0000,0.0000,0.0000
27.6,-3.7571,1.7118,-2.9619,0.3116,0.0000,0.0000,0.0000,-0.7961,-0.3190,-0.8826,0.4614,0.0000,0.0000,0.0000
27.7,-3.7204,1.7035,-3.1563,0.3065,0.0000,0.0000,0.0000,-0.8122,-0.3118,-0.8866,0.4571,0.0000,0.0000,0.0000
27.8,-3.6942,1.6953,-3.2759,0.3034,0.0000,0.0000,0.0000,-0.8181,-0.2972,-0.8962,0.4545,0.0000,0.0000,0.0000
27.9,-3.6786,1.6912,-3.3457,0.3016,0.0000,0.0000,0.0000,-0.8243,-0.2886,-0.9002,0.4530,0.0000,0.0000,0.0000
28.0,-3.9247,1.7446,-2.7327,0.3004,0.0000,0.0000,0.0000,-0.8276,-0.2764,-0.9095,0.4521,0.0000,0.0000,0.0000
28.1,-4.0920,1.7645,-2.3368,0.2997,0.0000,0.0000,0.0000,-0.8301,-0.2584,-0.9254,0.4515,0.0000,0.0000,0.0000
28.2,-4.1887,1.7800,-2.1096,0.2993,0.0000,0.0000,0.0000,-0.8298,-0.2494,-0.9317,0.4511,0.0000,0.0000,0.0000
28.3,-4.2457,1.7937,-1.9800,0.2991,0.0000,0.0000,0.0000,-0.8307,-0.2436,-0.9343,0.4509,0.0000,0.0000,0.0000
28.4,-4.2848,1.7987,-1.8979,0.2989,0.0000,0.0000,0.0000,-0.8304,-0.2342,-0.9396,0.4508,0.0000,0.0000,0.0000
28.5,-4.3071,1.8026,-1.8488,0.2988,0.0000,0.0000,0.0000,-0.8299,-0.2258,-0.9442,0.4507,0.0000,0.0000,0.0000
28.6,-4.3204,1.8060,-1.8210,0.2988,0.0000,0.0000,0.0000,-0.8296,-0.2217,-0.9457,0.4507,0.0000,0.0000,0.0000
28.7,-4.0589,1.7656,-2.4956,0.2987,0.0000,0.0000,0.0000,-0.8285,-0.2177,-0.9509,0.4507,0.0000,0.0000,0.0000
28.8,-4.1644,1.7847,-2.2187,0.2987,0.0000,0.0000,0.0000,-0.8245,-0.2199,-0.9504,0.4506,0.0000,0.0000,0.0000
28.9,-4.2349,1.7979,-2.0309,0.2987,0.0000,0.0000,0.0000,-0.8221,-0.2210,-0.9499,0.4506,0.0000,0.0000,0.0000
29.0,-4.2769,1.8014,-1.9248,0.2987,0.0000,0.0000,0.0000,-0.8160,-0.2231,-0.9477,0.4506,0.0000,0.0000,0.0000
29.1,-4.0439,1.7669,-2.5398,0.2987,0.0000,0.0000,0.0000,-0.8195,-0.2209,-0.9500,0.4506,0.0000,0.0000,0.0000
29.2,-3.9098,1.7453,-2.8998,0.2987,0.0000,0.0000,0.0000,-0.8220,-0.2189,-0.9516,0.4506,0.0000,0.0000,0.0000
29.3,-3.8291,1.7326,-3.1148,0.2987,0.0000,0.0000,0.0000,-0.8230,-0.2208,-0.9520,0.4506,0.0000,0.0000,0.0000
29.4,-3.7805,1.7283,-3.2461,0.2987,0.0000,0.0000,0.0000,-0.8293,-0.2186,-0.9553,0.4506,0.0000,0.0000,0.0000
29.5,-3.7573,1.7220,-3.3207,0.2987,0.0000,0.0000,0.0000,-0.8322,-0.2177,-0.9565,0.4506,0.0000,0.0000,0.0000
29.6,-3.9895,1.8501,-2.7667,0.2987,0.0000,0.0000,0.0000,-0.8069,-0.2148,-0.9566,0.4506,0.0000,0.0000,0.0000
29.7,-3.8036,1.9789,-2.6877,0.2987,0.0000,0.0000,0.0000,-0.7349,-0.1930,-0.9741,0.4506,0.0000,0.0000,0.0000
29.8,-3.4414,1.9752,-2.8087,0.2987,0.0000,0.0000,0.0000,-0.6141,-0.1576,-1.0047,0.4506,0.0000,0.0000,0.0000
29.9,-3.0970,1.7834,-2.9281,0.2987,0.0000,0.0000,0.0000,-0.4068,-0.1767,-1.0063,0.4506,0.0000,0.0000,0.0000
30.0,-2.9376,1.5659,-2.9961,0.4644,0.0000,0.0000,0.0000,-0.3191,-0.1931,-0.9613,0.4921,0.0000,0.0000,0.0000
30.1,-1.6082,1.0016,-1.7218,0.7183,0.0000,0.0000,0.0000,-0.1350,-0.2166,-0.7893,0.7574,0.0000,0.0000,0.0000
30.2,-0.8314,0.6334,-0.9498,0.8774,0.0000,0.0000,0.0000,-0.0034,-0.2280,-0.5948,0.9576,0.0000,0.0000,0.0000
30.3,-1.3069,0.4060,-1.5572,0.9827,0.0000,0.0000,0.0000,0.0756,-0.2286,-0.4622,1.0722,0.0000,0.0000,0.0000
30.4,-1.6125,0.3098,-1.9396,1.0627,0.0000,0.0000,0.0000,0.1266,-0.2257,-0.3412,1.1397,0.0000,0.0000,0.0000
30.5,-0.9788,0.1922,-1.3475,1.1193,0.0000,0.0000,0.0000,0.1566,-0.2230,-0.2326,1.1865,0.0000,0.0000,0.0000
30.6,-0.4959,0.1542,-0.8264,1.1573,0.0000,0.0000,0.0000,0.1691,-0.2215,-0.1787,1.2239,0.0000,0.0000,0.0000
30.7,-0.2056,0.1177,-0.5218,1.1962,0.0000,0.0000,0.0000,0.1761,-0.2201,-0.1222,1.2498,0.0000,0.0000,0.0000
30.8,-0.0404,0.2361,-0.2494,1.2261,0.0000,0.0000,0.0000,0.1811,-0.2191,-0.0586,1.2607,0.0000,0.0000,0.0000
30.9,0.0585,0.4708,-0.0867,1.2518,0.0000,0.0000,0.0000,0.1876,-0.2204,-0.0293,1.2636,0.0000,0.0000,0.0000
31.0,0.1154,0.5197,0.0066,1.2745,0.0000,0.0000,0.0000,0.1966,-0.2244,-0.0370,1.2687,0.0000,0.0000,0.0000
31.1,0.1527,0.5689,0.0673,1.2910,0.0000,0.0000,0.0000,0.2043,-0.2264,-0.0990,1.2697,0.0000,0.0000,0.0000
31.2,0.1713,0.8382,0.0976,1.3018,0.0000,0.0000,0.0000,0.2114,-0.2267,-0.1661,1.2662,0.0000,0.0000,0.0000
31.3,-0.8857,0.9781,-1.0825,1.3045,0.0000,0.0000,0.0000,0.2220,-0.2256,-0.2089,1.2726,0.0000,0.0000,0.0000
31.4,-0.4604,0.5906,-0.6925,1.3033,0.0000,0.0000,0.0000,0.1939,-0.2210,-0.2763,1.3039,0.0000,0.0000,0.0000
31.5,-2.7113,0.3581,-0.3568,1.2683,0.0000,0.0000,0.0000,0.1569,-0.2220,-0.6007,1.3271,0.0000,0.0000,0.0000
31.6,-2.7296,0.3223,-1.5674,1.2044,0.0000,0.0000,0.0000,0.0561,-0.2177,-1.0987,1.2860,0.0000,0.0000,0.0000
31.7,-2.7409,0.5245,-2.2493,1.1167,0.0000,0.0000,0.0000,-0.0527,-0.2094,-1.4919,1.2036,0.0000,0.0000,0.0000
