RuntimeTerror1001/Real-Steel/robot_motion_20250401-013228.csv
timestamp,left_shoulder_pitch_joint,left_shoulder_yaw_joint,left_shoulder_roll_joint,left_elbow_joint,left_wrist_pitch_joint,left_wrist_yaw_joint,left_wrist_roll_joint,right_shoulder_pitch_joint,right_shoulder_yaw_joint,right_shoulder_roll_joint,right_elbow_joint,right_wrist_pitch_joint,right_wrist_yaw_joint,right_wrist_roll_joint
0.0,-3.0890,-2.6180,-1.3332,0.2825,-1.6140,1.6140,1.9720,0.3451,1.5415,0.5269,0.1396,1.0811,-1.6140,-0.2975
0.1,-3.0890,-2.6180,-1.3453,0.2792,-1.6140,1.6140,1.9720,0.3451,1.5415,0.5145,0.1354,1.0811,-1.6140,-0.2935
0.2,-3.0890,-2.6180,-1.3531,0.2766,-1.6140,1.6140,1.9720,0.3451,1.5415,0.5078,0.1307,1.0811,-1.6140,-0.2731
0.3,-3.0890,-2.6180,-1.3560,0.2750,-1.6140,1.6140,1.9720,0.3451,1.5415,0.5056,0.1253,1.0811,-1.6140,-0.2368
0.4,-3.0890,-2.6180,-1.3548,0.2740,-1.6140,1.6140,1.9720,0.3451,1.5415,0.5076,0.1197,1.0811,-1.6140,-0.1905
0.5,-3.0890,-2.6180,-1.3500,0.2741,-1.6140,1.6140,1.9720,0.3451,1.5415,0.5136,0.1143,1.0811,-1.6140,-0.1375
0.6,-3.0890,-2.6180,-1.3428,0.2757,-1.6140,1.6140,1.9720,0.3451,1.5415,0.5229,0.1094,1.0811,-1.6140,-0.0809
0.7,-3.0890,-2.6180,-1.3328,0.2803,-1.6140,1.6140,1.9720,0.3451,1.5415,0.5336,0.1051,1.0811,-1.6140,-0.0252
0.8,-3.0890,-2.6180,-1.3238,0.2860,-1.6140,1.6140,1.9720,0.3451,1.5415,0.5500,0.1019,1.0811,-1.6140,0.0304
0.9,-3.0890,-2.6180,-1.3157,0.2915,-1.6140,1.6140,1.9720,0.3451,1.5415,0.5713,0.1011,1.0811,-1.6140,0.0856
1.0,-3.0890,-2.6180,-1.3085,0.2960,-1.6140,1.6140,1.9720,0.3451,1.5415,0.5952,0.1016,1.0811,-1.6140,0.1354
1.1,-3.0890,-2.6180,-1.3019,0.3004,-1.6140,1.6140,1.9720,0.3451,1.5415,0.6194,0.1044,1.0811,-1.6140,0.1676
1.2,-3.0890,-2.6180,-1.2902,0.3055,-1.6140,1.6140,1.9720,0.3451,1.5415,0.6397,0.1106,1.0811,-1.6140,0.1792
1.3,-3.0890,-2.6180,-1.2716,0.3111,-1.6140,1.6140,1.9720,0.3451,1.5415,0.6561,0.1240,1.0811,-1.6140,0.1771
1.4,-3.0890,-2.6180,-1.2509,0.3220,-1.6140,1.6140,1.9720,0.3451,1.5415,0.6719,0.1480,1.0811,-1.6140,0.1656
1.5,-3.0890,-2.6180,-1.2324,0.3313,-1.6140,1.6109,1.9720,0.3451,1.5415,0.6861,0.1892,1.0905,-1.6113,0.1361
1.6,-3.0890,-2.6180,-1.2157,0.3392,-1.6140,1.5990,1.9617,0.3451,1.5415,0.6989,0.2493,1.0979,-1.5943,0.0886
1.7,-3.0890,-2.6180,-1.2006,0.3459,-1.6140,1.5742,1.9339,0.3527,1.5415,0.7104,0.3230,1.1039,-1.5598,0.0324
1.8,-3.0890,-2.6180,-1.1871,0.3516,-1.6140,1.5403,1.8982,0.3674,1.5415,0.7208,0.4054,1.1065,-1.5139,-0.0264
1.9,-3.0890,-2.6180,-1.1749,0.3565,-1.6140,1.5071,1.8519,0.3875,1.5415,0.7301,0.4949,1.1043,-1.4620,-0.0899
2.0,-3.0890,-2.6180,-1.1639,0.3606,-1.6140,1.4679,1.7988,0.4107,1.5415,0.7385,0.5891,1.0964,-1.4030,-0.1546
2.1,-3.0890,-2.6180,-1.1450,0.3641,-1.6140,1.4222,1.7563,0.4356,1.5415,0.7461,0.6873,1.0802,-1.3386,-0.2216
2.2,-3.0890,-2.6180,-1.1190,0.3671,-1.6140,1.3696,1.7223,0.4611,1.5415,0.7529,0.7859,1.0588,-1.2723,-0.2879
2.3,-3.0890,-2.6180,-1.0871,0.3696,-1.6140,1.3159,1.6892,0.4868,1.5415,0.7590,0.8822,1.0344,-1.2060,-0.3507
2.4,-3.0890,-2.6180,-1.0525,0.3718,-1.6140,1.2519,1.6626,0.5128,1.5415,0.7645,0.9736,1.0109,-1.1416,-0.4063
2.5,-3.0890,-2.6180,-1.0160,0.3736,-1.6140,1.1822,1.6397,0.5378,1.5415,0.7695,1.0618,0.9824,-1.0814,-0.4615
2.6,-3.0890,-2.6180,-0.9777,0.3751,-1.6140,1.1137,1.6214,0.5617,1.5415,0.7739,1.1424,0.9564,-1.0279,-0.5106
2.7,-3.0890,-2.6180,-0.9380,0.3765,-1.6140,1.0458,1.6027,0.5848,1.5415,0.7779,1.2179,0.9288,-0.9796,-0.5562
2.8,-3.0890,-2.6180,-0.8980,0.3776,-1.6140,0.9817,1.5801,0.6070,1.5415,0.7816,1.2887,0.8987,-0.9339,-0.5973
2.9,-3.0890,-2.6180,-0.8592,0.3785,-1.6140,0.9210,1.5620,0.6286,1.5415,0.7848,1.3562,0.8650,-0.8920,-0.6366
3.0,-3.0890,-2.6180,-0.8237,0.3793,-1.6140,0.8657,1.5476,0.6497,1.5415,0.7877,1.4214,0.8380,-0.8495,-0.6679
3.1,-3.0890,-2.6147,-0.7928,0.3800,-1.6140,0.8175,1.5360,0.6686,1.5415,0.7904,1.4768,0.8164,-0.7991,-0.6931
3.2,-3.0890,-2.6092,-0.7648,0.3806,-1.6140,0.7789,1.5201,0.6857,1.5415,0.7927,1.5236,0.7992,-0.7423,-0.7131
3.3,-3.0890,-2.6041,-0.7402,0.3811,-1.6140,0.7468,1.5042,0.7023,1.5415,0.7949,1.5687,0.7763,-0.6863,-0.7292
3.4,-3.0890,-2.5999,-0.7186,0.3815,-1.6140,0.7199,1.4808,0.7195,1.5415,0.7968,1.6045,0.7579,-0.6408,-0.7421
3.5,-3.0890,-2.5965,-0.7031,0.3819,-1.6140,0.6979,1.4624,0.7371,1.5415,0.7985,1.6369,0.7423,-0.6043,-0.7480
3.6,-3.0890,-2.5940,-0.6918,0.3822,-1.6140,0.6802,1.4477,0.7550,1.5415,0.8001,1.6652,0.7303,-0.5750,-0.7473
3.7,-3.0890,-2.5921,-0.6830,0.3825,-1.6140,0.6664,1.4359,0.7730,1.5415,0.8015,1.6879,0.7252,-0.5530,-0.7405
3.8,-3.0890,-2.5909,-0.6766,0.3827,-1.6140,0.6554,1.4264,0.7909,1.5415,0.8027,1.7084,0.7223,-0.5371,-0.7324
3.9,-3.0890,-2.5902,-0.6728,0.3829,-1.6140,0.6473,1.4189,0.8087,1.5415,0.8039,1.7264,0.7226,-0.5266,-0.7225
4.0,-3.0890,-2.5901,-0.6716,0.3830,-1.6140,0.6427,1.4128,0.8265,1.5415,0.8049,1.7437,0.7231,-0.5205,-0.7134
4.1,-3.0890,-2.5899,-0.6683,0.3832,-1.6140,0.6390,1.4211,0.8427,1.5415,0.8058,1.7565,0.7266,-0.5200,-0.7039
4.2,-3.0890,-2.5898,-0.6654,0.3960,-1.6140,0.6361,1.4408,0.8571,1.5415,0.8066,1.7645,0.7331,-0.5241,-0.6935
4.3,-3.0890,-2.5902,-0.6603,0.4070,-1.6140,0.6258,1.4566,0.8708,1.5415,0.8074,1.7703,0.7410,-0.5303,-0.6818
4.4,-3.0890,-2.5909,-0.6559,0.4162,-1.6140,0.6151,1.4692,0.8844,1.5415,0.8080,1.7736,0.7523,-0.5392,-0.6681
4.5,-3.0890,-2.5920,-0.6533,0.4241,-1.6140,0.6042,1.4793,0.8979,1.5415,0.8086,1.7757,0.7649,-0.5506,-0.6543
4.6,-3.0890,-2.5935,-0.6513,0.4309,-1.6140,0.5924,1.4874,0.9108,1.5415,0.8092,1.7763,0.7789,-0.5635,-0.6402
4.7,-3.0890,-2.5952,-0.6501,0.4366,-1.6140,0.5798,1.4939,0.9232,1.5415,0.8097,1.7761,0.7938,-0.5763,-0.6262
4.8,-3.0890,-2.5972,-0.6488,0.4414,-1.6140,0.5669,1.4990,0.9350,1.5415,0.8101,1.7747,0.8095,-0.5853,-0.6097
4.9,-3.0890,-2.5993,-0.6481,0.4455,-1.6140,0.5563,1.5032,0.9450,1.5415,0.8059,1.7739,0.8223,-0.5915,-0.5951
5.0,-3.0890,-2.6011,-0.6457,0.4490,-1.6140,0.5490,1.5065,0.9511,1.5415,0.7976,1.7746,0.8271,-0.5958,-0.5879
5.1,-3.0890,-2.6028,-0.6418,0.4520,-1.6140,0.5447,1.5091,0.9515,1.5415,0.7822,1.7752,0.8345,-0.6065,-0.5858
5.2,-3.0890,-2.6043,-0.6369,0.4545,-1.6140,0.5409,1.5112,0.9494,1.5415,0.7611,1.7709,0.8412,-0.6161,-0.5842
5.3,-3.0890,-2.6057,-0.6324,0.4567,-1.6140,0.5383,1.5129,0.9480,1.5415,0.7355,1.7656,0.8485,-0.6262,-0.5834
5.4,-3.0890,-2.6069,-0.6285,0.4585,-1.6140,0.5380,1.5143,0.9475,1.5415,0.7065,1.7587,0.8580,-0.6381,-0.5827
5.5,-3.0890,-2.6080,-0.6253,0.4601,-1.6140,0.5394,1.5154,0.9480,1.5415,0.6749,1.7509,0.8691,-0.6513,-0.5821
5.6,-3.0890,-2.6090,-0.6225,0.4614,-1.6140,0.5420,1.5162,0.9493,1.5415,0.6415,1.7419,0.8811,-0.6646,-0.5811
5.7,-3.0890,-2.6099,-0.6200,0.4625,-1.6140,0.5452,1.5169,0.9509,1.5415,0.6066,1.7323,0.8934,-0.6770,-0.5794
5.8,-3.0890,-2.6107,-0.6178,0.4635,-1.6140,0.5488,1.5175,0.9529,1.5415,0.5709,1.7224,0.9054,-0.6879,-0.5769
5.9,-3.0890,-2.6115,-0.6166,0.4643,-1.6140,0.5557,1.5179,0.9550,1.5415,0.5349,1.7123,0.9164,-0.6968,-0.5736
6.0,-3.0890,-2.6121,-0.6160,0.4858,-1.6140,0.5698,1.5183,0.9572,1.5415,0.4998,1.7026,0.9258,-0.7031,-0.5698
6.1,-3.0890,-2.6067,-0.6123,0.5207,-1.6140,0.5881,1.5186,0.9587,1.5415,0.4660,1.6935,0.9322,-0.7062,-0.5661
6.2,-3.0890,-2.6022,-0.6065,0.5729,-1.6140,0.6076,1.5188,0.9611,1.5415,0.4342,1.6859,0.9378,-0.7047,-0.5592
6.3,-3.0890,-2.5986,-0.6000,0.6386,-1.6140,0.6309,1.5190,0.9649,1.5415,0.4048,1.6796,0.9439,-0.6999,-0.5493
6.4,-3.0890,-2.5957,-0.5939,0.7146,-1.6140,0.6562,1.5191,0.9700,1.5415,0.3780,1.6739,0.9513,-0.6931,-0.5368
6.5,-3.0890,-2.5935,-0.5883,0.7977,-1.6140,0.6819,1.5192,0.9764,1.5415,0.3541,1.6689,0.9596,-0.6851,-0.5226
6.6,-3.0890,-2.5920,-0.5833,0.8851,-1.6140,0.7068,1.5193,0.9835,1.5415,0.3330,1.6643,0.9684,-0.6764,-0.5075
6.7,-3.0890,-2.5910,-0.5797,0.9753,-1.6140,0.7301,1.5194,0.9911,1.5415,0.3144,1.6603,0.9779,-0.6679,-0.4921
6.8,-3.0890,-2.5905,-0.5783,1.0680,-1.6140,0.7538,1.5195,0.9999,1.5415,0.3005,1.6553,0.9914,-0.6543,-0.4715
6.9,-3.0890,-2.5904,-0.5791,1.1612,-1.6140,0.7782,1.5195,1.0125,1.5415,0.2956,1.6510,1.0169,-0.6435,-0.4378
7.0,-3.0890,-2.5908,-0.5824,1.2515,-1.6140,0.8029,1.5196,1.0255,1.5415,0.2912,1.6369,1.0511,-0.6348,-0.3973
7.1,-3.0890,-2.5915,-0.5866,1.3368,-1.6140,0.8253,1.5196,1.0326,1.5415,0.2873,1.6249,1.0785,-0.6095,-0.3517
7.2,-3.0890,-2.5925,-0.5916,1.4139,-1.6140,0.8422,1.5196,1.0353,1.5415,0.2838,1.6106,1.1004,-0.5815,-0.3132
7.3,-3.0890,-2.5939,-0.5983,1.4824,-1.6140,0.8528,1.5196,1.0374,1.5415,0.2806,1.5911,1.1261,-0.5591,-0.2863
7.4,-3.0890,-2.5955,-0.6057,1.5417,-1.6140,0.8572,1.5196,1.0401,1.5415,0.2777,1.5705,1.1540,-0.5412,-0.2700
7.5,-3.0890,-2.5973,-0.6138,1.5922,-1.6140,0.8576,1.5197,1.0434,1.5415,0.2751,1.5510,1.1808,-0.5269,-0.2628
7.6,-3.0890,-2.5994,-0.6227,1.6352,-1.6140,0.8553,1.5197,1.0471,1.5415,0.2728,1.5338,1.2045,-0.5154,-0.2635
7.7,-3.0890,-2.6013,-0.6325,1.6717,-1.6140,0.8513,1.5197,1.0513,1.5415,0.2707,1.5197,1.2241,-0.5062,-0.2700
7.8,-3.0890,-2.6029,-0.6440,1.6991,-1.6140,0.8484,1.5197,1.0560,1.5415,0.2688,1.5087,1.2396,-0.4989,-0.2811
7.9,-3.0890,-2.6044,-0.6543,1.7223,-1.6140,0.8460,1.5197,1.0606,1.5415,0.2671,1.5000,1.2511,-0.4930,-0.2960
8.0,-3.0890,-2.6058,-0.6675,1.7421,-1.6140,0.8441,1.5197,1.0651,1.5415,0.2656,1.4933,1.2593,-0.4883,-0.3133
8.1,-3.0890,-2.6070,-0.6794,1.7604,-1.6140,0.8426,1.5197,1.0685,1.5415,0.2643,1.4874,1.2648,-0.4846,-0.3315
8.2,-3.0890,-2.6081,-0.6901,1.7751,-1.6140,0.8334,1.5197,1.0711,1.5415,0.2630,1.4836,1.2660,-0.4816,-0.3504
8.3,-3.0890,-2.6091,-0.6997,1.7914,-1.6140,0.8189,1.5197,1.0736,1.5415,0.2619,1.4825,1.2635,-0.4792,-0.3696
8.4,-3.0890,-2.6100,-0.7084,1.8090,-1.6140,0.8005,1.5197,1.0762,1.5415,0.2609,1.4840,1.2582,-0.4772,-0.3882
8.5,-3.0890,-2.6108,-0.7137,1.8275,-1.6140,0.7794,1.5197,1.0793,1.5415,0.2600,1.4876,1.2506,-0.4757,-0.4049
8.6,-3.0890,-2.6115,-0.7164,1.8465,-1.6140,0.7581,1.5197,1.0828,1.5415,0.2592,1.4933,1.2409,-0.4745,-0.4185
8.7,-3.0890,-2.6122,-0.7175,1.8654,-1.6140,0.7391,1.5197,1.0866,1.5415,0.2597,1.5000,1.2311,-0.4784,-0.4273
8.8,-3.0890,-2.6127,-0.7178,1.8835,-1.6140,0.7234,1.5197,1.0903,1.5415,0.2648,1.5067,1.2253,-0.4965,-0.4354
8.9,-3.0890,-2.6123,-0.7195,1.9017,-1.6140,0.7137,1.5197,1.0943,1.5415,0.2694,1.5124,1.2305,-0.5366,-0.4420
9.0,-3.0890,-2.6104,-0.7242,1.9199,-1.6140,0.7082,1.5197,1.0994,1.5415,0.2735,1.5173,1.2439,-0.5931,-0.4472
9.1,-3.0890,-2.6077,-0.7311,1.9373,-1.6140,0.7046,1.5197,1.1051,1.5415,0.2772,1.5137,1.2636,-0.6610,-0.4514
9.2,-3.0890,-2.6046,-0.7393,1.9530,-1.6140,0.7022,1.5197,1.1107,1.5415,0.2824,1.5100,1.2837,-0.7320,-0.4605
9.3,-3.0890,-2.6017,-0.7483,1.9660,-1.6140,0.7011,1.5197,1.1155,1.5415,0.2880,1.5077,1.2980,-0.7933,-0.4681
9.4,-3.0890,-2.5989,-0.7579,1.9763,-1.6140,0.7003,1.5197,1.1193,1.5415,0.2933,1.5075,1.3052,-0.8413,-0.4734
9.5,-3.0890,-2.5967,-0.7676,1.9838,-1.6140,0.6992,1.5197,1.1219,1.5415,0.2978,1.5089,1.3061,-0.8769,-0.4766
9.6,-3.0890,-2.5949,-0.7770,1.9881,-1.6140,0.6976,1.5197,1.1233,1.5415,0.3011,1.5111,1.3025,-0.9025,-0.4780
9.7,-3.0890,-2.5929,-0.7866,1.9897,-1.6140,0.6972,1.5197,1.1237,1.5415,0.3031,1.5141,1.2954,-0.9190,-0.4776
9.8,-3.0890,-2.5904,-0.7976,1.9882,-1.6140,0.6970,1.5197,1.1234,1.5415,0.3046,1.5180,1.2853,-0.9256,-0.4744
9.9,-3.0890,-2.5882,-0.8074,1.9869,-1.6140,0.6968,1.5217,1.1221,1.5415,0.3060,1.5219,1.2732,-0.9242,-0.4688
10.0,-3.0890,-2.5863,-0.8163,1.9858,-1.6140,0.6966,1.5306,1.1201,1.5415,0.3078,1.5259,1.2597,-0.9125,-0.4594
10.1,-3.0890,-2.5850,-0.8305,1.9864,-1.6140,0.6965,1.5316,1.1192,1.5415,0.3109,1.5336,1.2428,-0.8864,-0.4451
10.2,-3.0890,-2.5844,-0.8472,1.9883,-1.6140,0.7013,1.5166,1.1192,1.5415,0.3157,1.5439,1.2241,-0.8500,-0.4279
10.3,-3.0890,-2.5843,-0.8637,1.9913,-1.6140,0.7053,1.4843,1.1197,1.5415,0.3224,1.5560,1.2042,-0.8090,-0.4107
10.4,-3.0890,-2.5848,-0.8784,1.9951,-1.6140,0.7067,1.4366,1.1205,1.5415,0.3312,1.5696,1.1840,-0.7665,-0.3945
10.5,-3.0890,-2.5857,-0.8903,1.9991,-1.6140,0.7052,1.3779,1.1217,1.5415,0.3421,1.5839,1.1645,-0.7240,-0.3787
10.6,-3.0890,-2.5870,-0.8995,2.0031,-1.6140,0.7015,1.3123,1.1235,1.5415,0.3556,1.5991,1.1464,-0.6804,-0.3615
10.7,-3.0890,-2.5887,-0.9055,2.0068,-1.6140,0.6949,1.2418,1.1258,1.5415,0.3720,1.6114,1.1333,-0.6366,-0.3419
10.8,-3.0890,-2.5905,-0.9072,2.0093,-1.6140,0.6869,1.1701,1.1290,1.5415,0.3928,1.6219,1.1359,-0.6015,-0.3262
10.9,-3.0890,-2.5924,-0.9054,2.0111,-1.6140,0.6759,1.0964,1.1333,1.5415,0.4174,1.6208,1.1486,-0.5734,-0.3136
11.0,-3.0890,-2.5943,-0.9032,2.0116,-1.6140,0.6616,1.0196,1.1385,1.5415,0.4441,1.6128,1.1673,-0.5510,-0.2877
11.1,-3.0890,-2.5962,-0.9015,2.0111,-1.6140,0.6474,0.9428,1.1445,1.5415,0.4717,1.6014,1.1892,-0.5330,-0.2572
11.2,-3.0890,-2.5980,-0.9007,2.0099,-1.6140,0.6348,0.8686,1.1513,1.5415,0.4992,1.5886,1.2123,-0.5187,-0.2262
11.3,-3.0890,-2.5998,-0.9009,2.0081,-1.6140,0.6245,0.7997,1.1584,1.5415,0.5253,1.5750,1.2357,-0.4952,-0.1968
11.4,-3.0890,-2.6016,-0.9018,2.0057,-1.6140,0.6166,0.7377,1.1657,1.5415,0.5491,1.5612,1.2587,-0.4692,-0.1702
11.5,-3.0890,-2.6032,-0.9031,2.0018,-1.6140,0.6115,0.6832,1.1730,1.5415,0.5704,1.5475,1.2806,-0.4412,-0.1462
11.6,-3.0890,-2.6047,-0.9051,1.9945,-1.6140,0.6163,0.6378,1.1802,1.5415,0.5887,1.5346,1.3005,-0.4125,-0.1249
11.7,-3.0890,-2.6049,-0.9136,1.9883,-1.6140,0.6202,0.6015,1.1871,1.5415,0.6038,1.5222,1.3186,-0.3866,-0.1068
11.8,-3.0890,-2.6042,-0.9254,1.9830,-1.6140,0.6232,0.5725,1.1930,1.5415,0.6146,1.5093,1.3348,-0.3646,-0.0916
11.9,-3.0890,-2.6033,-0.9388,1.9785,-1.6140,0.6257,0.5492,1.1986,1.5415,0.6220,1.4975,1.3486,-0.3421,-0.0783
12.0,-3.0890,-2.6026,-0.9529,1.9687,-1.6140,0.6292,0.5236,1.2039,1.5415,0.6263,1.4875,1.3596,-0.3209,-0.0670
12.1,-3.0890,-2.6020,-0.9673,1.9562,-1.6140,0.6346,0.4987,1.2089,1.5415,0.6276,1.4800,1.3672,-0.3032,-0.0582
12.2,-3.0890,-2.6016,-0.9811,1.9421,-1.6140,0.6430,0.4764,1.2136,1.5415,0.6263,1.4752,1.3710,-0.2888,-0.0523
12.3,-3.0890,-2.6015,-0.9940,1.9277,-1.6140,0.6550,0.4579,1.2180,1.5415,0.6229,1.4733,1.3712,-0.2773,-0.0489
12.4,-3.0890,-2.6015,-1.0056,1.9138,-1.6140,0.6696,0.4433,1.2222,1.5415,0.6179,1.4744,1.3688,-0.2680,-0.0478
12.5,-3.0890,-2.6017,-1.0155,1.9006,-1.6140,0.6847,0.4319,1.2259,1.5415,0.6114,1.4783,1.3632,-0.2593,-0.0485
12.6,-3.0890,-2.6021,-1.0235,1.8886,-1.6140,0.6988,0.4231,1.2293,1.5415,0.6039,1.4850,1.3541,-0.2504,-0.0498
12.7,-3.0890,-2.6026,-1.0296,1.8784,-1.6140,0.7096,0.4162,1.2322,1.5415,0.5956,1.4946,1.3412,-0.2402,-0.0508
12.8,-3.0890,-2.6033,-1.0348,1.8649,-1.6140,0.7182,0.4097,1.2352,1.5415,0.5887,1.5032,1.3312,-0.2313,-0.0514
12.9,-3.0890,-2.6040,-1.0440,1.8534,-1.6140,0.7251,0.4046,1.2401,1.5415,0.5871,1.5105,1.3304,-0.2242,-0.0519
13.0,-3.0890,-2.6049,-1.0574,1.8437,-1.6140,0.7306,0.4005,1.2470,1.5415,0.5922,1.5167,1.3366,-0.2185,-0.0523
13.1,-3.0890,-2.6059,-1.0741,1.8353,-1.6140,0.7350,0.3972,1.2556,1.5415,0.6026,1.5220,1.3481,-0.2140,-0.0526
13.2,-3.0890,-2.6069,-1.0927,1.8283,-1.6140,0.7385,0.3946,1.2656,1.5415,0.6178,1.5265,1.3634,-0.2103,-0.0528
13.3,-3.0890,-2.6080,-1.1135,1.8223,-1.6140,0.7414,0.3925,1.2770,1.5415,0.6385,1.5303,1.3814,-0.2074,-0.0530
13.4,-3.0890,-2.6089,-1.1365,1.8172,-1.6140,0.7436,0.3908,1.2895,1.5415,0.6639,1.5335,1.4011,-0.2051,-0.0532
13.5,-3.0890,-2.6098,-1.1606,1.8129,-1.6140,0.7454,0.3895,1.3028,1.5415,0.6925,1.5363,1.4219,-0.2032,-0.0533
13.6,-3.0890,-2.6106,-1.1853,1.8092,-1.6140,0.7469,0.3884,1.3163,1.5415,0.7230,1.5386,1.4431,-0.2017,-0.0534
13.7,-3.0890,-2.6114,-1.2053,1.8060,-1.6140,0.7480,0.3875,1.3299,1.5415,0.7541,1.5406,1.4642,-0.2005,-0.0535
13.8,-3.0890,-2.6120,-1.2169,1.8009,-1.6140,0.7490,0.3752,1.3409,1.5415,0.7822,1.5430,1.4776,-0.1940,-0.0522
13.9,-3.0890,-2.6126,-1.2212,1.7968,-1.6140,0.7497,0.3595,1.3487,1.5415,0.8074,1.5478,1.4799,-0.1873,-0.0515
14.0,-3.0890,-2.6132,-1.2198,1.7936,-1.6140,0.7396,0.3434,1.3533,1.5415,0.8301,1.5548,1.4724,-0.1793,-0.0508
14.1,-3.0890,-2.6137,-1.2144,1.7913,-1.6140,0.7226,0.3277,1.3551,1.5415,0.8505,1.5634,1.4573,-0.1700,-0.0498
14.2,-3.0890,-2.6141,-1.2056,1.7908,-1.6140,0.7014,0.3138,1.3543,1.5415,0.8689,1.5729,1.4364,-0.1594,-0.0483
14.3,-3.0890,-2.6145,-1.1944,1.7916,-1.6140,0.6774,0.3012,1.3513,1.5415,0.8855,1.5827,1.4111,-0.1471,-0.0459
14.4,-3.0890,-2.6148,-1.1812,1.7956,-1.6140,0.6515,0.2917,1.3463,1.5415,0.9004,1.5965,1.3770,-0.1334,-0.0426
14.5,-3.0890,-2.6152,-1.1632,1.7972,-1.6140,0.6308,0.2870,1.3338,1.5415,0.9138,1.6082,1.3498,-0.1224,-0.0352
14.6,-3.0890,-2.6154,-1.1417,1.7980,-1.6140,0.6151,0.2873,1.3174,1.5415,0.9258,1.6181,1.3247,-0.1171,-0.0309
14.7,-3.0890,-2.6157,-1.1194,1.7982,-1.6140,0.6046,0.2901,1.3001,1.5415,0.9367,1.6257,1.2976,-0.1154,-0.0300
14.8,-3.0890,-2.6159,-1.0978,1.7983,-1.6140,0.5989,0.2951,1.2828,1.5415,0.9465,1.6315,1.2706,-0.1176,-0.0319
14.9,-3.0890,-2.6161,-1.0777,1.7988,-1.6140,0.5971,0.3019,1.2663,1.5415,0.9553,1.6367,1.2440,-0.1243,-0.0369
15.0,-3.0890,-2.6163,-1.0596,1.7995,-1.6140,0.5982,0.3097,1.2511,1.5415,0.9632,1.6418,1.2184,-0.1360,-0.0453
15.1,-3.0890,-2.6165,-1.0440,1.8009,-1.6140,0.6013,0.3184,1.2375,1.5415,0.9703,1.6470,1.1943,-0.1520,-0.0565
15.2,-3.0890,-2.6166,-1.0310,1.8027,-1.6140,0.6055,0.3272,1.2256,1.5415,0.9767,1.6521,1.1727,-0.1719,-0.0702
15.3,-3.0890,-2.6164,-1.0207,1.8060,-1.6140,0.6126,0.3386,1.2157,1.5415,0.9825,1.6587,1.1521,-0.1942,-0.0863
15.4,-3.0890,-2.6141,-1.0119,1.8088,-1.6140,0.6183,0.3478,1.2079,1.5415,0.9877,1.6658,1.1347,-0.2207,-0.1050
15.5,-3.0890,-2.6105,-1.0043,1.8111,-1.6140,0.6229,0.3539,1.2021,1.5415,0.9924,1.6736,1.1197,-0.2490,-0.1253
15.6,-3.0890,-2.6071,-0.9975,1.8096,-1.6140,0.6376,0.3606,1.1981,1.5415,0.9966,1.6811,1.1078,-0.2778,-0.1456
15.7,-3.0890,-2.6044,-0.9911,1.8063,-1.6140,0.6573,0.3683,1.1955,1.5415,1.0004,1.6877,1.0987,-0.3067,-0.1653
15.8,-3.0890,-2.6023,-0.9848,1.8023,-1.6140,0.6784,0.3762,1.1942,1.5415,1.0038,1.6930,1.0926,-0.3355,-0.1841
15.9,-3.0890,-2.6007,-0.9787,1.7981,-1.6140,0.6986,0.3840,1.1939,1.5415,1.0068,1.6967,1.0890,-0.3633,-0.2015
16.0,-3.0890,-2.5996,-0.9726,1.7941,-1.6140,0.7172,0.3915,1.1943,1.5415,1.0096,1.6985,1.0881,-0.3895,-0.2169
16.1,-3.0890,-2.5989,-0.9667,1.7910,-1.6140,0.7338,0.3990,1.1953,1.5415,1.0121,1.6987,1.0894,-0.4115,-0.2285
16.2,-3.0890,-2.5985,-0.9608,1.7892,-1.6140,0.7482,0.4071,1.1962,1.5415,1.0143,1.6982,1.0912,-0.4210,-0.2329
16.3,-3.0890,-2.5985,-0.9531,1.7873,-1.6140,0.7569,0.4139,1.1918,1.5415,1.0163,1.6914,1.0934,-0.4272,-0.2353
16.4,-3.0890,-2.5988,-0.9435,1.7876,-1.6140,0.7567,0.4195,1.1878,1.5316,1.0153,1.6857,1.0951,-0.4200,-0.2291
16.5,-3.0890,-2.5994,-0.9323,1.7904,-1.6140,0.7493,0.4247,1.1842,1.5137,1.0110,1.6808,1.0965,-0.4029,-0.2166
16.6,-3.0890,-2.6002,-0.9206,1.7949,-1.6140,0.7371,0.4286,1.1773,1.4977,1.0033,1.6766,1.0976,-0.3813,-0.2046
16.7,-3.0890,-2.6012,-0.9101,1.8020,-1.6140,0.7223,0.4319,1.1719,1.4832,0.9925,1.6731,1.1004,-0.3679,-0.1959
16.8,-3.0890,-2.6025,-0.9015,1.8114,-1.6140,0.7064,0.4348,1.1682,1.4702,0.9780,1.6690,1.1068,-0.3692,-0.1928
16.9,-3.0890,-2.6039,-0.8945,1.8216,-1.6140,0.6908,0.4370,1.1657,1.4585,0.9595,1.6644,1.1155,-0.3840,-0.1961
17.0,-3.0890,-2.6053,-0.8890,1.8321,-1.6140,0.6753,0.4385,1.1642,1.4480,0.9368,1.6587,1.1266,-0.4090,-0.2035
17.1,-3.0890,-2.6065,-0.8849,1.8425,-1.6140,0.6604,0.4391,1.1634,1.4385,0.9105,1.6520,1.1392,-0.4419,-0.2141
17.2,-3.0890,-2.6077,-0.8826,1.8516,-1.6140,0.6449,0.4369,1.1631,1.4300,0.8808,1.6441,1.1529,-0.4800,-0.2268
17.3,-3.0890,-2.6087,-0.8837,1.8574,-1.6140,0.6288,0.4415,1.1625,1.4223,0.8478,1.6346,1.1666,-0.5205,-0.2406
17.4,-3.0890,-2.6096,-0.8898,1.8624,-1.6140,0.6159,0.4453,1.1606,1.4154,0.8120,1.6206,1.1821,-0.5610,-0.2517
17.5,-3.0890,-2.6105,-0.8983,1.8667,-1.6140,0.5958,0.4483,1.1583,1.4092,0.7750,1.6073,1.1946,-0.5988,-0.2636
17.6,-3.0890,-2.6105,-0.9075,1.8745,-1.6140,0.5834,0.4571,1.1559,1.4036,0.7371,1.5955,1.2037,-0.6302,-0.2745
17.7,-3.0890,-2.6105,-0.9175,1.8823,-1.6140,0.5869,0.4704,1.1547,1.3986,0.7003,1.5869,1.2099,-0.6578,-0.2853
17.8,-3.0890,-2.6106,-0.9275,1.8894,-1.6140,0.6012,0.4860,1.1545,1.3941,0.6657,1.5816,1.2135,-0.6832,-0.2971
17.9,-3.0890,-2.6108,-0.9369,1.8955,-1.6140,0.6225,0.5022,1.1552,1.3900,0.6337,1.5786,1.2153,-0.7070,-0.3097
18.0,-3.0890,-2.6109,-0.9452,1.9007,-1.6140,0.6478,0.5182,1.1566,1.3863,0.6044,1.5769,1.2165,-0.7298,-0.3224
18.1,-3.0890,-2.6111,-0.9523,1.9035,-1.6140,0.6756,0.5322,1.1577,1.3830,0.5773,1.5749,1.2182,-0.7511,-0.3336
18.2,-3.0890,-2.6114,-0.9580,1.9044,-1.6140,0.7053,0.5448,1.1584,1.3800,0.5523,1.5726,1.2200,-0.7700,-0.3434
18.3,-3.0890,-2.6116,-0.9623,1.9035,-1.6140,0.7362,0.5560,1.1587,1.3774,0.5295,1.5700,1.2217,-0.7864,-0.3518
18.4,-3.0890,-2.6119,-0.9653,1.9012,-1.6140,0.7668,0.5658,1.1585,1.3749,0.5085,1.5668,1.2238,-0.8011,-0.3589
18.5,-3.0890,-2.6122,-0.9673,1.8988,-1.6140,0.7958,0.5746,1.1584,1.3728,0.4897,1.5644,1.2252,-0.8143,-0.3660
18.6,-3.0890,-2.6126,-0.9685,1.8966,-1.6140,0.8225,0.5823,1.1583,1.3708,0.4728,1.5632,1.2256,-0.8257,-0.3731
18.7,-3.0890,-2.6129,-0.9692,1.8949,-1.6140,0.8469,0.5890,1.1585,1.3691,0.4578,1.5630,1.2251,-0.8350,-0.3799
18.8,-3.0890,-2.6133,-0.9693,1.8937,-1.6140,0.8691,0.5948,1.1589,1.3675,0.4445,1.5638,1.2241,-0.8428,-0.3863
18.9,-3.0890,-2.6136,-0.9698,1.8927,-1.6140,0.8868,0.5959,1.1614,1.3661,0.4364,1.5645,1.2331,-0.8490,-0.3919
19.0,-3.0890,-2.6140,-0.9702,1.8918,-1.6140,0.9011,0.5968,1.1676,1.3648,0.4384,1.5650,1.2496,-0.8540,-0.3964
19.1,-3.0890,-2.6144,-0.9705,1.8911,-1.6140,0.9124,0.5975,1.1767,1.3636,0.4485,1.5655,1.2716,-0.8580,-0.3999
19.2,-3.0890,-2.6148,-0.9708,1.8905,-1.6140,0.9215,0.5980,1.1885,1.3626,0.4669,1.5660,1.2971,-0.8612,-0.4028
19.3,-3.0890,-2.6151,-0.9711,1.8900,-1.6140,0.9288,0.5985,1.2022,1.3617,0.4911,1.5663,1.3248,-0.8637,-0.4051
19.4,-3.0890,-2.6154,-0.9714,1.8895,-1.6140,0.9346,0.5989,1.2174,1.3608,0.5199,1.5666,1.3534,-0.8658,-0.4069
19.5,-3.0890,-2.6157,-0.9716,1.8891,-1.6140,0.9393,0.5991,1.2336,1.3601,0.5519,1.5669,1.3820,-0.8674,-0.4083
19.6,-3.0890,-2.6159,-0.9718,1.8888,-1.6140,0.9430,0.5994,1.2504,1.3594,0.5858,1.5671,1.4100,-0.8687,-0.4095
19.7,-3.0890,-2.6161,-0.9720,1.8885,-1.6140,0.9460,0.5995,1.2673,1.3588,0.6201,1.5673,1.4369,-0.8698,-0.4104
19.8,-3.0890,-2.6163,-0.9722,1.8883,-1.6140,0.9483,0.5997,1.2840,1.3582,0.6536,1.5674,1.4622,-0.8706,-0.4112
19.9,-3.0890,-2.6165,-0.9723,1.8881,-1.6140,0.9502,0.5998,1.3000,1.3577,0.6856,1.5676,1.4858,-0.8713,-0.4118
20.0,-3.0890,-2.6166,-0.9725,1.8879,-1.6140,0.9518,0.5999,1.3151,1.3573,0.7152,1.5677,1.5073,-0.8718,-0.4123
20.1,-3.0890,-2.6168,-0.9726,1.8878,-1.6140,0.9530,0.6000,1.3291,1.3569,0.7416,1.5678,1.5266,-0.8722,-0.4127
20.2,-3.0890,-2.6169,-0.9727,1.8877,-1.6140,0.9540,0.6000,1.3416,1.3565,0.7642,1.5679,1.5434,-0.8726,-0.4130
20.3,-3.0890,-2.6170,-0.9728,1.8876,-1.6140,0.9548,0.6001,1.3527,1.3562,0.7829,1.5679,1.5575,-0.8728,-0.4132
20.4,-3.0890,-2.6171,-0.9729,1.8875,-1.6140,0.9554,0.6001,1.3626,1.3559,0.7990,1.5680,1.5688,-0.8731,-0.4134
20.5,-3.0890,-2.6172,-0.9795,1.8874,-1.6140,0.9559,0.6002,1.3712,1.3556,0.8122,1.5680,1.5778,-0.8732,-0.4136
20.6,-3.0890,-2.6173,-0.9919,1.8874,-1.6140,0.9563,0.6002,1.3788,1.3554,0.8232,1.5681,1.5851,-0.8734,-0.4137
20.7,-3.0890,-2.6173,-1.0099,1.8873,-1.6140,0.9566,0.6002,1.3849,1.3552,0.8311,1.5681,1.5909,-0.8735,-0.4138
20.8,-3.0890,-2.6174,-1.0315,1.8873,-1.6140,0.9569,0.6002,1.3898,1.3550,0.8364,1.5682,1.5955,-0.8736,-0.4139
20.9,-3.0890,-2.6175,-1.0541,1.8872,-1.6140,0.9571,0.6002,1.3932,1.3548,0.8386,1.5682,1.5992,-0.8737,-0.4139
21.0,-3.0890,-2.6175,-1.0769,1.8872,-1.6140,0.9572,0.6002,1.3956,1.3547,0.8389,1.5682,1.6021,-0.8737,-0.4140
