RuntimeTerror1001/Real-Steel/recordings/motion_20250415-035228.csv
timestamp,left_shoulder_pitch_joint,left_shoulder_roll_joint,left_shoulder_yaw_joint,left_elbow_joint,left_wrist_roll_joint,left_wrist_pitch_joint,left_wrist_yaw_joint,right_shoulder_pitch_joint,right_shoulder_roll_joint,right_shoulder_yaw_joint,right_elbow_joint,right_wrist_roll_joint,right_wrist_pitch_joint,right_wrist_yaw_joint
0.09271049499511719
0.0839226245880127
0.09929990768432617
0.09193301200866699
0.08643841743469238
0.08472490310668945
0.08547687530517578
0.08408665657043457
0.08352398872375488
0.09606719017028809
0.09455084800720215
0.08457469940185547
0.08403587341308594
0.08405780792236328
0.08429503440856934
0.08651590347290039
0.08423995971679688
0.0842752456665039
0.08424186706542969
0.08382868766784668
0.08347392082214355
0.08490180969238281
0.08289384841918945
0.08342885971069336
0.08415389060974121
0.0838003158569336
0.08465719223022461
0.0837244987487793
0.08395743370056152
0.08895206451416016
0.08326148986816406
0.08398246765136719
0.08711433410644531,1.5997060089204285,-0.7867240945752801,2.2515,-0.4684752696738902,-0.9232743734656903,0.0,1.61443
0.08362054824829102,1.6026524378977094,-0.7841519260323373,2.2515,-0.46626885168237314,-0.9304436078324821,0.0,1.61443
0.08476614952087402,1.6070073623705485,-0.7865465179454272,2.2515,-0.4652950328827461,-0.9389954297525451,0.0,1.61443
0.08530044555664062,1.6110284322642319,-0.7868179708695436,2.2515,-0.46715400681333297,-0.9414304221317092,0.0,1.61443
0.08403229713439941,1.6171232057038722,-0.786249598397885,2.2515,-0.46656519085736264,-0.9425071284113349,0.0,1.61443
0.08385157585144043,1.610005143604417,-0.7964367156020703,2.2515,-0.4895080777169897,-0.9403154242540956,0.0,1.61443
0.0863180160522461,1.4613493481278277,-0.6642544702783708,1.6515,-0.5600784957109626,-0.9812094675419495,0.0,1.2713502162550823
0.08466362953186035,1.4613493481278277,-0.6642544702783708,1.6515,-0.5600784957109626,-0.9812094675419495,0.0,1.2713502162550823
0.08430886268615723,1.4613493481278277,-0.6642544702783708,1.6515,-0.5600784957109626,-0.9812094675419495,0.0,1.2713502162550823
0.08518338203430176,1.4613493481278277,-0.6642544702783708,1.6515,-0.5600784957109626,-0.9812094675419495,0.0,1.2713502162550823
0.08423113822937012,1.4613493481278277,-0.6642544702783708,1.6515,-0.5600784957109626,-0.9812094675419495,0.0,1.2713502162550823
0.08513689041137695,1.4613493481278277,-0.6642544702783708,1.6515,-0.5600784957109626,-0.9812094675419495,0.0,1.2713502162550823
0.08610224723815918,1.4613493481278277,-0.6642544702783708,1.6515,-0.5600784957109626,-0.9812094675419495,0.0,1.2713502162550823
0.0868685245513916,1.4613493481278277,-0.6642544702783708,1.6515,-0.5600784957109626,-0.9812094675419495,0.0,1.2713502162550823
0.08416962623596191,1.4613493481278277,-0.6642544702783708,1.6515,-0.5600784957109626,-0.9812094675419495,0.0,1.2713502162550823
0.0894312858581543,1.4613493481278277,-0.6642544702783708,1.6515,-0.5600784957109626,-0.9812094675419495,0.0,1.2713502162550823
0.08350872993469238,1.4613493481278277,-0.6642544702783708,1.6515,-0.5600784957109626,-0.9812094675419495,0.0,1.2713502162550823
0.0859375,1.4613493481278277,-0.6642544702783708,1.6515,-0.5600784957109626,-0.9812094675419495,0.0,1.2713502162550823
